P3
400 225
255
204 226 255
204 226 255
204 226 255
204 226 255
204 226 255
204 226 255
204 226 255
204 226 255
204 226 255
204 226 255
204 226 255
204 226 255
204 226 255
204 226 255
204 226 255
203 226 255
203 226 255
203 226 255
203 226 255
203 226 255
203 226 255
203 226 255
203 226 255
203 225 255
203 225 255
203 225 255
203 225 255
203 225 255
203 225 255
203 225 255
203 225 255
203 225 255
202 225 255
202 225 255
202 225 255
202 225 255
202 225 255
202 225 255
202 225 255
202 225 255
202 225 255
202 225 255
202 225 255
202 225 255
202 225 255
202 225 255
202 225 255
202 225 255
201 225 255
201 225 255
201 225 255
201 225 255
201 224 255
201 224 255
201 224 255
201 224 255
201 224 255
201 224 255
201 224 255
201 224 255
201 224 255
201 224 255
201 224 255
200 224 255
200 224 255
200 224 255
200 224 255
200 224 255
200 224 255
200 224 255
200 224 255
200 224 255
200 224 255
200 224 255
200 224 255
200 224 255
200 224 255
200 224 255
199 224 255
199 224 255
199 223 255
199 223 255
199 223 255
199 223 255
199 223 255
199 223 255
199 223 255
199 223 255
199 223 255
199 223 255
199 223 255
199 223 255
198 223 255
198 223 255
198 223 255
198 223 255
198 223 255
198 223 255
198 223 255
198 223 255
198 223 255
198 223 255
198 223 255
198 223 255
198 223 255
198 223 255
197 222 255
197 222 255
197 222 255
197 222 255
197 222 255
197 222 255
197 222 255
197 222 255
197 222 255
197 222 255
197 222 255
197 222 255
197 222 255
197 222 255
197 222 255
196 222 255
196 222 255
196 222 255
196 222 255
196 222 255
196 222 255
196 222 255
196 222 255
196 222 255
196 222 255
196 222 255
196 222 255
196 222 255
196 222 255
196 221 255
196 221 255
195 221 255
195 221 255
195 221 255
195 221 255
195 221 255
195 221 255
195 221 255
195 221 255
195 221 255
195 221 255
195 221 255
195 221 255
195 221 255
195 221 255
195 221 255
195 221 255
195 221 255
195 221 255
194 221 255
194 221 255
194 221 255
194 221 255
194 221 255
194 221 255
194 221 255
194 221 255
194 221 255
194 221 255
194 221 255
194 221 255
194 221 255
194 221 255
194 221 255
194 221 255
194 221 255
194 221 255
194 221 255
194 221 255
194 221 255
194 221 255
194 220 255
194 220 255
194 220 255
194 220 255
194 220 255
194 220 255
194 220 255
194 220 255
194 220 255
193 220 255
193 220 255
193 220 255
193 220 255
193 220 255
193 220 255
193 220 255
193 220 255
193 220 255
193 220 255
193 220 255
193 220 255
193 220 255
193 220 255
193 220 255
193 220 255
193 220 255
193 220 255
193 220 255
193 220 255
193 220 255
193 220 255
193 220 255
193 220 255
193 220 255
193 220 255
193 220 255
193 220 255
194 220 255
194 220 255
194 220 255
194 220 255
194 220 255
194 220 255
194 220 255
194 220 255
194 220 255
194 221 255
194 221 255
194 221 255
194 221 255
194 221 255
194 221 255
194 221 255
194 221 255
194 221 255
194 221 255
194 221 255
194 221 255
194 221 255
194 221 255
194 221 255
194 221 255
194 221 255
194 221 255
194 221 255
194 221 255
194 221 255
194 221 255
195 221 255
195 221 255
195 221 255
195 221 255
195 221 255
195 221 255
195 221 255
195 221 255
195 221 255
195 221 255
195 221 255
195 221 255
195 221 255
195 221 255
195 221 255
195 221 255
195 221 255
195 221 255
196 221 255
196 221 255
196 222 255
196 222 255
196 222 255
196 222 255
196 222 255
196 222 255
196 222 255
196 222 255
196 222 255
196 222 255
196 222 255
196 222 255
196 222 255
196 222 255
197 222 255
197 222 255
197 222 255
197 222 255
197 222 255
197 222 255
197 222 255
197 222 255
197 222 255
197 222 255
197 222 255
197 222 255
197 222 255
197 222 255
197 223 255
198 223 255
198 223 255
198 223 255
198 223 255
198 223 255
198 223 255
198 223 255
198 223 255
198 223 255
198 223 255
198 223 255
198 223 255
198 223 255
198 223 255
199 223 255
199 223 255
199 223 255
199 223 255
199 223 255
199 223 255
199 223 255
199 223 255
199 223 255
199 223 255
199 223 255
199 223 255
199 224 255
199 224 255
199 224 255
200 224 255
200 224 255
200 224 255
200 224 255
200 224 255
200 224 255
200 224 255
200 224 255
200 224 255
200 224 255
200 224 255
200 224 255
200 224 255
200 224 255
201 224 255
201 224 255
201 224 255
201 224 255
201 224 255
201 224 255
201 224 255
201 224 255
201 224 255
201 224 255
201 225 255
201 225 255
201 225 255
201 225 255
201 225 255
202 225 255
202 225 255
202 225 255
202 225 255
202 225 255
202 225 255
202 225 255
202 225 255
202 225 255
202 225 255
202 225 255
202 225 255
202 225 255
202 225 255
202 225 255
202 225 255
203 225 255
203 225 255
203 225 255
203 225 255
203 225 255
203 225 255
203 225 255
203 225 255
203 225 255
203 226 255
203 226 255
203 226 255
203 226 255
203 226 255
203 226 255
203 226 255
203 226 255
204 226 255
204 226 255
204 226 255
204 226 255
204 226 255
204 226 255
204 226 255
204 226 255
204 226 255
204 226 255
204 226 255
204 226 255
204 226 255
204 226 255
204 226 255
204 226 255
204 226 255
204 226 255
204 226 255
204 226 255
204 226 255
204 226 255
204 226 255
204 226 255
204 226 255
204 226 255
204 226 255
204 226 255
204 226 255
204 226 255
204 226 255
204 226 255
204 226 255
203 226 255
203 226 255
203 226 255
203 226 255
203 226 255
203 226 255
203 226 255
203 225 255
203 225 255
203 225 255
203 225 255
203 225 255
203 225 255
203 225 255
203 225 255
203 225 255
202 225 255
202 225 255
202 225 255
202 225 255
202 225 255
202 225 255
202 225 255
202 225 255
202 225 255
202 225 255
202 225 255
202 225 255
202 225 255
202 225 255
202 225 255
202 225 255
201 225 255
201 225 255
201 225 255
201 225 255
201 224 255
201 224 255
201 224 255
201 224 255
201 224 255
201 224 255
201 224 255
201 224 255
201 224 255
201 224 255
201 224 255
200 224 255
200 224 255
200 224 255
200 224 255
200 224 255
200 224 255
200 224 255
200 224 255
200 224 255
200 224 255
200 224 255
200 224 255
200 224 255
200 224 255
200 224 255
199 224 255
199 224 255
199 223 255
199 223 255
199 223 255
199 223 255
199 223 255
199 223 255
199 223 255
199 223 255
199 223 255
199 223 255
199 223 255
199 223 255
198 223 255
198 223 255
198 223 255
198 223 255
198 223 255
198 223 255
198 223 255
198 223 255
198 223 255
198 223 255
198 223 255
198 223 255
198 223 255
198 223 255
197 223 255
197 222 255
197 222 255
197 222 255
197 222 255
197 222 255
197 222 255
197 222 255
197 222 255
197 222 255
197 222 255
197 222 255
197 222 255
197 222 255
197 222 255
196 222 255
196 222 255
196 222 255
196 222 255
196 222 255
196 222 255
196 222 255
196 222 255
196 222 255
196 222 255
196 222 255
196 222 255
196 222 255
196 222 255
196 222 255
196 221 255
195 221 255
195 221 255
195 221 255
195 221 255
195 221 255
195 221 255
195 221 255
195 221 255
195 221 255
195 221 255
195 221 255
195 221 255
195 221 255
195 221 255
195 221 255
195 221 255
195 221 255
195 221 255
195 221 255
194 221 255
194 221 255
194 221 255
194 221 255
194 221 255
194 221 255
194 221 255
194 221 255
194 221 255
194 221 255
194 221 255
194 221 255
194 221 255
194 221 255
194 221 255
194 221 255
194 221 255
194 221 255
194 221 255
194 221 255
194 221 255
194 221 255
194 221 255
194 221 255
194 221 255
194 220 255
194 220 255
194 220 255
194 220 255
194 220 255
194 220 255
194 220 255
194 220 255
194 220 255
194 220 255
194 220 255
194 220 255
194 220 255
194 220 255
194 220 255
194 220 255
194 220 255
194 220 255
194 220 255
194 220 255
194 220 255
194 220 255
194 220 255
194 220 255
194 220 255
194 220 255
194 220 255
194 220 255
194 220 255
194 220 255
194 220 255
194 220 255
194 220 255
194 220 255
194 221 255
194 221 255
194 221 255
194 221 255
194 221 255
194 221 255
194 221 255
194 221 255
194 221 255
194 221 255
194 221 255
194 221 255
194 221 255
194 221 255
194 221 255
194 221 255
194 221 255
194 221 255
194 221 255
194 221 255
194 221 255
194 221 255
194 221 255
194 221 255
194 221 255
195 221 255
195 221 255
195 221 255
195 221 255
195 221 255
195 221 255
195 221 255
195 221 255
195 221 255
195 221 255
195 221 255
195 221 255
195 221 255
195 221 255
195 221 255
195 221 255
195 221 255
195 221 255
195 221 255
196 221 255
196 222 255
196 222 255
196 222 255
196 222 255
196 222 255
196 222 255
196 222 255
196 222 255
196 222 255
196 222 255
196 222 255
196 222 255
196 222 255
196 222 255
196 222 255
197 222 255
197 222 255
197 222 255
197 222 255
197 222 255
197 222 255
197 222 255
197 222 255
197 222 255
197 222 255
197 222 255
197 222 255
197 222 255
197 222 255
197 223 255
198 223 255
198 223 255
198 223 255
198 223 255
198 223 255
198 223 255
198 223 255
198 223 255
198 223 255
198 223 255
198 223 255
198 223 255
198 223 255
198 223 255
199 223 255
199 223 255
199 223 255
199 223 255
199 223 255
199 223 255
199 223 255
199 223 255
199 223 255
199 223 255
199 223 255
199 223 255
199 224 255
199 224 255
199 224 255
200 224 255
200 224 255
200 224 255
200 224 255
200 224 255
200 224 255
200 224 255
200 224 255
200 224 255
200 224 255
200 224 255
200 224 255
200 224 255
200 224 255
201 224 255
201 224 255
201 224 255
201 224 255
201 224 255
201 224 255
201 224 255
201 224 255
201 224 255
201 224 255
201 225 255
201 225 255
201 225 255
201 225 255
201 225 255
202 225 255
202 225 255
202 225 255
202 225 255
202 225 255
202 225 255
202 225 255
202 225 255
202 225 255
202 225 255
202 225 255
202 225 255
202 225 255
202 225 255
202 225 255
202 225 255
203 225 255
203 225 255
203 225 255
203 225 255
203 225 255
203 225 255
203 225 255
203 225 255
203 225 255
203 226 255
203 226 255
203 226 255
203 226 255
203 226 255
203 226 255
203 226 255
204 226 255
204 226 255
204 226 255
204 226 255
204 226 255
204 226 255
204 226 255
204 226 255
204 226 255
204 226 255
204 226 255
204 226 255
204 226 255
204 226 255
204 226 255
204 226 255
204 226 255
204 226 255
205 226 255
205 226 255
204 226 255
204 226 255
204 226 255
204 226 255
204 226 255
204 226 255
204 226 255
204 226 255
204 226 255
204 226 255
204 226 255
204 226 255
204 226 255
204 226 255
204 226 255
204 226 255
204 226 255
204 226 255
203 226 255
203 226 255
203 226 255
203 226 255
203 226 255
203 226 255
203 226 255
203 225 255
203 225 255
203 225 255
203 225 255
203 225 255
203 225 255
203 225 255
203 225 255
203 225 255
203 225 255
202 225 255
202 225 255
202 225 255
202 225 255
202 225 255
202 225 255
202 225 255
202 225 255
202 225 255
202 225 255
202 225 255
202 225 255
202 225 255
202 225 255
202 225 255
201 225 255
201 225 255
201 225 255
201 225 255
201 225 255
201 224 255
201 224 255
201 224 255
201 224 255
201 224 255
201 224 255
201 224 255
201 224 255
201 224 255
201 224 255
200 224 255
200 224 255
200 224 255
200 224 255
200 224 255
200 224 255
200 224 255
200 224 255
200 224 255
200 224 255
200 224 255
200 224 255
200 224 255
200 224 255
200 224 255
199 224 255
199 224 255
199 223 255
199 223 255
199 223 255
199 223 255
199 223 255
199 223 255
199 223 255
199 223 255
199 223 255
199 223 255
199 223 255
199 223 255
198 223 255
198 223 255
198 223 255
198 223 255
198 223 255
198 223 255
198 223 255
198 223 255
198 223 255
198 223 255
198 223 255
198 223 255
198 223 255
198 223 255
197 223 255
197 222 255
197 222 255
197 222 255
197 222 255
197 222 255
197 222 255
197 222 255
197 222 255
197 222 255
197 222 255
197 222 255
197 222 255
197 222 255
197 222 255
196 222 255
196 222 255
196 222 255
196 222 255
196 222 255
196 222 255
196 222 255
196 222 255
196 222 255
196 222 255
196 222 255
196 222 255
196 222 255
196 222 255
196 222 255
196 221 255
195 221 255
195 221 255
195 221 255
195 221 255
195 221 255
195 221 255
195 221 255
195 221 255
195 221 255
195 221 255
195 221 255
195 221 255
195 221 255
195 221 255
195 221 255
195 221 255
195 221 255
195 221 255
195 221 255
195 221 255
195 221 255
194 221 255
194 221 255
194 221 255
194 221 255
194 221 255
194 221 255
194 221 255
194 221 255
194 221 255
194 221 255
194 221 255
194 221 255
194 221 255
194 221 255
194 221 255
194 221 255
194 221 255
194 221 255
194 221 255
194 221 255
194 221 255
194 221 255
194 221 255
194 221 255
194 221 255
194 221 255
194 221 255
194 221 255
194 221 255
194 221 255
194 221 255
194 220 255
194 220 255
194 220 255
194 220 255
194 220 255
194 220 255
194 220 255
194 220 255
194 220 255
194 220 255
194 220 255
194 220 255
194 220 255
194 220 255
194 220 255
194 221 255
194 221 255
194 221 255
194 221 255
194 221 255
194 221 255
194 221 255
194 221 255
194 221 255
194 221 255
194 221 255
194 221 255
194 221 255
194 221 255
194 221 255
194 221 255
194 221 255
194 221 255
194 221 255
194 221 255
194 221 255
194 221 255
194 221 255
194 221 255
194 221 255
194 221 255
194 221 255
194 221 255
194 221 255
194 221 255
194 221 255
195 221 255
195 221 255
195 221 255
195 221 255
195 221 255
195 221 255
195 221 255
195 221 255
195 221 255
195 221 255
195 221 255
195 221 255
195 221 255
195 221 255
195 221 255
195 221 255
195 221 255
195 221 255
195 221 255
195 221 255
196 221 255
196 222 255
196 222 255
196 222 255
196 222 255
196 222 255
196 222 255
196 222 255
196 222 255
196 222 255
196 222 255
196 222 255
196 222 255
196 222 255
196 222 255
196 222 255
197 222 255
197 222 255
197 222 255
197 222 255
197 222 255
197 222 255
197 222 255
197 222 255
197 222 255
197 222 255
197 222 255
197 222 255
197 222 255
197 222 255
197 223 255
198 223 255
198 223 255
198 223 255
198 223 255
198 223 255
198 223 255
198 223 255
198 223 255
198 223 255
198 223 255
198 223 255
198 223 255
198 223 255
198 223 255
199 223 255
199 223 255
199 223 255
199 223 255
199 223 255
199 223 255
199 223 255
199 223 255
199 223 255
199 223 255
199 223 255
199 223 255
199 224 255
199 224 255
200 224 255
200 224 255
200 224 255
200 224 255
200 224 255
200 224 255
200 224 255
200 224 255
200 224 255
200 224 255
200 224 255
200 224 255
200 224 255
200 224 255
200 224 255
201 224 255
201 224 255
201 224 255
201 224 255
201 224 255
201 224 255
201 224 255
201 224 255
201 224 255
201 224 255
201 225 255
201 225 255
201 225 255
201 225 255
201 225 255
202 225 255
202 225 255
202 225 255
202 225 255
202 225 255
202 225 255
202 225 255
202 225 255
202 225 255
202 225 255
202 225 255
202 225 255
202 225 255
202 225 255
202 225 255
203 225 255
203 225 255
203 225 255
203 225 255
203 225 255
203 225 255
203 225 255
203 225 255
203 225 255
203 225 255
203 226 255
203 226 255
203 226 255
203 226 255
203 226 255
203 226 255
203 226 255
204 226 255
204 226 255
204 226 255
204 226 255
204 226 255
204 226 255
204 226 255
204 226 255
204 226 255
204 226 255
204 226 255
204 226 255
204 226 255
204 226 255
204 226 255
204 226 255
204 226 255
204 226 255
205 226 255
205 226 255
205 226 255
205 226 255
205 226 255
205 226 255
204 226 255
204 226 255
204 226 255
204 226 255
204 226 255
204 226 255
204 226 255
204 226 255
204 226 255
204 226 255
204 226 255
204 226 255
204 226 255
204 226 255
204 226 255
204 226 255
204 226 255
204 226 255
203 226 255
203 226 255
203 226 255
203 226 255
203 226 255
203 226 255
203 226 255
203 226 255
203 225 255
203 225 255
203 225 255
203 225 255
203 225 255
203 225 255
203 225 255
203 225 255
203 225 255
202 225 255
202 225 255
202 225 255
202 225 255
202 225 255
202 225 255
202 225 255
202 225 255
202 225 255
202 225 255
202 225 255
202 225 255
202 225 255
202 225 255
202 225 255
201 225 255
201 225 255
201 225 255
201 225 255
201 225 255
201 224 255
201 224 255
201 224 255
201 224 255
201 224 255
201 224 255
201 224 255
201 224 255
201 224 255
201 224 255
200 224 255
200 224 255
200 224 255
200 224 255
200 224 255
200 224 255
200 224 255
200 224 255
200 224 255
200 224 255
200 224 255
200 224 255
200 224 255
200 224 255
200 224 255
199 224 255
199 224 255
199 223 255
199 223 255
199 223 255
199 223 255
199 223 255
199 223 255
199 223 255
199 223 255
199 223 255
199 223 255
199 223 255
199 223 255
198 223 255
198 223 255
198 223 255
198 223 255
198 223 255
198 223 255
198 223 255
198 223 255
198 223 255
198 223 255
198 223 255
198 223 255
198 223 255
198 223 255
197 223 255
197 222 255
197 222 255
197 222 255
197 222 255
197 222 255
197 222 255
197 222 255
197 222 255
197 222 255
197 222 255
197 222 255
197 222 255
197 222 255
197 222 255
196 222 255
196 222 255
196 222 255
196 222 255
196 222 255
196 222 255
196 222 255
196 222 255
196 222 255
196 222 255
196 222 255
196 222 255
196 222 255
196 222 255
196 222 255
196 221 255
196 221 255
195 221 255
195 221 255
195 221 255
195 221 255
195 221 255
195 221 255
195 221 255
195 221 255
195 221 255
195 221 255
195 221 255
195 221 255
195 221 255
195 221 255
195 221 255
195 221 255
195 221 255
195 221 255
195 221 255
195 221 255
195 221 255
194 221 255
194 221 255
194 221 255
194 221 255
194 221 255
194 221 255
194 221 255
194 221 255
194 221 255
194 221 255
194 221 255
194 221 255
194 221 255
194 221 255
194 221 255
194 221 255
194 221 255
194 221 255
194 221 255
194 221 255
194 221 255
194 221 255
194 221 255
194 221 255
194 221 255
194 221 255
194 221 255
194 221 255
194 221 255
194 221 255
194 221 255
194 221 255
194 221 255
194 221 255
194 221 255
194 221 255
194 221 255
194 221 255
194 221 255
194 221 255
194 221 255
194 221 255
194 221 255
194 221 255
194 221 255
194 221 255
194 221 255
194 221 255
194 221 255
194 221 255
194 221 255
194 221 255
194 221 255
194 221 255
194 221 255
194 221 255
194 221 255
194 221 255
194 221 255
194 221 255
194 221 255
194 221 255
194 221 255
194 221 255
194 221 255
194 221 255
194 221 255
194 221 255
194 221 255
194 221 255
195 221 255
195 221 255
195 221 255
195 221 255
195 221 255
195 221 255
195 221 255
195 221 255
195 221 255
195 221 255
195 221 255
195 221 255
195 221 255
195 221 255
195 221 255
195 221 255
195 221 255
195 221 255
195 221 255
195 221 255
195 221 255
196 221 255
196 222 255
196 222 255
196 222 255
196 222 255
196 222 255
196 222 255
196 222 255
196 222 255
196 222 255
196 222 255
196 222 255
196 222 255
196 222 255
196 222 255
196 222 255
196 222 255
197 222 255
197 222 255
197 222 255
197 222 255
197 222 255
197 222 255
197 222 255
197 222 255
197 222 255
197 222 255
197 222 255
197 222 255
197 222 255
197 222 255
197 223 255
198 223 255
198 223 255
198 223 255
198 223 255
198 223 255
198 223 255
198 223 255
198 223 255
198 223 255
198 223 255
198 223 255
198 223 255
198 223 255
198 223 255
199 223 255
199 223 255
199 223 255
199 223 255
199 223 255
199 223 255
199 223 255
199 223 255
199 223 255
199 223 255
199 223 255
199 223 255
199 224 255
199 224 255
200 224 255
200 224 255
200 224 255
200 224 255
200 224 255
200 224 255
200 224 255
200 224 255
200 224 255
200 224 255
200 224 255
200 224 255
200 224 255
200 224 255
200 224 255
201 224 255
201 224 255
201 224 255
201 224 255
201 224 255
201 224 255
201 224 255
201 224 255
201 224 255
201 224 255
201 225 255
201 225 255
201 225 255
201 225 255
201 225 255
202 225 255
202 225 255
202 225 255
202 225 255
202 225 255
202 225 255
202 225 255
202 225 255
202 225 255
202 225 255
202 225 255
202 225 255
202 225 255
202 225 255
202 225 255
203 225 255
203 225 255
203 225 255
203 225 255
203 225 255
203 225 255
203 225 255
203 225 255
203 225 255
203 226 255
203 226 255
203 226 255
203 226 255
203 226 255
203 226 255
203 226 255
203 226 255
204 226 255
204 226 255
204 226 255
204 226 255
204 226 255
204 226 255
204 226 255
204 226 255
204 226 255
204 226 255
204 226 255
204 226 255
204 226 255
204 226 255
204 226 255
204 226 255
204 226 255
204 226 255
205 226 255
205 226 255
205 226 255
205 226 255
205 226 255
205 226 255
205 226 255
205 226 255
205 226 255
205 226 255
205 226 255
204 226 255
204 226 255
204 226 255
204 226 255
204 226 255
204 226 255
204 226 255
204 226 255
204 226 255
204 226 255
204 226 255
204 226 255
204 226 255
204 226 255
204 226 255
204 226 255
204 226 255
204 226 255
203 226 255
203 226 255
203 226 255
203 226 255
203 226 255
203 226 255
203 226 255
203 225 255
203 225 255
203 225 255
203 225 255
203 225 255
203 225 255
203 225 255
203 225 255
203 225 255
202 225 255
202 225 255
202 225 255
202 225 255
202 225 255
202 225 255
202 225 255
202 225 255
202 225 255
202 225 255
202 225 255
202 225 255
202 225 255
202 225 255
202 225 255
202 225 255
201 225 255
201 225 255
201 225 255
201 225 255
201 224 255
201 224 255
201 224 255
201 224 255
201 224 255
201 224 255
201 224 255
201 224 255
201 224 255
201 224 255
200 224 255
200 224 255
200 224 255
200 224 255
200 224 255
200 224 255
200 224 255
200 224 255
200 224 255
200 224 255
200 224 255
200 224 255
200 224 255
200 224 255
200 224 255
199 224 255
199 224 255
199 223 255
199 223 255
199 223 255
199 223 255
199 223 255
199 223 255
199 223 255
199 223 255
199 223 255
199 223 255
199 223 255
199 223 255
198 223 255
198 223 255
198 223 255
198 223 255
198 223 255
198 223 255
198 223 255
198 223 255
198 223 255
198 223 255
198 223 255
198 223 255
198 223 255
198 223 255
197 223 255
197 222 255
197 222 255
197 222 255
197 222 255
197 222 255
197 222 255
197 222 255
197 222 255
197 222 255
197 222 255
197 222 255
197 222 255
197 222 255
197 222 255
197 222 255
196 222 255
196 222 255
196 222 255
196 222 255
196 222 255
196 222 255
196 222 255
196 222 255
196 222 255
196 222 255
196 222 255
196 222 255
196 222 255
196 222 255
196 222 255
196 221 255
196 221 255
195 221 255
195 221 255
195 221 255
195 221 255
195 221 255
195 221 255
195 221 255
195 221 255
195 221 255
195 221 255
195 221 255
195 221 255
195 221 255
195 221 255
195 221 255
195 221 255
195 221 255
195 221 255
195 221 255
195 221 255
195 221 255
195 221 255
194 221 255
194 221 255
194 221 255
194 221 255
194 221 255
194 221 255
194 221 255
194 221 255
194 221 255
194 221 255
194 221 255
194 221 255
194 221 255
194 221 255
194 221 255
194 221 255
194 221 255
194 221 255
194 221 255
194 221 255
194 221 255
194 221 255
194 221 255
194 221 255
194 221 255
194 221 255
194 221 255
194 221 255
194 221 255
194 221 255
194 221 255
194 221 255
194 221 255
194 221 255
194 221 255
194 221 255
194 221 255
194 221 255
194 221 255
194 221 255
194 221 255
194 221 255
194 221 255
194 221 255
194 221 255
194 221 255
194 221 255
194 221 255
194 221 255
194 221 255
194 221 255
194 221 255
194 221 255
194 221 255
194 221 255
194 221 255
194 221 255
194 221 255
194 221 255
194 221 255
194 221 255
194 221 255
195 221 255
195 221 255
195 221 255
195 221 255
195 221 255
195 221 255
195 221 255
195 221 255
195 221 255
195 221 255
195 221 255
195 221 255
195 221 255
195 221 255
195 221 255
195 221 255
195 221 255
195 221 255
195 221 255
195 221 255
195 221 255
195 221 255
196 221 255
196 221 255
196 222 255
196 222 255
196 222 255
196 222 255
196 222 255
196 222 255
196 222 255
196 222 255
196 222 255
196 222 255
196 222 255
196 222 255
196 222 255
196 222 255
196 222 255
197 222 255
197 222 255
197 222 255
197 222 255
197 222 255
197 222 255
197 222 255
197 222 255
197 222 255
197 222 255
197 222 255
197 222 255
197 222 255
197 222 255
197 222 255
197 223 255
198 223 255
198 223 255
198 223 255
198 223 255
198 223 255
198 223 255
198 223 255
198 223 255
198 223 255
198 223 255
198 223 255
198 223 255
198 223 255
198 223 255
199 223 255
199 223 255
199 223 255
199 223 255
199 223 255
199 223 255
199 223 255
199 223 255
199 223 255
199 223 255
199 223 255
199 223 255
199 224 255
199 224 255
200 224 255
200 224 255
200 224 255
200 224 255
200 224 255
200 224 255
200 224 255
200 224 255
200 224 255
200 224 255
200 224 255
200 224 255
200 224 255
200 224 255
200 224 255
201 224 255
201 224 255
201 224 255
201 224 255
201 224 255
201 224 255
201 224 255
201 224 255
201 224 255
201 224 255
201 225 255
201 225 255
201 225 255
201 225 255
202 225 255
202 225 255
202 225 255
202 225 255
202 225 255
202 225 255
202 225 255
202 225 255
202 225 255
202 225 255
202 225 255
202 225 255
202 225 255
202 225 255
202 225 255
202 225 255
203 225 255
203 225 255
203 225 255
203 225 255
203 225 255
203 225 255
203 225 255
203 225 255
203 225 255
203 226 255
203 226 255
203 226 255
203 226 255
203 226 255
203 226 255
203 226 255
203 226 255
204 226 255
204 226 255
204 226 255
204 226 255
204 226 255
204 226 255
204 226 255
204 226 255
204 226 255
204 226 255
204 226 255
204 226 255
204 226 255
204 226 255
204 226 255
204 226 255
204 226 255
205 226 255
205 226 255
205 226 255
205 226 255
205 226 255
205 226 255
205 226 255
205 227 255
205 227 255
205 226 255
205 226 255
205 226 255
205 226 255
205 226 255
205 226 255
205 226 255
204 226 255
204 226 255
204 226 255
204 226 255
204 226 255
204 226 255
204 226 255
204 226 255
204 226 255
204 226 255
204 226 255
204 226 255
204 226 255
204 226 255
204 226 255
204 226 255
204 226 255
204 226 255
203 226 255
203 226 255
203 226 255
203 226 255
203 226 255
203 226 255
203 226 255
203 225 255
203 225 255
203 225 255
203 225 255
203 225 255
203 225 255
203 225 255
203 225 255
203 225 255
202 225 255
202 225 255
202 225 255
202 225 255
202 225 255
202 225 255
202 225 255
202 225 255
202 225 255
202 225 255
202 225 255
202 225 255
202 225 255
202 225 255
202 225 255
202 225 255
201 225 255
201 225 255
201 225 255
201 225 255
201 224 255
201 224 255
201 224 255
201 224 255
201 224 255
201 224 255
201 224 255
201 224 255
201 224 255
201 224 255
200 224 255
200 224 255
200 224 255
200 224 255
200 224 255
200 224 255
200 224 255
200 224 255
200 224 255
200 224 255
200 224 255
200 224 255
200 224 255
200 224 255
200 224 255
199 224 255
199 224 255
199 223 255
199 223 255
199 223 255
199 223 255
199 223 255
199 223 255
199 223 255
199 223 255
199 223 255
199 223 255
199 223 255
199 223 255
198 223 255
198 223 255
198 223 255
198 223 255
198 223 255
198 223 255
198 223 255
198 223 255
198 223 255
198 223 255
198 223 255
198 223 255
198 223 255
198 223 255
198 223 255
197 222 255
197 222 255
197 222 255
197 222 255
197 222 255
197 222 255
197 222 255
197 222 255
197 222 255
197 222 255
197 222 255
197 222 255
197 222 255
197 222 255
197 222 255
196 222 255
196 222 255
196 222 255
196 222 255
196 222 255
196 222 255
196 222 255
196 222 255
196 222 255
196 222 255
196 222 255
196 222 255
196 222 255
196 222 255
196 222 255
196 222 255
196 221 255
195 221 255
195 221 255
195 221 255
195 221 255
195 221 255
195 221 255
195 221 255
195 221 255
195 221 255
195 221 255
195 221 255
195 221 255
195 221 255
195 221 255
195 221 255
195 221 255
195 221 255
195 221 255
195 221 255
195 221 255
195 221 255
195 221 255
195 221 255
195 221 255
194 221 255
194 221 255
194 221 255
194 221 255
194 221 255
194 221 255
194 221 255
194 221 255
194 221 255
194 221 255
194 221 255
194 221 255
194 221 255
194 221 255
194 221 255
194 221 255
194 221 255
194 221 255
194 221 255
194 221 255
194 221 255
194 221 255
194 221 255
194 221 255
194 221 255
194 221 255
194 221 255
194 221 255
194 221 255
194 221 255
194 221 255
194 221 255
194 221 255
194 221 255
194 221 255
194 221 255
194 221 255
194 221 255
194 221 255
194 221 255
194 221 255
194 221 255
194 221 255
194 221 255
194 221 255
194 221 255
194 221 255
194 221 255
194 221 255
194 221 255
194 221 255
194 221 255
194 221 255
194 221 255
195 221 255
195 221 255
195 221 255
195 221 255
195 221 255
195 221 255
195 221 255
195 221 255
195 221 255
195 221 255
195 221 255
195 221 255
195 221 255
195 221 255
195 221 255
195 221 255
195 221 255
195 221 255
195 221 255
195 221 255
195 221 255
195 221 255
195 221 255
195 221 255
196 221 255
196 222 255
196 222 255
196 222 255
196 222 255
196 222 255
196 222 255
196 222 255
196 222 255
196 222 255
196 222 255
196 222 255
196 222 255
196 222 255
196 222 255
196 222 255
196 222 255
197 222 255
197 222 255
197 222 255
197 222 255
197 222 255
197 222 255
197 222 255
197 222 255
197 222 255
197 222 255
197 222 255
197 222 255
197 222 255
197 222 255
197 222 255
198 223 255
198 223 255
198 223 255
198 223 255
198 223 255
198 223 255
198 223 255
198 223 255
198 223 255
198 223 255
198 223 255
198 223 255
198 223 255
198 223 255
198 223 255
199 223 255
199 223 255
199 223 255
199 223 255
199 223 255
199 223 255
199 223 255
199 223 255
199 223 255
199 223 255
199 223 255
199 223 255
199 224 255
199 224 255
200 224 255
200 224 255
200 224 255
200 224 255
200 224 255
200 224 255
200 224 255
200 224 255
200 224 255
200 224 255
200 224 255
200 224 255
200 224 255
200 224 255
200 224 255
201 224 255
201 224 255
201 224 255
201 224 255
201 224 255
201 224 255
201 224 255
201 224 255
201 224 255
201 224 255
201 225 255
201 225 255
201 225 255
201 225 255
202 225 255
202 225 255
202 225 255
202 225 255
202 225 255
202 225 255
202 225 255
202 225 255
202 225 255
202 225 255
202 225 255
202 225 255
202 225 255
202 225 255
202 225 255
202 225 255
203 225 255
203 225 255
203 225 255
203 225 255
203 225 255
203 225 255
203 225 255
203 225 255
203 225 255
203 226 255
203 226 255
203 226 255
203 226 255
203 226 255
203 226 255
203 226 255
204 226 255
204 226 255
204 226 255
204 226 255
204 226 255
204 226 255
204 226 255
204 226 255
204 226 255
204 226 255
204 226 255
204 226 255
204 226 255
204 226 255
204 226 255
204 226 255
204 226 255
204 226 255
205 226 255
205 226 255
205 226 255
205 226 255
205 226 255
205 226 255
205 226 255
205 227 255
205 227 255
205 227 255
205 227 255
205 227 255
205 227 255
205 226 255
205 226 255
205 226 255
205 226 255
205 226 255
205 226 255
205 226 255
205 226 255
204 226 255
204 226 255
204 226 255
204 226 255
204 226 255
204 226 255
204 226 255
204 226 255
204 226 255
204 226 255
204 226 255
204 226 255
204 226 255
204 226 255
204 226 255
204 226 255
204 226 255
203 226 255
203 226 255
203 226 255
203 226 255
203 226 255
203 226 255
203 226 255
203 225 255
203 225 255
203 225 255
203 225 255
203 225 255
203 225 255
203 225 255
203 225 255
203 225 255
202 225 255
202 225 255
202 225 255
202 225 255
202 225 255
202 225 255
202 225 255
202 225 255
202 225 255
202 225 255
202 225 255
202 225 255
202 225 255
202 225 255
202 225 255
202 225 255
201 225 255
201 225 255
201 225 255
201 225 255
201 224 255
201 224 255
201 224 255
201 224 255
201 224 255
201 224 255
201 224 255
201 224 255
201 224 255
201 224 255
200 224 255
200 224 255
200 224 255
200 224 255
200 224 255
200 224 255
200 224 255
200 224 255
200 224 255
200 224 255
200 224 255
200 224 255
200 224 255
200 224 255
200 224 255
199 224 255
199 224 255
199 223 255
199 223 255
199 223 255
199 223 255
199 223 255
199 223 255
199 223 255
199 223 255
199 223 255
199 223 255
199 223 255
199 223 255
198 223 255
198 223 255
198 223 255
198 223 255
198 223 255
198 223 255
198 223 255
198 223 255
198 223 255
198 223 255
198 223 255
198 223 255
198 223 255
198 223 255
198 223 255
197 222 255
197 222 255
197 222 255
197 222 255
197 222 255
197 222 255
197 222 255
197 222 255
197 222 255
197 222 255
197 222 255
197 222 255
197 222 255
197 222 255
197 222 255
196 222 255
196 222 255
196 222 255
196 222 255
196 222 255
196 222 255
196 222 255
196 222 255
196 222 255
196 222 255
196 222 255
196 222 255
196 222 255
196 222 255
196 222 255
196 222 255
196 222 255
196 221 255
195 221 255
195 221 255
195 221 255
195 221 255
195 221 255
195 221 255
195 221 255
195 221 255
195 221 255
195 221 255
195 221 255
195 221 255
195 221 255
195 221 255
195 221 255
195 221 255
195 221 255
195 221 255
195 221 255
195 221 255
195 221 255
195 221 255
195 221 255
195 221 255
195 221 255
195 221 255
194 221 255
194 221 255
194 221 255
194 221 255
194 221 255
194 221 255
194 221 255
194 221 255
194 221 255
194 221 255
194 221 255
194 221 255
194 221 255
194 221 255
194 221 255
194 221 255
194 221 255
194 221 255
194 221 255
194 221 255
194 221 255
194 221 255
194 221 255
194 221 255
194 221 255
194 221 255
194 221 255
194 221 255
194 221 255
194 221 255
194 221 255
194 221 255
194 221 255
194 221 255
194 221 255
194 221 255
194 221 255
194 221 255
194 221 255
194 221 255
194 221 255
194 221 255
194 221 255
194 221 255
195 221 255
195 221 255
195 221 255
195 221 255
195 221 255
195 221 255
195 221 255
195 221 255
195 221 255
195 221 255
195 221 255
195 221 255
195 221 255
195 221 255
195 221 255
195 221 255
195 221 255
195 221 255
195 221 255
195 221 255
195 221 255
195 221 255
195 221 255
195 221 255
195 221 255
195 221 255
196 221 255
196 222 255
196 222 255
196 222 255
196 222 255
196 222 255
196 222 255
196 222 255
196 222 255
196 222 255
196 222 255
196 222 255
196 222 255
196 222 255
196 222 255
196 222 255
196 222 255
196 222 255
197 222 255
197 222 255
197 222 255
197 222 255
197 222 255
197 222 255
197 222 255
197 222 255
197 222 255
197 222 255
197 222 255
197 222 255
197 222 255
197 222 255
197 222 255
198 223 255
198 223 255
198 223 255
198 223 255
198 223 255
198 223 255
198 223 255
198 223 255
198 223 255
198 223 255
198 223 255
198 223 255
198 223 255
198 223 255
198 223 255
199 223 255
199 223 255
199 223 255
199 223 255
199 223 255
199 223 255
199 223 255
199 223 255
199 223 255
199 223 255
199 223 255
199 223 255
199 224 255
199 224 255
200 224 255
200 224 255
200 224 255
200 224 255
200 224 255
200 224 255
200 224 255
200 224 255
200 224 255
200 224 255
200 224 255
200 224 255
200 224 255
200 224 255
200 224 255
201 224 255
201 224 255
201 224 255
201 224 255
201 224 255
201 224 255
201 224 255
201 224 255
201 224 255
201 224 255
201 225 255
201 225 255
201 225 255
201 225 255
202 225 255
202 225 255
202 225 255
202 225 255
202 225 255
202 225 255
202 225 255
202 225 255
202 225 255
202 225 255
202 225 255
202 225 255
202 225 255
202 225 255
202 225 255
202 225 255
203 225 255
203 225 255
203 225 255
203 225 255
203 225 255
203 225 255
203 225 255
203 225 255
203 225 255
203 226 255
203 226 255
203 226 255
203 226 255
203 226 255
203 226 255
203 226 255
204 226 255
204 226 255
204 226 255
204 226 255
204 226 255
204 226 255
204 226 255
204 226 255
204 226 255
204 226 255
204 226 255
204 226 255
204 226 255
204 226 255
204 226 255
204 226 255
204 226 255
204 226 255
205 226 255
205 226 255
205 226 255
205 226 255
205 226 255
205 226 255
205 226 255
205 227 255
205 227 255
205 227 255
205 227 255
205 227 255
205 227 255
205 227 255
205 227 255
205 227 255
205 227 255
205 227 255
205 226 255
205 226 255
205 226 255
205 226 255
205 226 255
205 226 255
205 226 255
204 226 255
204 226 255
204 226 255
204 226 255
204 226 255
204 226 255
204 226 255
204 226 255
204 226 255
204 226 255
204 226 255
204 226 255
204 226 255
204 226 255
204 226 255
204 226 255
204 226 255
203 226 255
203 226 255
203 226 255
203 226 255
203 226 255
203 226 255
203 226 255
203 226 255
203 225 255
203 225 255
203 225 255
203 225 255
203 225 255
203 225 255
203 225 255
203 225 255
202 225 255
202 225 255
202 225 255
202 225 255
202 225 255
202 225 255
202 225 255
202 225 255
202 225 255
202 225 255
202 225 255
202 225 255
202 225 255
202 225 255
202 225 255
202 225 255
201 225 255
201 225 255
201 225 255
201 225 255
201 224 255
201 224 255
201 224 255
201 224 255
201 224 255
201 224 255
201 224 255
201 224 255
201 224 255
201 224 255
201 224 255
200 224 255
200 224 255
200 224 255
200 224 255
200 224 255
200 224 255
200 224 255
200 224 255
200 224 255
200 224 255
200 224 255
200 224 255
200 224 255
200 224 255
199 224 255
199 224 255
199 223 255
199 223 255
199 223 255
199 223 255
199 223 255
199 223 255
199 223 255
199 223 255
199 223 255
199 223 255
199 223 255
199 223 255
198 223 255
198 223 255
198 223 255
198 223 255
198 223 255
198 223 255
198 223 255
198 223 255
198 223 255
198 223 255
198 223 255
198 223 255
198 223 255
198 223 255
198 223 255
197 223 255
197 222 255
197 222 255
197 222 255
197 222 255
197 222 255
197 222 255
197 222 255
197 222 255
197 222 255
197 222 255
197 222 255
197 222 255
197 222 255
197 222 255
197 222 255
196 222 255
196 222 255
196 222 255
196 222 255
196 222 255
196 222 255
196 222 255
196 222 255
196 222 255
196 222 255
196 222 255
196 222 255
196 222 255
196 222 255
196 222 255
196 222 255
196 222 255
196 221 255
195 221 255
195 221 255
195 221 255
195 221 255
195 221 255
195 221 255
195 221 255
195 221 255
195 221 255
195 221 255
195 221 255
195 221 255
195 221 255
195 221 255
195 221 255
195 221 255
195 221 255
195 221 255
195 221 255
195 221 255
195 221 255
195 221 255
195 221 255
195 221 255
195 221 255
195 221 255
195 221 255
195 221 255
195 221 255
195 221 255
194 221 255
194 221 255
194 221 255
194 221 255
194 221 255
194 221 255
194 221 255
194 221 255
194 221 255
194 221 255
194 221 255
194 221 255
194 221 255
194 221 255
194 221 255
194 221 255
194 221 255
194 221 255
194 221 255
194 221 255
194 221 255
194 221 255
194 221 255
194 221 255
194 221 255
194 221 255
194 221 255
194 221 255
194 221 255
194 221 255
195 221 255
195 221 255
195 221 255
195 221 255
195 221 255
195 221 255
195 221 255
195 221 255
195 221 255
195 221 255
195 221 255
195 221 255
195 221 255
195 221 255
195 221 255
195 221 255
195 221 255
195 221 255
195 221 255
195 221 255
195 221 255
195 221 255
195 221 255
195 221 255
195 221 255
195 221 255
195 221 255
195 221 255
195 221 255
195 221 255
196 221 255
196 222 255
196 222 255
196 222 255
196 222 255
196 222 255
196 222 255
196 222 255
196 222 255
196 222 255
196 222 255
196 222 255
196 222 255
196 222 255
196 222 255
196 222 255
196 222 255
196 222 255
197 222 255
197 222 255
197 222 255
197 222 255
197 222 255
197 222 255
197 222 255
197 222 255
197 222 255
197 222 255
197 222 255
197 222 255
197 222 255
197 222 255
197 222 255
197 223 255
198 223 255
198 223 255
198 223 255
198 223 255
198 223 255
198 223 255
198 223 255
198 223 255
198 223 255
198 223 255
198 223 255
198 223 255
198 223 255
198 223 255
198 223 255
199 223 255
199 223 255
199 223 255
199 223 255
199 223 255
199 223 255
199 223 255
199 223 255
199 223 255
199 223 255
199 223 255
199 223 255
199 224 255
199 224 255
200 224 255
200 224 255
200 224 255
200 224 255
200 224 255
200 224 255
200 224 255
200 224 255
200 224 255
200 224 255
200 224 255
200 224 255
200 224 255
200 224 255
201 224 255
201 224 255
201 224 255
201 224 255
201 224 255
201 224 255
201 224 255
201 224 255
201 224 255
201 224 255
201 224 255
201 225 255
201 225 255
201 225 255
201 225 255
202 225 255
202 225 255
202 225 255
202 225 255
202 225 255
202 225 255
202 225 255
202 225 255
202 225 255
202 225 255
202 225 255
202 225 255
202 225 255
202 225 255
202 225 255
203 225 255
203 225 255
203 225 255
203 225 255
203 225 255
203 225 255
203 225 255
203 225 255
203 225 255
203 226 255
203 226 255
203 226 255
203 226 255
203 226 255
203 226 255
203 226 255
203 226 255
204 226 255
204 226 255
204 226 255
204 226 255
204 226 255
204 226 255
204 226 255
204 226 255
204 226 255
204 226 255
204 226 255
204 226 255
204 226 255
204 226 255
204 226 255
204 226 255
204 226 255
205 226 255
205 226 255
205 226 255
205 226 255
205 226 255
205 226 255
205 226 255
205 227 255
205 227 255
205 227 255
205 227 255
205 227 255
205 227 255
205 227 255
205 227 255
205 227 255
205 227 255
205 227 255
205 227 255
205 227 255
205 227 255
205 227 255
205 227 255
205 226 255
205 226 255
205 226 255
205 226 255
205 226 255
205 226 255
205 226 255
204 226 255
204 226 255
204 226 255
204 226 255
204 226 255
204 226 255
204 226 255
204 226 255
204 226 255
204 226 255
204 226 255
204 226 255
204 226 255
204 226 255
204 226 255
204 226 255
204 226 255
204 226 255
203 226 255
203 226 255
203 226 255
203 226 255
203 226 255
203 226 255
203 226 255
203 225 255
203 225 255
203 225 255
203 225 255
203 225 255
203 225 255
203 225 255
203 225 255
203 225 255
202 225 255
202 225 255
202 225 255
202 225 255
202 225 255
202 225 255
202 225 255
202 225 255
202 225 255
202 225 255
202 225 255
202 225 255
202 225 255
202 225 255
202 225 255
201 225 255
201 225 255
201 225 255
201 225 255
201 224 255
201 224 255
201 224 255
201 224 255
201 224 255
201 224 255
201 224 255
201 224 255
201 224 255
201 224 255
201 224 255
200 224 255
200 224 255
200 224 255
200 224 255
200 224 255
200 224 255
200 224 255
200 224 255
200 224 255
200 224 255
200 224 255
200 224 255
200 224 255
200 224 255
199 224 255
199 224 255
199 223 255
199 223 255
199 223 255
199 223 255
199 223 255
199 223 255
199 223 255
199 223 255
199 223 255
199 223 255
199 223 255
199 223 255
199 223 255
198 223 255
198 223 255
198 223 255
198 223 255
198 223 255
198 223 255
198 223 255
198 223 255
198 223 255
198 223 255
198 223 255
198 223 255
198 223 255
198 223 255
197 223 255
197 222 255
197 222 255
197 222 255
197 222 255
197 222 255
197 222 255
197 222 255
197 222 255
197 222 255
197 222 255
197 222 255
197 222 255
197 222 255
197 222 255
197 222 255
197 222 255
196 222 255
196 222 255
196 222 255
196 222 255
196 222 255
196 222 255
196 222 255
196 222 255
196 222 255
196 222 255
196 222 255
196 222 255
196 222 255
196 222 255
196 222 255
196 222 255
196 222 255
196 221 255
196 221 255
195 221 255
195 221 255
195 221 255
195 221 255
195 221 255
195 221 255
195 221 255
195 221 255
195 221 255
195 221 255
195 221 255
195 221 255
195 221 255
195 221 255
195 221 255
195 221 255
195 221 255
195 221 255
195 221 255
195 221 255
195 221 255
195 221 255
195 221 255
195 221 255
195 221 255
195 221 255
195 221 255
195 221 255
195 221 255
195 221 255
195 221 255
195 221 255
195 221 255
195 221 255
195 221 255
195 221 255
195 221 255
195 221 255
195 221 255
195 221 255
195 221 255
195 221 255
195 221 255
195 221 255
195 221 255
195 221 255
195 221 255
195 221 255
195 221 255
195 221 255
195 221 255
195 221 255
195 221 255
195 221 255
195 221 255
195 221 255
195 221 255
195 221 255
195 221 255
195 221 255
195 221 255
195 221 255
195 221 255
195 221 255
195 221 255
195 221 255
195 221 255
195 221 255
195 221 255
195 221 255
195 221 255
195 221 255
195 221 255
195 221 255
195 221 255
195 221 255
195 221 255
195 221 255
195 221 255
195 221 255
195 221 255
195 221 255
196 221 255
196 221 255
196 222 255
196 222 255
196 222 255
196 222 255
196 222 255
196 222 255
196 222 255
196 222 255
196 222 255
196 222 255
196 222 255
196 222 255
196 222 255
196 222 255
196 222 255
196 222 255
196 222 255
197 222 255
197 222 255
197 222 255
197 222 255
197 222 255
197 222 255
197 222 255
197 222 255
197 222 255
197 222 255
197 222 255
197 222 255
197 222 255
197 222 255
197 222 255
197 222 255
197 223 255
198 223 255
198 223 255
198 223 255
198 223 255
198 223 255
198 223 255
198 223 255
198 223 255
198 223 255
198 223 255
198 223 255
198 223 255
198 223 255
198 223 255
199 223 255
199 223 255
199 223 255
199 223 255
199 223 255
199 223 255
199 223 255
199 223 255
199 223 255
199 223 255
199 223 255
199 223 255
199 223 255
199 224 255
199 224 255
200 224 255
200 224 255
200 224 255
200 224 255
200 224 255
200 224 255
200 224 255
200 224 255
200 224 255
200 224 255
200 224 255
200 224 255
200 224 255
200 224 255
201 224 255
201 224 255
201 224 255
201 224 255
201 224 255
201 224 255
201 224 255
201 224 255
201 224 255
201 224 255
201 225 255
201 225 255
201 225 255
201 225 255
201 225 255
202 225 255
202 225 255
202 225 255
202 225 255
202 225 255
202 225 255
202 225 255
202 225 255
202 225 255
202 225 255
202 225 255
202 225 255
202 225 255
202 225 255
202 225 255
203 225 255
203 225 255
203 225 255
203 225 255
203 225 255
203 225 255
203 225 255
203 225 255
203 225 255
203 226 255
203 226 255
203 226 255
203 226 255
203 226 255
203 226 255
203 226 255
204 226 255
204 226 255
204 226 255
204 226 255
204 226 255
204 226 255
204 226 255
204 226 255
204 226 255
204 226 255
204 226 255
204 226 255
204 226 255
204 226 255
204 226 255
204 226 255
204 226 255
204 226 255
205 226 255
205 226 255
205 226 255
205 226 255
205 226 255
205 226 255
205 226 255
205 227 255
205 227 255
205 227 255
205 227 255
205 227 255
205 227 255
205 227 255
205 227 255
205 227 255
205 227 255
205 227 255
205 227 255
205 227 255
205 227 255
205 227 255
205 227 255
205 227 255
205 227 255
205 227 255
205 227 255
205 227 255
205 226 255
205 226 255
205 226 255
205 226 255
205 226 255
205 226 255
205 226 255
204 226 255
204 226 255
204 226 255
204 226 255
204 226 255
204 226 255
204 226 255
204 226 255
204 226 255
204 226 255
204 226 255
204 226 255
204 226 255
204 226 255
204 226 255
204 226 255
204 226 255
203 226 255
203 226 255
203 226 255
203 226 255
203 226 255
203 226 255
203 226 255
203 225 255
203 225 255
203 225 255
203 225 255
203 225 255
203 225 255
203 225 255
203 225 255
203 225 255
202 225 255
202 225 255
202 225 255
202 225 255
202 225 255
202 225 255
202 225 255
202 225 255
202 225 255
202 225 255
202 225 255
202 225 255
202 225 255
202 225 255
202 225 255
201 225 255
201 225 255
201 225 255
201 225 255
201 225 255
201 224 255
201 224 255
201 224 255
201 224 255
201 224 255
201 224 255
201 224 255
201 224 255
201 224 255
201 224 255
200 224 255
200 224 255
200 224 255
200 224 255
200 224 255
200 224 255
200 224 255
200 224 255
200 224 255
200 224 255
200 224 255
200 224 255
200 224 255
200 224 255
199 224 255
199 224 255
199 224 255
199 223 255
199 223 255
199 223 255
199 223 255
199 223 255
199 223 255
199 223 255
199 223 255
199 223 255
199 223 255
199 223 255
199 223 255
198 223 255
198 223 255
198 223 255
198 223 255
198 223 255
198 223 255
198 223 255
198 223 255
198 223 255
198 223 255
198 223 255
198 223 255
198 223 255
198 223 255
198 223 255
197 222 255
197 222 255
197 222 255
197 222 255
197 222 255
197 222 255
197 222 255
197 222 255
197 222 255
197 222 255
197 222 255
197 222 255
197 222 255
197 222 255
197 222 255
197 222 255
196 222 255
196 222 255
196 222 255
196 222 255
196 222 255
196 222 255
196 222 255
196 222 255
196 222 255
196 222 255
196 222 255
196 222 255
196 222 255
196 222 255
196 222 255
196 222 255
196 222 255
196 222 255
196 221 255
196 221 255
195 221 255
195 221 255
195 221 255
195 221 255
195 221 255
195 221 255
195 221 255
195 221 255
195 221 255
195 221 255
195 221 255
195 221 255
195 221 255
195 221 255
195 221 255
195 221 255
195 221 255
195 221 255
195 221 255
195 221 255
195 221 255
195 221 255
195 221 255
195 221 255
195 221 255
195 221 255
195 221 255
195 221 255
195 221 255
195 221 255
195 221 255
195 221 255
195 221 255
195 221 255
195 221 255
195 221 255
195 221 255
195 221 255
195 221 255
195 221 255
195 221 255
195 221 255
195 221 255
195 221 255
195 221 255
195 221 255
195 221 255
195 221 255
195 221 255
195 221 255
195 221 255
195 221 255
195 221 255
195 221 255
195 221 255
195 221 255
195 221 255
195 221 255
195 221 255
195 221 255
195 221 255
195 221 255
195 221 255
195 221 255
195 221 255
195 221 255
195 221 255
195 221 255
195 221 255
195 221 255
195 221 255
195 221 255
195 221 255
195 221 255
195 221 255
195 221 255
196 221 255
196 221 255
196 222 255
196 222 255
196 222 255
196 222 255
196 222 255
196 222 255
196 222 255
196 222 255
196 222 255
196 222 255
196 222 255
196 222 255
196 222 255
196 222 255
196 222 255
196 222 255
196 222 255
196 222 255
197 222 255
197 222 255
197 222 255
197 222 255
197 222 255
197 222 255
197 222 255
197 222 255
197 222 255
197 222 255
197 222 255
197 222 255
197 222 255
197 222 255
197 222 255
197 222 255
198 223 255
198 223 255
198 223 255
198 223 255
198 223 255
198 223 255
198 223 255
198 223 255
198 223 255
198 223 255
198 223 255
198 223 255
198 223 255
198 223 255
198 223 255
199 223 255
199 223 255
199 223 255
199 223 255
199 223 255
199 223 255
199 223 255
199 223 255
199 223 255
199 223 255
199 223 255
199 223 255
199 224 255
199 224 255
199 224 255
200 224 255
200 224 255
200 224 255
200 224 255
200 224 255
200 224 255
200 224 255
200 224 255
200 224 255
200 224 255
200 224 255
200 224 255
200 224 255
200 224 255
201 224 255
201 224 255
201 224 255
201 224 255
201 224 255
201 224 255
201 224 255
201 224 255
201 224 255
201 224 255
201 225 255
201 225 255
201 225 255
201 225 255
201 225 255
202 225 255
202 225 255
202 225 255
202 225 255
202 225 255
202 225 255
202 225 255
202 225 255
202 225 255
202 225 255
202 225 255
202 225 255
202 225 255
202 225 255
202 225 255
203 225 255
203 225 255
203 225 255
203 225 255
203 225 255
203 225 255
203 225 255
203 225 255
203 225 255
203 226 255
203 226 255
203 226 255
203 226 255
203 226 255
203 226 255
203 226 255
204 226 255
204 226 255
204 226 255
204 226 255
204 226 255
204 226 255
204 226 255
204 226 255
204 226 255
204 226 255
204 226 255
204 226 255
204 226 255
204 226 255
204 226 255
204 226 255
204 226 255
205 226 255
205 226 255
205 226 255
205 226 255
205 226 255
205 226 255
205 226 255
205 227 255
205 227 255
205 227 255
205 227 255
205 227 255
205 227 255
205 227 255
205 227 255
205 227 255
205 227 255
205 227 255
205 227 255
206 227 255
206 227 255
206 227 255
205 227 255
205 227 255
205 227 255
205 227 255
205 227 255
205 227 255
205 227 255
205 227 255
205 227 255
205 227 255
205 227 255
205 226 255
205 226 255
205 226 255
205 226 255
205 226 255
205 226 255
205 226 255
204 226 255
204 226 255
204 226 255
204 226 255
204 226 255
204 226 255
204 226 255
204 226 255
204 226 255
204 226 255
204 226 255
204 226 255
204 226 255
204 226 255
204 226 255
204 226 255
204 226 255
203 226 255
203 226 255
203 226 255
203 226 255
203 226 255
203 226 255
203 226 255
203 226 255
203 225 255
203 225 255
203 225 255
203 225 255
203 225 255
203 225 255
203 225 255
203 225 255
202 225 255
202 225 255
202 225 255
202 225 255
202 225 255
202 225 255
202 225 255
202 225 255
202 225 255
202 225 255
202 225 255
202 225 255
202 225 255
202 225 255
202 225 255
202 225 255
201 225 255
201 225 255
201 225 255
201 225 255
201 224 255
201 224 255
201 224 255
201 224 255
201 224 255
201 224 255
201 224 255
201 224 255
201 224 255
201 224 255
200 224 255
200 224 255
200 224 255
200 224 255
200 224 255
200 224 255
200 224 255
200 224 255
200 224 255
200 224 255
200 224 255
200 224 255
200 224 255
200 224 255
200 224 255
199 224 255
199 224 255
199 223 255
199 223 255
199 223 255
199 223 255
199 223 255
199 223 255
199 223 255
199 223 255
199 223 255
199 223 255
199 223 255
199 223 255
198 223 255
198 223 255
198 223 255
198 223 255
198 223 255
198 223 255
198 223 255
198 223 255
198 223 255
198 223 255
198 223 255
198 223 255
198 223 255
198 223 255
198 223 255
197 223 255
197 222 255
197 222 255
197 222 255
197 222 255
197 222 255
197 222 255
197 222 255
197 222 255
197 222 255
197 222 255
197 222 255
197 222 255
197 222 255
197 222 255
197 222 255
197 222 255
196 222 255
196 222 255
196 222 255
196 222 255
196 222 255
196 222 255
196 222 255
196 222 255
196 222 255
196 222 255
196 222 255
196 222 255
196 222 255
196 222 255
196 222 255
196 222 255
196 222 255
196 222 255
196 222 255
196 221 255
196 221 255
195 221 255
195 221 255
195 221 255
195 221 255
195 221 255
195 221 255
195 221 255
195 221 255
195 221 255
195 221 255
195 221 255
195 221 255
195 221 255
195 221 255
195 221 255
195 221 255
195 221 255
195 221 255
195 221 255
195 221 255
195 221 255
195 221 255
195 221 255
195 221 255
195 221 255
195 221 255
195 221 255
195 221 255
195 221 255
195 221 255
195 221 255
195 221 255
195 221 255
195 221 255
195 221 255
195 221 255
195 221 255
195 221 255
195 221 255
195 221 255
195 221 255
195 221 255
195 221 255
195 221 255
195 221 255
195 221 255
195 221 255
195 221 255
195 221 255
195 221 255
195 221 255
195 221 255
195 221 255
195 221 255
195 221 255
195 221 255
195 221 255
195 221 255
195 221 255
195 221 255
195 221 255
195 221 255
195 221 255
195 221 255
195 221 255
195 221 255
195 221 255
195 221 255
196 221 255
196 221 255
196 222 255
196 222 255
196 222 255
196 222 255
196 222 255
196 222 255
196 222 255
196 222 255
196 222 255
196 222 255
196 222 255
196 222 255
196 222 255
196 222 255
196 222 255
196 222 255
196 222 255
196 222 255
196 222 255
197 222 255
197 222 255
197 222 255
197 222 255
197 222 255
197 222 255
197 222 255
197 222 255
197 222 255
197 222 255
197 222 255
197 222 255
197 222 255
197 222 255
197 222 255
197 222 255
197 223 255
198 223 255
198 223 255
198 223 255
198 223 255
198 223 255
198 223 255
198 223 255
198 223 255
198 223 255
198 223 255
198 223 255
198 223 255
198 223 255
198 223 255
198 223 255
199 223 255
199 223 255
199 223 255
199 223 255
199 223 255
199 223 255
199 223 255
199 223 255
199 223 255
199 223 255
199 223 255
199 223 255
199 224 255
199 224 255
200 224 255
200 224 255
200 224 255
200 224 255
200 224 255
200 224 255
200 224 255
200 224 255
200 224 255
200 224 255
200 224 255
200 224 255
200 224 255
200 224 255
200 224 255
201 224 255
201 224 255
201 224 255
201 224 255
201 224 255
201 224 255
201 224 255
201 224 255
201 224 255
201 224 255
201 225 255
201 225 255
201 225 255
201 225 255
202 225 255
202 225 255
202 225 255
202 225 255
202 225 255
202 225 255
202 225 255
202 225 255
202 225 255
202 225 255
202 225 255
202 225 255
202 225 255
202 225 255
202 225 255
202 225 255
203 225 255
203 225 255
203 225 255
203 225 255
203 225 255
203 225 255
203 225 255
203 225 255
203 226 255
203 226 255
203 226 255
203 226 255
203 226 255
203 226 255
203 226 255
203 226 255
204 226 255
204 226 255
204 226 255
204 226 255
204 226 255
204 226 255
204 226 255
204 226 255
204 226 255
204 226 255
204 226 255
204 226 255
204 226 255
204 226 255
204 226 255
204 226 255
204 226 255
205 226 255
205 226 255
205 226 255
205 226 255
205 226 255
205 226 255
205 226 255
205 227 255
205 227 255
205 227 255
205 227 255
205 227 255
205 227 255
205 227 255
205 227 255
205 227 255
205 227 255
205 227 255
206 227 255
206 227 255
206 227 255
206 227 255
206 227 255
206 227 255
206 227 255
206 227 255
205 227 255
205 227 255
205 227 255
205 227 255
205 227 255
205 227 255
205 227 255
205 227 255
205 227 255
205 227 255
205 227 255
205 226 255
205 226 255
205 226 255
205 226 255
205 226 255
205 226 255
205 226 255
205 226 255
204 226 255
204 226 255
204 226 255
204 226 255
204 226 255
204 226 255
204 226 255
204 226 255
204 226 255
204 226 255
204 226 255
204 226 255
204 226 255
204 226 255
204 226 255
204 226 255
204 226 255
203 226 255
203 226 255
203 226 255
203 226 255
203 226 255
203 226 255
203 226 255
203 225 255
203 225 255
203 225 255
203 225 255
203 225 255
203 225 255
203 225 255
203 225 255
203 225 255
202 225 255
202 225 255
202 225 255
202 225 255
202 225 255
202 225 255
202 225 255
202 225 255
202 225 255
202 225 255
202 225 255
202 225 255
202 225 255
202 225 255
202 225 255
201 225 255
201 225 255
201 225 255
201 225 255
201 224 255
201 224 255
201 224 255
201 224 255
201 224 255
201 224 255
201 224 255
201 224 255
201 224 255
201 224 255
201 224 255
200 224 255
200 224 255
200 224 255
200 224 255
200 224 255
200 224 255
200 224 255
200 224 255
200 224 255
200 224 255
200 224 255
200 224 255
200 224 255
200 224 255
199 224 255
199 224 255
199 223 255
199 223 255
199 223 255
199 223 255
199 223 255
199 223 255
199 223 255
199 223 255
199 223 255
199 223 255
199 223 255
199 223 255
198 223 255
198 223 255
198 223 255
198 223 255
198 223 255
198 223 255
198 223 255
198 223 255
198 223 255
198 223 255
198 223 255
198 223 255
198 223 255
198 223 255
198 223 255
198 223 255
197 222 255
197 222 255
197 222 255
197 222 255
197 222 255
197 222 255
197 222 255
197 222 255
197 222 255
197 222 255
197 222 255
197 222 255
197 222 255
197 222 255
197 222 255
197 222 255
197 222 255
196 222 255
196 222 255
196 222 255
196 222 255
196 222 255
196 222 255
196 222 255
196 222 255
196 222 255
196 222 255
196 222 255
196 222 255
196 222 255
196 222 255
196 222 255
196 222 255
196 222 255
196 222 255
196 222 255
196 222 255
196 221 255
196 221 255
195 221 255
195 221 255
195 221 255
195 221 255
195 221 255
195 221 255
195 221 255
195 221 255
195 221 255
195 221 255
195 221 255
195 221 255
195 221 255
195 221 255
195 221 255
195 221 255
195 221 255
195 221 255
195 221 255
195 221 255
195 221 255
195 221 255
195 221 255
195 221 255
195 221 255
195 221 255
195 221 255
195 221 255
195 221 255
195 221 255
195 221 255
195 221 255
195 221 255
195 221 255
195 221 255
195 221 255
195 221 255
195 221 255
195 221 255
195 221 255
195 221 255
195 221 255
195 221 255
195 221 255
195 221 255
195 221 255
195 221 255
195 221 255
195 221 255
195 221 255
195 221 255
195 221 255
195 221 255
195 221 255
195 221 255
195 221 255
195 221 255
195 221 255
195 221 255
195 221 255
196 221 255
196 221 255
196 222 255
196 222 255
196 222 255
196 222 255
196 222 255
196 222 255
196 222 255
196 222 255
196 222 255
196 222 255
196 222 255
196 222 255
196 222 255
196 222 255
196 222 255
196 222 255
196 222 255
196 222 255
196 222 255
196 222 255
197 222 255
197 222 255
197 222 255
197 222 255
197 222 255
197 222 255
197 222 255
197 222 255
197 222 255
197 222 255
197 222 255
197 222 255
197 222 255
197 222 255
197 222 255
197 222 255
197 222 255
198 223 255
198 223 255
198 223 255
198 223 255
198 223 255
198 223 255
198 223 255
198 223 255
198 223 255
198 223 255
198 223 255
198 223 255
198 223 255
198 223 255
198 223 255
198 223 255
199 223 255
199 223 255
199 223 255
199 223 255
199 223 255
199 223 255
199 223 255
199 223 255
199 223 255
199 223 255
199 223 255
199 223 255
199 224 255
199 224 255
200 224 255
200 224 255
200 224 255
200 224 255
200 224 255
200 224 255
200 224 255
200 224 255
200 224 255
200 224 255
200 224 255
200 224 255
200 224 255
200 224 255
200 224 255
201 224 255
201 224 255
201 224 255
201 224 255
201 224 255
201 224 255
201 224 255
201 224 255
201 224 255
201 224 255
201 225 255
201 225 255
201 225 255
201 225 255
202 225 255
202 225 255
202 225 255
202 225 255
202 225 255
202 225 255
202 225 255
202 225 255
202 225 255
202 225 255
202 225 255
202 225 255
202 225 255
202 225 255
202 225 255
203 225 255
203 225 255
203 225 255
203 225 255
203 225 255
203 225 255
203 225 255
203 225 255
203 225 255
203 226 255
203 226 255
203 226 255
203 226 255
203 226 255
203 226 255
203 226 255
204 226 255
204 226 255
204 226 255
204 226 255
204 226 255
204 226 255
204 226 255
204 226 255
204 226 255
204 226 255
204 226 255
204 226 255
204 226 255
204 226 255
204 226 255
204 226 255
204 226 255
205 226 255
205 226 255
205 226 255
205 226 255
205 226 255
205 226 255
205 226 255
205 226 255
205 227 255
205 227 255
205 227 255
205 227 255
205 227 255
205 227 255
205 227 255
205 227 255
205 227 255
205 227 255
205 227 255
206 227 255
206 227 255
206 227 255
206 227 255
206 227 255
206 227 255
206 227 255
206 227 255
206 227 255
206 227 255
206 227 255
206 227 255
206 227 255
205 227 255
205 227 255
205 227 255
205 227 255
205 227 255
205 227 255
205 227 255
205 227 255
205 227 255
205 227 255
205 227 255
205 226 255
205 226 255
205 226 255
205 226 255
205 226 255
205 226 255
205 226 255
204 226 255
204 226 255
204 226 255
204 226 255
204 226 255
204 226 255
204 226 255
204 226 255
204 226 255
204 226 255
204 226 255
204 226 255
204 226 255
204 226 255
204 226 255
204 226 255
204 226 255
203 226 255
203 226 255
203 226 255
203 226 255
203 226 255
203 226 255
203 226 255
203 225 255
203 225 255
203 225 255
203 225 255
203 225 255
203 225 255
203 225 255
203 225 255
203 225 255
202 225 255
202 225 255
202 225 255
202 225 255
202 225 255
202 225 255
202 225 255
202 225 255
202 225 255
202 225 255
202 225 255
202 225 255
202 225 255
202 225 255
202 225 255
201 225 255
201 225 255
201 225 255
201 225 255
201 224 255
201 224 255
201 224 255
201 224 255
201 224 255
201 224 255
201 224 255
201 224 255
201 224 255
201 224 255
201 224 255
200 224 255
200 224 255
200 224 255
200 224 255
200 224 255
200 224 255
200 224 255
200 224 255
200 224 255
200 224 255
200 224 255
200 224 255
200 224 255
200 224 255
199 224 255
199 224 255
199 223 255
199 223 255
199 223 255
199 223 255
199 223 255
199 223 255
199 223 255
199 223 255
199 223 255
199 223 255
199 223 255
199 223 255
199 223 255
198 223 255
198 223 255
198 223 255
198 223 255
198 223 255
198 223 255
198 223 255
198 223 255
198 223 255
198 223 255
198 223 255
198 223 255
198 223 255
198 223 255
198 223 255
197 223 255
197 222 255
197 222 255
197 222 255
197 222 255
197 222 255
197 222 255
197 222 255
197 222 255
197 222 255
197 222 255
197 222 255
197 222 255
197 222 255
197 222 255
197 222 255
197 222 255
197 222 255
196 222 255
196 222 255
196 222 255
196 222 255
196 222 255
196 222 255
196 222 255
196 222 255
196 222 255
196 222 255
196 222 255
196 222 255
196 222 255
196 222 255
196 222 255
196 222 255
196 222 255
196 222 255
196 222 255
196 222 255
196 222 255
196 221 255
196 221 255
196 221 255
195 221 255
195 221 255
195 221 255
195 221 255
195 221 255
195 221 255
195 221 255
195 221 255
195 221 255
195 221 255
195 221 255
195 221 255
195 221 255
195 221 255
195 221 255
195 221 255
195 221 255
195 221 255
195 221 255
195 221 255
195 221 255
195 221 255
195 221 255
195 221 255
195 221 255
195 221 255
195 221 255
195 221 255
195 221 255
195 221 255
195 221 255
195 221 255
195 221 255
195 221 255
195 221 255
195 221 255
195 221 255
195 221 255
195 221 255
195 221 255
195 221 255
195 221 255
195 221 255
195 221 255
195 221 255
195 221 255
195 221 255
195 221 255
195 221 255
195 221 255
196 221 255
196 221 255
196 221 255
196 222 255
196 222 255
196 222 255
196 222 255
196 222 255
196 222 255
196 222 255
196 222 255
196 222 255
196 222 255
196 222 255
196 222 255
196 222 255
196 222 255
196 222 255
196 222 255
196 222 255
196 222 255
196 222 255
196 222 255
196 222 255
197 222 255
197 222 255
197 222 255
197 222 255
197 222 255
197 222 255
197 222 255
197 222 255
197 222 255
197 222 255
197 222 255
197 222 255
197 222 255
197 222 255
197 222 255
197 222 255
197 222 255
197 223 255
198 223 255
198 223 255
198 223 255
198 223 255
198 223 255
198 223 255
198 223 255
198 223 255
198 223 255
198 223 255
198 223 255
198 223 255
198 223 255
198 223 255
198 223 255
199 223 255
199 223 255
199 223 255
199 223 255
199 223 255
199 223 255
199 223 255
199 223 255
199 223 255
199 223 255
199 223 255
199 223 255
199 223 255
199 224 255
199 224 255
200 224 255
200 224 255
200 224 255
200 224 255
200 224 255
200 224 255
200 224 255
200 224 255
200 224 255
200 224 255
200 224 255
200 224 255
200 224 255
200 224 255
201 224 255
201 224 255
201 224 255
201 224 255
201 224 255
201 224 255
201 224 255
201 224 255
201 224 255
201 224 255
201 225 255
201 225 255
201 225 255
201 225 255
201 225 255
202 225 255
202 225 255
202 225 255
202 225 255
202 225 255
202 225 255
202 225 255
202 225 255
202 225 255
202 225 255
202 225 255
202 225 255
202 225 255
202 225 255
202 225 255
203 225 255
203 225 255
203 225 255
203 225 255
203 225 255
203 225 255
203 225 255
203 225 255
203 225 255
203 226 255
203 226 255
203 226 255
203 226 255
203 226 255
203 226 255
203 226 255
204 226 255
204 226 255
204 226 255
204 226 255
204 226 255
204 226 255
204 226 255
204 226 255
204 226 255
204 226 255
204 226 255
204 226 255
204 226 255
204 226 255
204 226 255
204 226 255
204 226 255
205 226 255
205 226 255
205 226 255
205 226 255
205 226 255
205 226 255
205 226 255
205 227 255
205 227 255
205 227 255
205 227 255
205 227 255
205 227 255
205 227 255
205 227 255
205 227 255
205 227 255
205 227 255
206 227 255
206 227 255
206 227 255
206 227 255
206 227 255
206 227 255
206 227 255
206 227 255
206 227 255
206 227 255
206 227 255
206 227 255
206 227 255
206 227 255
206 227 255
206 227 255
206 227 255
206 227 255
206 227 255
205 227 255
205 227 255
205 227 255
205 227 255
205 227 255
205 227 255
205 227 255
205 227 255
205 227 255
205 227 255
205 226 255
205 226 255
205 226 255
205 226 255
205 226 255
205 226 255
205 226 255
205 226 255
204 226 255
204 226 255
204 226 255
204 226 255
204 226 255
204 226 255
204 226 255
204 226 255
204 226 255
204 226 255
204 226 255
204 226 255
204 226 255
204 226 255
204 226 255
204 226 255
203 226 255
203 226 255
203 226 255
203 226 255
203 226 255
203 226 255
203 226 255
203 226 255
203 225 255
203 225 255
203 225 255
203 225 255
203 225 255
203 225 255
203 225 255
203 225 255
202 225 255
202 225 255
202 225 255
202 225 255
202 225 255
202 225 255
202 225 255
202 225 255
202 225 255
202 225 255
202 225 255
202 225 255
202 225 255
202 225 255
202 225 255
201 225 255
201 225 255
201 225 255
201 225 255
201 225 255
201 224 255
201 224 255
201 224 255
201 224 255
201 224 255
201 224 255
201 224 255
201 224 255
201 224 255
201 224 255
200 224 255
200 224 255
200 224 255
200 224 255
200 224 255
200 224 255
200 224 255
200 224 255
200 224 255
200 224 255
200 224 255
200 224 255
200 224 255
200 224 255
199 224 255
199 224 255
199 224 255
199 223 255
199 223 255
199 223 255
199 223 255
199 223 255
199 223 255
199 223 255
199 223 255
199 223 255
199 223 255
199 223 255
199 223 255
198 223 255
198 223 255
198 223 255
198 223 255
198 223 255
198 223 255
198 223 255
198 223 255
198 223 255
198 223 255
198 223 255
198 223 255
198 223 255
198 223 255
198 223 255
198 223 255
197 222 255
197 222 255
197 222 255
197 222 255
197 222 255
197 222 255
197 222 255
197 222 255
197 222 255
197 222 255
197 222 255
197 222 255
197 222 255
197 222 255
197 222 255
197 222 255
197 222 255
197 222 255
196 222 255
196 222 255
196 222 255
196 222 255
196 222 255
196 222 255
196 222 255
196 222 255
196 222 255
196 222 255
196 222 255
196 222 255
196 222 255
196 222 255
196 222 255
196 222 255
196 222 255
196 222 255
196 222 255
196 222 255
196 222 255
196 222 255
196 222 255
196 222 255
196 221 255
196 221 255
196 221 255
195 221 255
195 221 255
195 221 255
195 221 255
195 221 255
195 221 255
195 221 255
195 221 255
195 221 255
195 221 255
195 221 255
195 221 255
195 221 255
195 221 255
195 221 255
195 221 255
195 221 255
195 221 255
195 221 255
195 221 255
195 221 255
195 221 255
195 221 255
195 221 255
195 221 255
195 221 255
195 221 255
195 221 255
195 221 255
195 221 255
195 221 255
195 221 255
195 221 255
195 221 255
195 221 255
195 221 255
195 221 255
195 221 255
196 221 255
196 221 255
196 221 255
196 221 255
196 222 255
196 222 255
196 222 255
196 222 255
196 222 255
196 222 255
196 222 255
196 222 255
196 222 255
196 222 255
196 222 255
196 222 255
196 222 255
196 222 255
196 222 255
196 222 255
196 222 255
196 222 255
196 222 255
196 222 255
196 222 255
196 222 255
196 222 255
197 222 255
197 222 255
197 222 255
197 222 255
197 222 255
197 222 255
197 222 255
197 222 255
197 222 255
197 222 255
197 222 255
197 222 255
197 222 255
197 222 255
197 222 255
197 222 255
197 222 255
197 222 255
198 223 255
198 223 255
198 223 255
198 223 255
198 223 255
198 223 255
198 223 255
198 223 255
198 223 255
198 223 255
198 223 255
198 223 255
198 223 255
198 223 255
198 223 255
198 223 255
199 223 255
199 223 255
199 223 255
199 223 255
199 223 255
199 223 255
199 223 255
199 223 255
199 223 255
199 223 255
199 223 255
199 223 255
199 224 255
199 224 255
199 224 255
200 224 255
200 224 255
200 224 255
200 224 255
200 224 255
200 224 255
200 224 255
200 224 255
200 224 255
200 224 255
200 224 255
200 224 255
200 224 255
200 224 255
201 224 255
201 224 255
201 224 255
201 224 255
201 224 255
201 224 255
201 224 255
201 224 255
201 224 255
201 224 255
201 225 255
201 225 255
201 225 255
201 225 255
201 225 255
202 225 255
202 225 255
202 225 255
202 225 255
202 225 255
202 225 255
202 225 255
202 225 255
202 225 255
202 225 255
202 225 255
202 225 255
202 225 255
202 225 255
202 225 255
203 225 255
203 225 255
203 225 255
203 225 255
203 225 255
203 225 255
203 225 255
203 225 255
203 226 255
203 226 255
203 226 255
203 226 255
203 226 255
203 226 255
203 226 255
204 226 255
204 226 255
204 226 255
204 226 255
204 226 255
204 226 255
204 226 255
204 226 255
204 226 255
204 226 255
204 226 255
204 226 255
204 226 255
204 226 255
204 226 255
204 226 255
204 226 255
205 226 255
205 226 255
205 226 255
205 226 255
205 226 255
205 226 255
205 226 255
205 227 255
205 227 255
205 227 255
205 227 255
205 227 255
205 227 255
205 227 255
205 227 255
205 227 255
205 227 255
205 227 255
206 227 255
206 227 255
206 227 255
206 227 255
206 227 255
206 227 255
206 227 255
206 227 255
206 227 255
206 227 255
206 227 255
206 227 255
206 227 255
206 227 255
206 227 255
206 227 255
206 227 255
206 227 255
206 227 255
206 227 255
206 227 255
206 227 255
206 227 255
206 227 255
205 227 255
205 227 255
205 227 255
205 227 255
205 227 255
205 227 255
205 227 255
205 227 255
205 227 255
205 227 255
205 227 255
205 226 255
205 226 255
205 226 255
205 226 255
205 226 255
205 226 255
205 226 255
204 226 255
204 226 255
204 226 255
204 226 255
204 226 255
204 226 255
204 226 255
204 226 255
204 226 255
204 226 255
204 226 255
204 226 255
204 226 255
204 226 255
204 226 255
204 226 255
204 226 255
203 226 255
203 226 255
203 226 255
203 226 255
203 226 255
203 226 255
203 226 255
203 225 255
203 225 255
203 225 255
203 225 255
203 225 255
203 225 255
203 225 255
203 225 255
203 225 255
202 225 255
202 225 255
202 225 255
202 225 255
202 225 255
202 225 255
202 225 255
202 225 255
202 225 255
202 225 255
202 225 255
202 225 255
202 225 255
202 225 255
201 225 255
201 225 255
201 225 255
201 225 255
201 225 255
201 224 255
201 224 255
201 224 255
201 224 255
201 224 255
201 224 255
201 224 255
201 224 255
201 224 255
201 224 255
200 224 255
200 224 255
200 224 255
200 224 255
200 224 255
200 224 255
200 224 255
200 224 255
200 224 255
200 224 255
200 224 255
200 224 255
200 224 255
200 224 255
200 224 255
199 224 255
199 224 255
199 223 255
199 223 255
199 223 255
199 223 255
199 223 255
199 223 255
199 223 255
199 223 255
199 223 255
199 223 255
199 223 255
199 223 255
198 223 255
198 223 255
198 223 255
198 223 255
198 223 255
198 223 255
198 223 255
198 223 255
198 223 255
198 223 255
198 223 255
198 223 255
198 223 255
198 223 255
198 223 255
198 223 255
198 223 255
197 222 255
197 222 255
197 222 255
197 222 255
197 222 255
197 222 255
197 222 255
197 222 255
197 222 255
197 222 255
197 222 255
197 222 255
197 222 255
197 222 255
197 222 255
197 222 255
197 222 255
197 222 255
196 222 255
196 222 255
196 222 255
196 222 255
196 222 255
196 222 255
196 222 255
196 222 255
196 222 255
196 222 255
196 222 255
196 222 255
196 222 255
196 222 255
196 222 255
196 222 255
196 222 255
196 222 255
196 222 255
196 222 255
196 222 255
196 222 255
196 222 255
196 222 255
196 222 255
196 222 255
196 222 255
196 222 255
196 221 255
196 221 255
196 221 255
196 221 255
196 221 255
195 221 255
195 221 255
195 221 255
195 221 255
195 221 255
195 221 255
195 221 255
195 221 255
195 221 255
195 221 255
195 221 255
195 221 255
195 221 255
195 221 255
195 221 255
195 221 255
195 221 255
195 221 255
195 221 255
195 221 255
196 221 255
196 221 255
196 221 255
196 221 255
196 221 255
196 222 255
196 222 255
196 222 255
196 222 255
196 222 255
196 222 255
196 222 255
196 222 255
196 222 255
196 222 255
196 222 255
196 222 255
196 222 255
196 222 255
196 222 255
196 222 255
196 222 255
196 222 255
196 222 255
196 222 255
196 222 255
196 222 255
196 222 255
196 222 255
196 222 255
196 222 255
196 222 255
196 222 255
197 222 255
197 222 255
197 222 255
197 222 255
197 222 255
197 222 255
197 222 255
197 222 255
197 222 255
197 222 255
197 222 255
197 222 255
197 222 255
197 222 255
197 222 255
197 222 255
197 222 255
197 222 255
197 223 255
198 223 255
198 223 255
198 223 255
198 223 255
198 223 255
198 223 255
198 223 255
198 223 255
198 223 255
198 223 255
198 223 255
198 223 255
198 223 255
198 223 255
198 223 255
199 223 255
199 223 255
199 223 255
199 223 255
199 223 255
199 223 255
199 223 255
199 223 255
199 223 255
199 223 255
199 223 255
199 223 255
199 223 255
199 224 255
199 224 255
200 224 255
200 224 255
200 224 255
200 224 255
200 224 255
200 224 255
200 224 255
200 224 255
200 224 255
200 224 255
200 224 255
200 224 255
200 224 255
200 224 255
200 224 255
201 224 255
201 224 255
201 224 255
201 224 255
201 224 255
201 224 255
201 224 255
201 224 255
201 224 255
201 224 255
201 225 255
201 225 255
201 225 255
201 225 255
202 225 255
202 225 255
202 225 255
202 225 255
202 225 255
202 225 255
202 225 255
202 225 255
202 225 255
202 225 255
202 225 255
202 225 255
202 225 255
202 225 255
202 225 255
203 225 255
203 225 255
203 225 255
203 225 255
203 225 255
203 225 255
203 225 255
203 225 255
203 225 255
203 226 255
203 226 255
203 226 255
203 226 255
203 226 255
203 226 255
203 226 255
204 226 255
204 226 255
204 226 255
204 226 255
204 226 255
204 226 255
204 226 255
204 226 255
204 226 255
204 226 255
204 226 255
204 226 255
204 226 255
204 226 255
204 226 255
204 226 255
204 226 255
205 226 255
205 226 255
205 226 255
205 226 255
205 226 255
205 226 255
205 226 255
205 227 255
205 227 255
205 227 255
205 227 255
205 227 255
205 227 255
205 227 255
205 227 255
205 227 255
205 227 255
205 227 255
206 227 255
206 227 255
206 227 255
206 227 255
206 227 255
206 227 255
206 227 255
206 227 255
206 227 255
206 227 255
206 227 255
206 227 255
206 227 255
206 227 255
206 227 255
206 227 255
206 227 255
206 227 255
206 227 255
206 227 255
206 227 255
206 227 255
206 227 255
206 227 255
206 227 255
206 227 255
206 227 255
206 227 255
206 227 255
205 227 255
205 227 255
205 227 255
205 227 255
205 227 255
205 227 255
205 227 255
205 227 255
205 227 255
205 227 255
205 227 255
205 226 255
205 226 255
205 226 255
205 226 255
205 226 255
205 226 255
205 226 255
204 226 255
204 226 255
204 226 255
204 226 255
204 226 255
204 226 255
204 226 255
204 226 255
204 226 255
204 226 255
204 226 255
204 226 255
204 226 255
204 226 255
204 226 255
204 226 255
203 226 255
203 226 255
203 226 255
203 226 255
203 226 255
203 226 255
203 226 255
203 225 255
203 225 255
203 225 255
203 225 255
203 225 255
203 225 255
203 225 255
203 225 255
203 225 255
202 225 255
202 225 255
202 225 255
202 225 255
202 225 255
202 225 255
202 225 255
202 225 255
202 225 255
202 225 255
202 225 255
202 225 255
202 225 255
202 225 255
202 225 255
201 225 255
201 225 255
201 225 255
201 225 255
201 224 255
201 224 255
201 224 255
201 224 255
201 224 255
201 224 255
201 224 255
201 224 255
201 224 255
201 224 255
201 224 255
200 224 255
200 224 255
200 224 255
200 224 255
200 224 255
200 224 255
200 224 255
200 224 255
200 224 255
200 224 255
200 224 255
200 224 255
200 224 255
200 224 255
199 224 255
199 224 255
199 223 255
199 223 255
199 223 255
199 223 255
199 223 255
199 223 255
199 223 255
199 223 255
199 223 255
199 223 255
199 223 255
199 223 255
199 223 255
198 223 255
198 223 255
198 223 255
198 223 255
198 223 255
198 223 255
198 223 255
198 223 255
198 223 255
198 223 255
198 223 255
198 223 255
198 223 255
198 223 255
198 223 255
198 223 255
197 223 255
197 222 255
197 222 255
197 222 255
197 222 255
197 222 255
197 222 255
197 222 255
197 222 255
197 222 255
197 222 255
197 222 255
197 222 255
197 222 255
197 222 255
197 222 255
197 222 255
197 222 255
197 222 255
197 222 255
196 222 255
196 222 255
196 222 255
196 222 255
196 222 255
196 222 255
196 222 255
196 222 255
196 222 255
196 222 255
196 222 255
196 222 255
196 222 255
196 222 255
196 222 255
196 222 255
196 222 255
196 222 255
196 222 255
196 222 255
196 222 255
196 222 255
196 222 255
196 222 255
196 222 255
196 222 255
196 222 255
196 222 255
196 222 255
196 222 255
196 222 255
196 222 255
196 222 255
196 222 255
196 222 255
196 222 255
196 222 255
196 222 255
196 222 255
196 222 255
196 222 255
196 222 255
196 222 255
196 222 255
196 222 255
196 222 255
196 222 255
196 222 255
196 222 255
196 222 255
196 222 255
196 222 255
196 222 255
196 222 255
196 222 255
196 222 255
196 222 255
196 222 255
196 222 255
196 222 255
196 222 255
196 222 255
196 222 255
196 222 255
196 222 255
196 222 255
196 222 255
196 222 255
196 222 255
196 222 255
196 222 255
196 222 255
196 222 255
196 222 255
196 222 255
196 222 255
196 222 255
196 222 255
197 222 255
197 222 255
197 222 255
197 222 255
197 222 255
197 222 255
197 222 255
197 222 255
197 222 255
197 222 255
197 222 255
197 222 255
197 222 255
197 222 255
197 222 255
197 222 255
197 222 255
197 222 255
197 222 255
197 223 255
198 223 255
198 223 255
198 223 255
198 223 255
198 223 255
198 223 255
198 223 255
198 223 255
198 223 255
198 223 255
198 223 255
198 223 255
198 223 255
198 223 255
198 223 255
198 223 255
199 223 255
199 223 255
199 223 255
199 223 255
199 223 255
199 223 255
199 223 255
199 223 255
199 223 255
199 223 255
199 223 255
199 223 255
199 223 255
199 224 255
199 224 255
200 224 255
200 224 255
200 224 255
200 224 255
200 224 255
200 224 255
200 224 255
200 224 255
200 224 255
200 224 255
200 224 255
200 224 255
200 224 255
200 224 255
201 224 255
201 224 255
201 224 255
201 224 255
201 224 255
201 224 255
201 224 255
201 224 255
201 224 255
201 224 255
201 224 255
201 225 255
201 225 255
201 225 255
201 225 255
202 225 255
202 225 255
202 225 255
202 225 255
202 225 255
202 225 255
202 225 255
202 225 255
202 225 255
202 225 255
202 225 255
202 225 255
202 225 255
202 225 255
202 225 255
203 225 255
203 225 255
203 225 255
203 225 255
203 225 255
203 225 255
203 225 255
203 225 255
203 225 255
203 226 255
203 226 255
203 226 255
203 226 255
203 226 255
203 226 255
203 226 255
204 226 255
204 226 255
204 226 255
204 226 255
204 226 255
204 226 255
204 226 255
204 226 255
204 226 255
204 226 255
204 226 255
204 226 255
204 226 255
204 226 255
204 226 255
204 226 255
205 226 255
205 226 255
205 226 255
205 226 255
205 226 255
205 226 255
205 226 255
205 227 255
205 227 255
205 227 255
205 227 255
205 227 255
205 227 255
205 227 255
205 227 255
205 227 255
205 227 255
205 227 255
206 227 255
206 227 255
206 227 255
206 227 255
206 227 255
206 227 255
206 227 255
206 227 255
206 227 255
206 227 255
206 227 255
206 227 255
206 227 255
206 227 255
206 227 255
206 227 255
206 227 255
206 227 255
206 227 255
206 227 255
206 227 255
206 227 255
206 227 255
206 227 255
206 227 255
206 227 255
206 227 255
206 227 255
206 227 255
206 227 255
206 227 255
206 227 255
206 227 255
206 227 255
205 227 255
205 227 255
205 227 255
205 227 255
205 227 255
205 227 255
205 227 255
205 227 255
205 227 255
205 227 255
205 227 255
205 226 255
205 226 255
205 226 255
205 226 255
205 226 255
205 226 255
205 226 255
204 226 255
204 226 255
204 226 255
204 226 255
204 226 255
204 226 255
204 226 255
204 226 255
204 226 255
204 226 255
204 226 255
204 226 255
204 226 255
204 226 255
204 226 255
204 226 255
204 226 255
203 226 255
203 226 255
203 226 255
203 226 255
203 226 255
203 226 255
203 226 255
203 225 255
203 225 255
203 225 255
203 225 255
203 225 255
203 225 255
203 225 255
203 225 255
202 225 255
202 225 255
202 225 255
202 225 255
202 225 255
202 225 255
202 225 255
202 225 255
202 225 255
202 225 255
202 225 255
202 225 255
202 225 255
202 225 255
202 225 255
201 225 255
201 225 255
201 225 255
201 225 255
201 225 255
201 224 255
201 224 255
201 224 255
201 224 255
201 224 255
201 224 255
201 224 255
201 224 255
201 224 255
201 224 255
200 224 255
200 224 255
200 224 255
200 224 255
200 224 255
200 224 255
200 224 255
200 224 255
200 224 255
200 224 255
200 224 255
200 224 255
200 224 255
200 224 255
199 224 255
199 224 255
199 224 255
199 223 255
199 223 255
199 223 255
199 223 255
199 223 255
199 223 255
199 223 255
199 223 255
199 223 255
199 223 255
199 223 255
199 223 255
199 223 255
198 223 255
198 223 255
198 223 255
198 223 255
198 223 255
198 223 255
198 223 255
198 223 255
198 223 255
198 223 255
198 223 255
198 223 255
198 223 255
198 223 255
198 223 255
198 223 255
197 223 255
197 222 255
197 222 255
197 222 255
197 222 255
197 222 255
197 222 255
197 222 255
197 222 255
197 222 255
197 222 255
197 222 255
197 222 255
197 222 255
197 222 255
197 222 255
197 222 255
197 222 255
197 222 255
197 222 255
197 222 255
196 222 255
196 222 255
196 222 255
196 222 255
196 222 255
196 222 255
196 222 255
196 222 255
196 222 255
196 222 255
196 222 255
196 222 255
196 222 255
196 222 255
196 222 255
196 222 255
196 222 255
196 222 255
196 222 255
196 222 255
196 222 255
196 222 255
196 222 255
196 222 255
196 222 255
196 222 255
196 222 255
196 222 255
196 222 255
196 222 255
196 222 255
196 222 255
196 222 255
196 222 255
196 222 255
196 222 255
196 222 255
196 222 255
196 222 255
196 222 255
196 222 255
196 222 255
196 222 255
196 222 255
196 222 255
196 222 255
196 222 255
196 222 255
196 222 255
196 222 255
196 222 255
196 222 255
196 222 255
196 222 255
196 222 255
196 222 255
196 222 255
196 222 255
196 222 255
196 222 255
196 222 255
196 222 255
196 222 255
196 222 255
196 222 255
196 222 255
196 222 255
196 222 255
196 222 255
196 222 255
197 222 255
197 222 255
197 222 255
197 222 255
197 222 255
197 222 255
197 222 255
197 222 255
197 222 255
197 222 255
197 222 255
197 222 255
197 222 255
197 222 255
197 222 255
197 222 255
197 222 255
197 222 255
197 222 255
197 222 255
197 223 255
198 223 255
198 223 255
198 223 255
198 223 255
198 223 255
198 223 255
198 223 255
198 223 255
198 223 255
198 223 255
198 223 255
198 223 255
198 223 255
198 223 255
198 223 255
198 223 255
199 223 255
199 223 255
199 223 255
199 223 255
199 223 255
199 223 255
199 223 255
199 223 255
199 223 255
199 223 255
199 223 255
199 223 255
199 223 255
199 224 255
199 224 255
199 224 255
200 224 255
200 224 255
200 224 255
200 224 255
200 224 255
200 224 255
200 224 255
200 224 255
200 224 255
200 224 255
200 224 255
200 224 255
200 224 255
200 224 255
201 224 255
201 224 255
201 224 255
201 224 255
201 224 255
201 224 255
201 224 255
201 224 255
201 224 255
201 224 255
201 225 255
201 225 255
201 225 255
201 225 255
201 225 255
202 225 255
202 225 255
202 225 255
202 225 255
202 225 255
202 225 255
202 225 255
202 225 255
202 225 255
202 225 255
202 225 255
202 225 255
202 225 255
202 225 255
202 225 255
203 225 255
203 225 255
203 225 255
203 225 255
203 225 255
203 225 255
203 225 255
203 225 255
203 226 255
203 226 255
203 226 255
203 226 255
203 226 255
203 226 255
203 226 255
204 226 255
204 226 255
204 226 255
204 226 255
204 226 255
204 226 255
204 226 255
204 226 255
204 226 255
204 226 255
204 226 255
204 226 255
204 226 255
204 226 255
204 226 255
204 226 255
204 226 255
205 226 255
205 226 255
205 226 255
205 226 255
205 226 255
205 226 255
205 226 255
205 227 255
205 227 255
205 227 255
205 227 255
205 227 255
205 227 255
205 227 255
205 227 255
205 227 255
205 227 255
205 227 255
206 227 255
206 227 255
206 227 255
206 227 255
206 227 255
206 227 255
206 227 255
206 227 255
206 227 255
206 227 255
206 227 255
206 227 255
206 227 255
206 227 255
206 227 255
206 227 255
206 227 255
206 227 255
207 227 255
207 227 255
206 227 255
206 227 255
206 227 255
206 227 255
206 227 255
206 227 255
206 227 255
206 227 255
206 227 255
206 227 255
206 227 255
206 227 255
206 227 255
206 227 255
206 227 255
206 227 255
206 227 255
206 227 255
206 227 255
205 227 255
205 227 255
205 227 255
205 227 255
205 227 255
205 227 255
205 227 255
205 227 255
205 227 255
205 227 255
205 227 255
205 226 255
205 226 255
205 226 255
205 226 255
205 226 255
205 226 255
205 226 255
204 226 255
204 226 255
204 226 255
204 226 255
204 226 255
204 226 255
204 226 255
204 226 255
204 226 255
204 226 255
204 226 255
204 226 255
204 226 255
204 226 255
204 226 255
204 226 255
203 226 255
203 226 255
203 226 255
203 226 255
203 226 255
203 226 255
203 226 255
203 225 255
203 225 255
203 225 255
203 225 255
203 225 255
203 225 255
203 225 255
203 225 255
203 225 255
202 225 255
202 225 255
202 225 255
202 225 255
202 225 255
202 225 255
202 225 255
202 225 255
202 225 255
202 225 255
202 225 255
202 225 255
202 225 255
202 225 255
202 225 255
201 225 255
201 225 255
201 225 255
201 225 255
201 224 255
201 224 255
201 224 255
201 224 255
201 224 255
201 224 255
201 224 255
201 224 255
201 224 255
201 224 255
200 224 255
200 224 255
200 224 255
200 224 255
200 224 255
200 224 255
200 224 255
200 224 255
200 224 255
200 224 255
200 224 255
200 224 255
200 224 255
200 224 255
200 224 255
199 224 255
199 224 255
199 223 255
199 223 255
199 223 255
199 223 255
199 223 255
199 223 255
199 223 255
199 223 255
199 223 255
199 223 255
199 223 255
199 223 255
199 223 255
198 223 255
198 223 255
198 223 255
198 223 255
198 223 255
198 223 255
198 223 255
198 223 255
198 223 255
198 223 255
198 223 255
198 223 255
198 223 255
198 223 255
198 223 255
198 223 255
198 223 255
197 223 255
197 222 255
197 222 255
197 222 255
197 222 255
197 222 255
197 222 255
197 222 255
197 222 255
197 222 255
197 222 255
197 222 255
197 222 255
197 222 255
197 222 255
197 222 255
197 222 255
197 222 255
197 222 255
197 222 255
197 222 255
197 222 255
196 222 255
196 222 255
196 222 255
196 222 255
196 222 255
196 222 255
196 222 255
196 222 255
196 222 255
196 222 255
196 222 255
196 222 255
196 222 255
196 222 255
196 222 255
196 222 255
196 222 255
196 222 255
196 222 255
196 222 255
196 222 255
196 222 255
196 222 255
196 222 255
196 222 255
196 222 255
196 222 255
196 222 255
196 222 255
196 222 255
196 222 255
196 222 255
196 222 255
196 222 255
196 222 255
196 222 255
196 222 255
196 222 255
196 222 255
196 222 255
196 222 255
196 222 255
196 222 255
196 222 255
196 222 255
196 222 255
196 222 255
196 222 255
196 222 255
196 222 255
196 222 255
196 222 255
196 222 255
196 222 255
196 222 255
196 222 255
196 222 255
196 222 255
196 222 255
196 222 255
196 222 255
196 222 255
197 222 255
197 222 255
197 222 255
197 222 255
197 222 255
197 222 255
197 222 255
197 222 255
197 222 255
197 222 255
197 222 255
197 222 255
197 222 255
197 222 255
197 222 255
197 222 255
197 222 255
197 222 255
197 222 255
197 222 255
197 222 255
197 223 255
198 223 255
198 223 255
198 223 255
198 223 255
198 223 255
198 223 255
198 223 255
198 223 255
198 223 255
198 223 255
198 223 255
198 223 255
198 223 255
198 223 255
198 223 255
198 223 255
198 223 255
199 223 255
199 223 255
199 223 255
199 223 255
199 223 255
199 223 255
199 223 255
199 223 255
199 223 255
199 223 255
199 223 255
199 223 255
199 223 255
199 224 255
199 224 255
200 224 255
200 224 255
200 224 255
200 224 255
200 224 255
200 224 255
200 224 255
200 224 255
200 224 255
200 224 255
200 224 255
200 224 255
200 224 255
200 224 255
200 224 255
201 224 255
201 224 255
201 224 255
201 224 255
201 224 255
201 224 255
201 224 255
201 224 255
201 224 255
201 224 255
201 225 255
201 225 255
201 225 255
201 225 255
202 225 255
202 225 255
202 225 255
202 225 255
202 225 255
202 225 255
202 225 255
202 225 255
202 225 255
202 225 255
202 225 255
202 225 255
202 225 255
202 225 255
202 225 255
203 225 255
203 225 255
203 225 255
203 225 255
203 225 255
203 225 255
203 225 255
203 225 255
203 225 255
203 226 255
203 226 255
203 226 255
203 226 255
203 226 255
203 226 255
203 226 255
204 226 255
204 226 255
204 226 255
204 226 255
204 226 255
204 226 255
204 226 255
204 226 255
204 226 255
204 226 255
204 226 255
204 226 255
204 226 255
204 226 255
204 226 255
204 226 255
205 226 255
205 226 255
205 226 255
205 226 255
205 226 255
205 226 255
205 226 255
205 227 255
205 227 255
205 227 255
205 227 255
205 227 255
205 227 255
205 227 255
205 227 255
205 227 255
205 227 255
205 227 255
206 227 255
206 227 255
206 227 255
206 227 255
206 227 255
206 227 255
206 227 255
206 227 255
206 227 255
206 227 255
206 227 255
206 227 255
206 227 255
206 227 255
206 227 255
206 227 255
206 227 255
206 227 255
206 227 255
207 227 255
207 227 255
207 227 255
207 227 255
207 227 255
207 227 255
206 227 255
206 227 255
206 227 255
206 227 255
206 227 255
206 227 255
206 227 255
206 227 255
206 227 255
206 227 255
206 227 255
206 227 255
206 227 255
206 227 255
206 227 255
206 227 255
206 227 255
206 227 255
206 227 255
206 227 255
205 227 255
205 227 255
205 227 255
205 227 255
205 227 255
205 227 255
205 227 255
205 227 255
205 227 255
205 227 255
205 226 255
205 226 255
205 226 255
205 226 255
205 226 255
205 226 255
205 226 255
204 226 255
204 226 255
204 226 255
204 226 255
204 226 255
204 226 255
204 226 255
204 226 255
204 226 255
204 226 255
204 226 255
204 226 255
204 226 255
204 226 255
204 226 255
204 226 255
204 226 255
203 226 255
203 226 255
203 226 255
203 226 255
203 226 255
203 226 255
203 225 255
203 225 255
203 225 255
203 225 255
203 225 255
203 225 255
203 225 255
203 225 255
203 225 255
202 225 255
202 225 255
202 225 255
202 225 255
202 225 255
202 225 255
202 225 255
202 225 255
202 225 255
202 225 255
202 225 255
202 225 255
202 225 255
202 225 255
202 225 255
201 225 255
201 225 255
201 225 255
201 225 255
201 224 255
201 224 255
201 224 255
201 224 255
201 224 255
201 224 255
201 224 255
201 224 255
201 224 255
201 224 255
201 224 255
200 224 255
200 224 255
200 224 255
200 224 255
200 224 255
200 224 255
200 224 255
200 224 255
200 224 255
200 224 255
200 224 255
200 224 255
200 224 255
200 224 255
199 224 255
199 224 255
199 224 255
199 223 255
199 223 255
199 223 255
199 223 255
199 223 255
199 223 255
199 223 255
199 223 255
199 223 255
199 223 255
199 223 255
199 223 255
199 223 255
198 223 255
198 223 255
198 223 255
198 223 255
198 223 255
198 223 255
198 223 255
198 223 255
198 223 255
198 223 255
198 223 255
198 223 255
198 223 255
198 223 255
198 223 255
198 223 255
198 223 255
197 223 255
197 222 255
197 222 255
197 222 255
197 222 255
197 222 255
197 222 255
197 222 255
197 222 255
197 222 255
197 222 255
197 222 255
197 222 255
197 222 255
197 222 255
197 222 255
197 222 255
197 222 255
197 222 255
197 222 255
197 222 255
197 222 255
197 222 255
197 222 255
196 222 255
196 222 255
196 222 255
196 222 255
196 222 255
196 222 255
196 222 255
196 222 255
196 222 255
196 222 255
196 222 255
196 222 255
196 222 255
196 222 255
196 222 255
196 222 255
196 222 255
196 222 255
196 222 255
196 222 255
196 222 255
196 222 255
196 222 255
196 222 255
196 222 255
196 222 255
196 222 255
196 222 255
196 222 255
196 222 255
196 222 255
196 222 255
196 222 255
196 222 255
196 222 255
196 222 255
196 222 255
196 222 255
196 222 255
196 222 255
196 222 255
196 222 255
196 222 255
196 222 255
196 222 255
196 222 255
196 222 255
196 222 255
196 222 255
196 222 255
196 222 255
196 222 255
197 222 255
197 222 255
197 222 255
197 222 255
197 222 255
197 222 255
197 222 255
197 222 255
197 222 255
197 222 255
197 222 255
197 222 255
197 222 255
197 222 255
197 222 255
197 222 255
197 222 255
197 222 255
197 222 255
197 222 255
197 222 255
197 222 255
197 222 255
197 223 255
198 223 255
198 223 255
198 223 255
198 223 255
198 223 255
198 223 255
198 223 255
198 223 255
198 223 255
198 223 255
198 223 255
198 223 255
198 223 255
198 223 255
198 223 255
198 223 255
198 223 255
199 223 255
199 223 255
199 223 255
199 223 255
199 223 255
199 223 255
199 223 255
199 223 255
199 223 255
199 223 255
199 223 255
199 223 255
199 223 255
199 224 255
199 224 255
199 224 255
200 224 255
200 224 255
200 224 255
200 224 255
200 224 255
200 224 255
200 224 255
200 224 255
200 224 255
200 224 255
200 224 255
200 224 255
200 224 255
200 224 255
201 224 255
201 224 255
201 224 255
201 224 255
201 224 255
201 224 255
201 224 255
201 224 255
201 224 255
201 224 255
201 224 255
201 225 255
201 225 255
201 225 255
201 225 255
202 225 255
202 225 255
202 225 255
202 225 255
202 225 255
202 225 255
202 225 255
202 225 255
202 225 255
202 225 255
202 225 255
202 225 255
202 225 255
202 225 255
202 225 255
203 225 255
203 225 255
203 225 255
203 225 255
203 225 255
203 225 255
203 225 255
203 225 255
203 226 255
203 226 255
203 226 255
203 226 255
203 226 255
203 226 255
203 226 255
204 226 255
204 226 255
204 226 255
204 226 255
204 226 255
204 226 255
204 226 255
204 226 255
204 226 255
204 226 255
204 226 255
204 226 255
204 226 255
204 226 255
204 226 255
204 226 255
204 226 255
205 226 255
205 226 255
205 226 255
205 226 255
205 226 255
205 226 255
205 226 255
205 227 255
205 227 255
205 227 255
205 227 255
205 227 255
205 227 255
205 227 255
205 227 255
205 227 255
205 227 255
206 227 255
206 227 255
206 227 255
206 227 255
206 227 255
206 227 255
206 227 255
206 227 255
206 227 255
206 227 255
206 227 255
206 227 255
206 227 255
206 227 255
206 227 255
206 227 255
206 227 255
206 227 255
206 227 255
207 227 255
207 227 255
207 227 255
207 227 255
207 227 255
207 228 255
207 228 255
207 227 255
207 227 255
207 227 255
207 227 255
207 227 255
206 227 255
206 227 255
206 227 255
206 227 255
206 227 255
206 227 255
206 227 255
206 227 255
206 227 255
206 227 255
206 227 255
206 227 255
206 227 255
206 227 255
206 227 255
206 227 255
206 227 255
206 227 255
206 227 255
205 227 255
205 227 255
205 227 255
205 227 255
205 227 255
205 227 255
205 227 255
205 227 255
205 227 255
205 227 255
205 227 255
205 226 255
205 226 255
205 226 255
205 226 255
205 226 255
205 226 255
205 226 255
204 226 255
204 226 255
204 226 255
204 226 255
204 226 255
204 226 255
204 226 255
204 226 255
204 226 255
204 226 255
204 226 255
204 226 255
204 226 255
204 226 255
204 226 255
204 226 255
203 226 255
203 226 255
203 226 255
203 226 255
203 226 255
203 226 255
203 226 255
203 225 255
203 225 255
203 225 255
203 225 255
203 225 255
203 225 255
203 225 255
203 225 255
203 225 255
202 225 255
202 225 255
202 225 255
202 225 255
202 225 255
202 225 255
202 225 255
202 225 255
202 225 255
202 225 255
202 225 255
202 225 255
202 225 255
202 225 255
201 225 255
201 225 255
201 225 255
201 225 255
201 225 255
201 224 255
201 224 255
201 224 255
201 224 255
201 224 255
201 224 255
201 224 255
201 224 255
201 224 255
201 224 255
200 224 255
200 224 255
200 224 255
200 224 255
200 224 255
200 224 255
200 224 255
200 224 255
200 224 255
200 224 255
200 224 255
200 224 255
200 224 255
200 224 255
200 224 255
199 224 255
199 224 255
199 223 255
199 223 255
199 223 255
199 223 255
199 223 255
199 223 255
199 223 255
199 223 255
199 223 255
199 223 255
199 223 255
199 223 255
199 223 255
198 223 255
198 223 255
198 223 255
198 223 255
198 223 255
198 223 255
198 223 255
198 223 255
198 223 255
198 223 255
198 223 255
198 223 255
198 223 255
198 223 255
198 223 255
198 223 255
198 223 255
198 223 255
198 223 255
197 222 255
197 222 255
197 222 255
197 222 255
197 222 255
197 222 255
197 222 255
197 222 255
197 222 255
197 222 255
197 222 255
197 222 255
197 222 255
197 222 255
197 222 255
197 222 255
197 222 255
197 222 255
197 222 255
197 222 255
197 222 255
197 222 255
197 222 255
197 222 255
197 222 255
197 222 255
196 222 255
196 222 255
196 222 255
196 222 255
196 222 255
196 222 255
196 222 255
196 222 255
196 222 255
196 222 255
196 222 255
196 222 255
196 222 255
196 222 255
196 222 255
196 222 255
196 222 255
196 222 255
196 222 255
196 222 255
196 222 255
196 222 255
196 222 255
196 222 255
196 222 255
196 222 255
196 222 255
196 222 255
196 222 255
196 222 255
196 222 255
196 222 255
196 222 255
196 222 255
196 222 255
196 222 255
196 222 255
196 222 255
196 222 255
196 222 255
197 222 255
197 222 255
197 222 255
197 222 255
197 222 255
197 222 255
197 222 255
197 222 255
197 222 255
197 222 255
197 222 255
197 222 255
197 222 255
197 222 255
197 222 255
197 222 255
197 222 255
197 222 255
197 222 255
197 222 255
197 222 255
197 222 255
197 222 255
197 222 255
197 222 255
197 222 255
198 223 255
198 223 255
198 223 255
198 223 255
198 223 255
198 223 255
198 223 255
198 223 255
198 223 255
198 223 255
198 223 255
198 223 255
198 223 255
198 223 255
198 223 255
198 223 255
198 223 255
198 223 255
199 223 255
199 223 255
199 223 255
199 223 255
199 223 255
199 223 255
199 223 255
199 223 255
199 223 255
199 223 255
199 223 255
199 223 255
199 223 255
199 223 255
199 224 255
199 224 255
200 224 255
200 224 255
200 224 255
200 224 255
200 224 255
200 224 255
200 224 255
200 224 255
200 224 255
200 224 255
200 224 255
200 224 255
200 224 255
200 224 255
200 224 255
201 224 255
201 224 255
201 224 255
201 224 255
201 224 255
201 224 255
201 224 255
201 224 255
201 224 255
201 224 255
201 225 255
201 225 255
201 225 255
201 225 255
201 225 255
202 225 255
202 225 255
202 225 255
202 225 255
202 225 255
202 225 255
202 225 255
202 225 255
202 225 255
202 225 255
202 225 255
202 225 255
202 225 255
202 225 255
202 225 255
203 225 255
203 225 255
203 225 255
203 225 255
203 225 255
203 225 255
203 225 255
203 225 255
203 226 255
203 226 255
203 226 255
203 226 255
203 226 255
203 226 255
203 226 255
204 226 255
204 226 255
204 226 255
204 226 255
204 226 255
204 226 255
204 226 255
204 226 255
204 226 255
204 226 255
204 226 255
204 226 255
204 226 255
204 226 255
204 226 255
204 226 255
205 226 255
205 226 255
205 226 255
205 226 255
205 226 255
205 226 255
205 226 255
205 227 255
205 227 255
205 227 255
205 227 255
205 227 255
205 227 255
205 227 255
205 227 255
205 227 255
205 227 255
205 227 255
206 227 255
206 227 255
206 227 255
206 227 255
206 227 255
206 227 255
206 227 255
206 227 255
206 227 255
206 227 255
206 227 255
206 227 255
206 227 255
206 227 255
206 227 255
206 227 255
206 227 255
206 227 255
206 227 255
207 227 255
207 227 255
207 227 255
207 227 255
207 227 255
207 228 255
207 228 255
207 228 255
207 228 255
207 228 255
207 228 255
207 228 255
207 227 255
207 227 255
207 227 255
207 227 255
207 227 255
206 227 255
206 227 255
206 227 255
206 227 255
206 227 255
206 227 255
206 227 255
206 227 255
206 227 255
206 227 255
206 227 255
206 227 255
206 227 255
206 227 255
206 227 255
206 227 255
206 227 255
206 227 255
206 227 255
205 227 255
205 227 255
205 227 255
205 227 255
205 227 255
205 227 255
205 227 255
205 227 255
205 227 255
205 227 255
205 226 255
205 226 255
205 226 255
205 226 255
205 226 255
205 226 255
205 226 255
204 226 255
204 226 255
204 226 255
204 226 255
204 226 255
204 226 255
204 226 255
204 226 255
204 226 255
204 226 255
204 226 255
204 226 255
204 226 255
204 226 255
204 226 255
204 226 255
204 226 255
203 226 255
203 226 255
203 226 255
203 226 255
203 226 255
203 226 255
203 225 255
203 225 255
203 225 255
203 225 255
203 225 255
203 225 255
203 225 255
203 225 255
203 225 255
202 225 255
202 225 255
202 225 255
202 225 255
202 225 255
202 225 255
202 225 255
202 225 255
202 225 255
202 225 255
202 225 255
202 225 255
202 225 255
202 225 255
202 225 255
201 225 255
201 225 255
201 225 255
201 225 255
201 224 255
201 224 255
201 224 255
201 224 255
201 224 255
201 224 255
201 224 255
201 224 255
201 224 255
201 224 255
200 224 255
200 224 255
200 224 255
200 224 255
200 224 255
200 224 255
200 224 255
200 224 255
200 224 255
200 224 255
200 224 255
200 224 255
200 224 255
200 224 255
200 224 255
199 224 255
199 224 255
199 224 255
199 223 255
199 223 255
199 223 255
199 223 255
199 223 255
199 223 255
199 223 255
199 223 255
199 223 255
199 223 255
199 223 255
199 223 255
199 223 255
199 223 255
198 223 255
198 223 255
198 223 255
198 223 255
198 223 255
198 223 255
198 223 255
198 223 255
198 223 255
198 223 255
198 223 255
198 223 255
198 223 255
198 223 255
198 223 255
198 223 255
198 223 255
198 223 255
197 223 255
197 222 255
197 222 255
197 222 255
197 222 255
197 222 255
197 222 255
197 222 255
197 222 255
197 222 255
197 222 255
197 222 255
197 222 255
197 222 255
197 222 255
197 222 255
197 222 255
197 222 255
197 222 255
197 222 255
197 222 255
197 222 255
197 222 255
197 222 255
197 222 255
197 222 255
197 222 255
197 222 255
197 222 255
197 222 255
197 222 255
197 222 255
196 222 255
196 222 255
196 222 255
196 222 255
196 222 255
196 222 255
196 222 255
196 222 255
196 222 255
196 222 255
196 222 255
196 222 255
196 222 255
196 222 255
196 222 255
196 222 255
196 222 255
196 222 255
196 222 255
196 222 255
196 222 255
197 222 255
197 222 255
197 222 255
197 222 255
197 222 255
197 222 255
197 222 255
197 222 255
197 222 255
197 222 255
197 222 255
197 222 255
197 222 255
197 222 255
197 222 255
197 222 255
197 222 255
197 222 255
197 222 255
197 222 255
197 222 255
197 222 255
197 222 255
197 222 255
197 222 255
197 222 255
197 222 255
197 222 255
197 222 255
197 222 255
197 222 255
197 222 255
197 223 255
198 223 255
198 223 255
198 223 255
198 223 255
198 223 255
198 223 255
198 223 255
198 223 255
198 223 255
198 223 255
198 223 255
198 223 255
198 223 255
198 223 255
198 223 255
198 223 255
198 223 255
198 223 255
198 223 255
199 223 255
199 223 255
199 223 255
199 223 255
199 223 255
199 223 255
199 223 255
199 223 255
199 223 255
199 223 255
199 223 255
199 223 255
199 223 255
199 224 255
199 224 255
200 224 255
200 224 255
200 224 255
200 224 255
200 224 255
200 224 255
200 224 255
200 224 255
200 224 255
200 224 255
200 224 255
200 224 255
200 224 255
200 224 255
200 224 255
201 224 255
201 224 255
201 224 255
201 224 255
201 224 255
201 224 255
201 224 255
201 224 255
201 224 255
201 224 255
201 224 255
201 225 255
201 225 255
201 225 255
201 225 255
202 225 255
202 225 255
202 225 255
202 225 255
202 225 255
202 225 255
202 225 255
202 225 255
202 225 255
202 225 255
202 225 255
202 225 255
202 225 255
202 225 255
202 225 255
203 225 255
203 225 255
203 225 255
203 225 255
203 225 255
203 225 255
203 225 255
203 225 255
203 225 255
203 226 255
203 226 255
203 226 255
203 226 255
203 226 255
203 226 255
204 226 255
204 226 255
204 226 255
204 226 255
204 226 255
204 226 255
204 226 255
204 226 255
204 226 255
204 226 255
204 226 255
204 226 255
204 226 255
204 226 255
204 226 255
204 226 255
204 226 255
205 226 255
205 226 255
205 226 255
205 226 255
205 226 255
205 226 255
205 227 255
205 227 255
205 227 255
205 227 255
205 227 255
205 227 255
205 227 255
205 227 255
205 227 255
205 227 255
205 227 255
206 227 255
206 227 255
206 227 255
206 227 255
206 227 255
206 227 255
206 227 255
206 227 255
206 227 255
206 227 255
206 227 255
206 227 255
206 227 255
206 227 255
206 227 255
206 227 255
206 227 255
206 227 255
206 227 255
207 227 255
207 227 255
207 227 255
207 227 255
207 227 255
207 228 255
207 228 255
207 228 255
207 228 255
207 228 255
207 228 255
207 228 255
207 228 255
207 228 255
207 228 255
207 228 255
207 228 255
207 228 255
207 227 255
207 227 255
207 227 255
207 227 255
207 227 255
206 227 255
206 227 255
206 227 255
206 227 255
206 227 255
206 227 255
206 227 255
206 227 255
206 227 255
206 227 255
206 227 255
206 227 255
206 227 255
206 227 255
206 227 255
206 227 255
206 227 255
206 227 255
206 227 255
205 227 255
205 227 255
205 227 255
205 227 255
205 227 255
205 227 255
205 227 255
205 227 255
205 227 255
205 227 255
205 226 255
205 226 255
205 226 255
205 226 255
205 226 255
205 226 255
205 226 255
204 226 255
204 226 255
204 226 255
204 226 255
204 226 255
204 226 255
204 226 255
204 226 255
204 226 255
204 226 255
204 226 255
204 226 255
204 226 255
204 226 255
204 226 255
204 226 255
203 226 255
203 226 255
203 226 255
203 226 255
203 226 255
203 226 255
203 226 255
203 225 255
203 225 255
203 225 255
203 225 255
203 225 255
203 225 255
203 225 255
203 225 255
203 225 255
202 225 255
202 225 255
202 225 255
202 225 255
202 225 255
202 225 255
202 225 255
202 225 255
202 225 255
202 225 255
202 225 255
202 225 255
202 225 255
202 225 255
201 225 255
201 225 255
201 225 255
201 225 255
201 225 255
201 224 255
201 224 255
201 224 255
201 224 255
201 224 255
201 224 255
201 224 255
201 224 255
201 224 255
201 224 255
200 224 255
200 224 255
200 224 255
200 224 255
200 224 255
200 224 255
200 224 255
200 224 255
200 224 255
200 224 255
200 224 255
200 224 255
200 224 255
200 224 255
200 224 255
199 224 255
199 224 255
199 224 255
199 223 255
199 223 255
199 223 255
199 223 255
199 223 255
199 223 255
199 223 255
199 223 255
199 223 255
199 223 255
199 223 255
199 223 255
199 223 255
198 223 255
198 223 255
198 223 255
198 223 255
198 223 255
198 223 255
198 223 255
198 223 255
198 223 255
198 223 255
198 223 255
198 223 255
198 223 255
198 223 255
198 223 255
198 223 255
198 223 255
198 223 255
198 223 255
198 223 255
197 223 255
197 222 255
197 222 255
197 222 255
197 222 255
197 222 255
197 222 255
197 222 255
197 222 255
197 222 255
197 222 255
197 222 255
197 222 255
197 222 255
197 222 255
197 222 255
197 222 255
197 222 255
197 222 255
197 222 255
197 222 255
197 222 255
197 222 255
197 222 255
197 222 255
197 222 255
197 222 255
197 222 255
197 222 255
197 222 255
197 222 255
197 222 255
197 222 255
197 222 255
197 222 255
197 222 255
197 222 255
197 222 255
197 222 255
197 222 255
197 222 255
197 222 255
197 222 255
197 222 255
197 222 255
197 222 255
197 222 255
197 222 255
197 222 255
197 222 255
197 222 255
197 222 255
197 222 255
197 222 255
197 222 255
197 222 255
197 222 255
197 222 255
197 222 255
197 222 255
197 222 255
197 222 255
197 222 255
197 222 255
197 222 255
197 222 255
197 222 255
197 222 255
197 222 255
197 222 255
197 222 255
197 222 255
197 222 255
197 222 255
197 222 255
197 222 255
197 222 255
197 223 255
198 223 255
198 223 255
198 223 255
198 223 255
198 223 255
198 223 255
198 223 255
198 223 255
198 223 255
198 223 255
198 223 255
198 223 255
198 223 255
198 223 255
198 223 255
198 223 255
198 223 255
198 223 255
198 223 255
199 223 255
199 223 255
199 223 255
199 223 255
199 223 255
199 223 255
199 223 255
199 223 255
199 223 255
199 223 255
199 223 255
199 223 255
199 223 255
199 223 255
199 224 255
199 224 255
199 224 255
200 224 255
200 224 255
200 224 255
200 224 255
200 224 255
200 224 255
200 224 255
200 224 255
200 224 255
200 224 255
200 224 255
200 224 255
200 224 255
200 224 255
200 224 255
201 224 255
201 224 255
201 224 255
201 224 255
201 224 255
201 224 255
201 224 255
201 224 255
201 224 255
201 224 255
201 224 255
201 225 255
201 225 255
201 225 255
201 225 255
202 225 255
202 225 255
202 225 255
202 225 255
202 225 255
202 225 255
202 225 255
202 225 255
202 225 255
202 225 255
202 225 255
202 225 255
202 225 255
202 225 255
202 225 255
203 225 255
203 225 255
203 225 255
203 225 255
203 225 255
203 225 255
203 225 255
203 225 255
203 226 255
203 226 255
203 226 255
203 226 255
203 226 255
203 226 255
203 226 255
204 226 255
204 226 255
204 226 255
204 226 255
204 226 255
204 226 255
204 226 255
204 226 255
204 226 255
204 226 255
204 226 255
204 226 255
204 226 255
204 226 255
204 226 255
204 226 255
205 226 255
205 226 255
205 226 255
205 226 255
205 226 255
205 226 255
205 226 255
205 227 255
205 227 255
205 227 255
205 227 255
205 227 255
205 227 255
205 227 255
205 227 255
205 227 255
205 227 255
206 227 255
206 227 255
206 227 255
206 227 255
206 227 255
206 227 255
206 227 255
206 227 255
206 227 255
206 227 255
206 227 255
206 227 255
206 227 255
206 227 255
206 227 255
206 227 255
206 227 255
206 227 255
206 227 255
207 227 255
207 227 255
207 227 255
207 227 255
207 227 255
207 228 255
207 228 255
207 228 255
207 228 255
207 228 255
207 228 255
207 228 255
207 228 255
207 228 255
207 228 255
207 228 255
207 228 255
207 228 255
207 228 255
207 228 255
207 228 255
207 228 255
207 228 255
207 228 255
207 227 255
207 227 255
207 227 255
207 227 255
207 227 255
206 227 255
206 227 255
206 227 255
206 227 255
206 227 255
206 227 255
206 227 255
206 227 255
206 227 255
206 227 255
206 227 255
206 227 255
206 227 255
206 227 255
206 227 255
206 227 255
206 227 255
206 227 255
205 227 255
205 227 255
205 227 255
205 227 255
205 227 255
205 227 255
205 227 255
205 227 255
205 227 255
205 227 255
205 227 255
205 226 255
205 226 255
205 226 255
205 226 255
205 226 255
205 226 255
205 226 255
204 226 255
204 226 255
204 226 255
204 226 255
204 226 255
204 226 255
204 226 255
204 226 255
204 226 255
204 226 255
204 226 255
204 226 255
204 226 255
204 226 255
204 226 255
204 226 255
203 226 255
203 226 255
203 226 255
203 226 255
203 226 255
203 226 255
203 225 255
203 225 255
203 225 255
203 225 255
203 225 255
203 225 255
203 225 255
203 225 255
203 225 255
202 225 255
202 225 255
202 225 255
202 225 255
202 225 255
202 225 255
202 225 255
202 225 255
202 225 255
202 225 255
202 225 255
202 225 255
202 225 255
202 225 255
202 225 255
201 225 255
201 225 255
201 225 255
201 225 255
201 224 255
201 224 255
201 224 255
201 224 255
201 224 255
201 224 255
201 224 255
201 224 255
201 224 255
201 224 255
201 224 255
200 224 255
200 224 255
200 224 255
200 224 255
200 224 255
200 224 255
200 224 255
200 224 255
200 224 255
200 224 255
200 224 255
200 224 255
200 224 255
200 224 255
200 224 255
199 224 255
199 224 255
199 223 255
199 223 255
199 223 255
199 223 255
199 223 255
199 223 255
199 223 255
199 223 255
199 223 255
199 223 255
199 223 255
199 223 255
199 223 255
199 223 255
198 223 255
198 223 255
198 223 255
198 223 255
198 223 255
198 223 255
198 223 255
198 223 255
198 223 255
198 223 255
198 223 255
198 223 255
198 223 255
198 223 255
198 223 255
198 223 255
198 223 255
198 223 255
198 223 255
198 223 255
198 223 255
197 223 255
197 222 255
197 222 255
197 222 255
197 222 255
197 222 255
197 222 255
197 222 255
197 222 255
197 222 255
197 222 255
197 222 255
197 222 255
197 222 255
197 222 255
197 222 255
197 222 255
197 222 255
197 222 255
197 222 255
197 222 255
197 222 255
197 222 255
197 222 255
197 222 255
197 222 255
197 222 255
197 222 255
197 222 255
197 222 255
197 222 255
197 222 255
197 222 255
197 222 255
197 222 255
197 222 255
197 222 255
197 222 255
197 222 255
197 222 255
197 222 255
197 222 255
197 222 255
197 222 255
197 222 255
197 222 255
197 222 255
197 222 255
197 222 255
197 222 255
197 222 255
197 222 255
197 222 255
197 222 255
197 222 255
197 222 255
197 222 255
197 222 255
197 222 255
197 222 255
197 222 255
197 222 255
197 222 255
197 222 255
197 222 255
197 222 255
197 222 255
197 222 255
197 222 255
197 223 255
198 223 255
198 223 255
198 223 255
198 223 255
198 223 255
198 223 255
198 223 255
198 223 255
198 223 255
198 223 255
198 223 255
198 223 255
198 223 255
198 223 255
198 223 255
198 223 255
198 223 255
198 223 255
198 223 255
198 223 255
198 223 255
199 223 255
199 223 255
199 223 255
199 223 255
199 223 255
199 223 255
199 223 255
199 223 255
199 223 255
199 223 255
199 223 255
199 223 255
199 223 255
199 223 255
199 224 255
199 224 255
200 224 255
200 224 255
200 224 255
200 224 255
200 224 255
200 224 255
200 224 255
200 224 255
200 224 255
200 224 255
200 224 255
200 224 255
200 224 255
200 224 255
200 224 255
201 224 255
201 224 255
201 224 255
201 224 255
201 224 255
201 224 255
201 224 255
201 224 255
201 224 255
201 224 255
201 224 255
201 225 255
201 225 255
201 225 255
201 225 255
202 225 255
202 225 255
202 225 255
202 225 255
202 225 255
202 225 255
202 225 255
202 225 255
202 225 255
202 225 255
202 225 255
202 225 255
202 225 255
202 225 255
202 225 255
203 225 255
203 225 255
203 225 255
203 225 255
203 225 255
203 225 255
203 225 255
203 225 255
203 225 255
203 226 255
203 226 255
203 226 255
203 226 255
203 226 255
203 226 255
204 226 255
204 226 255
204 226 255
204 226 255
204 226 255
204 226 255
204 226 255
204 226 255
204 226 255
204 226 255
204 226 255
204 226 255
204 226 255
204 226 255
204 226 255
204 226 255
205 226 255
205 226 255
205 226 255
205 226 255
205 226 255
205 226 255
205 226 255
205 227 255
205 227 255
205 227 255
205 227 255
205 227 255
205 227 255
205 227 255
205 227 255
205 227 255
205 227 255
205 227 255
206 227 255
206 227 255
206 227 255
206 227 255
206 227 255
206 227 255
206 227 255
206 227 255
206 227 255
206 227 255
206 227 255
206 227 255
206 227 255
206 227 255
206 227 255
206 227 255
206 227 255
206 227 255
207 227 255
207 227 255
207 227 255
207 227 255
207 227 255
207 228 255
207 228 255
207 228 255
207 228 255
207 228 255
207 228 255
207 228 255
207 228 255
207 228 255
207 228 255
207 228 255
207 228 255
207 228 255
207 228 255
207 228 255
207 228 255
207 228 255
207 228 255
207 228 255
207 228 255
207 228 255
207 228 255
207 228 255
207 228 255
207 228 255
207 227 255
207 227 255
207 227 255
207 227 255
206 227 255
206 227 255
206 227 255
206 227 255
206 227 255
206 227 255
206 227 255
206 227 255
206 227 255
206 227 255
206 227 255
206 227 255
206 227 255
206 227 255
206 227 255
206 227 255
206 227 255
206 227 255
206 227 255
205 227 255
205 227 255
205 227 255
205 227 255
205 227 255
205 227 255
205 227 255
205 227 255
205 227 255
205 227 255
205 226 255
205 226 255
205 226 255
205 226 255
205 226 255
205 226 255
205 226 255
204 226 255
204 226 255
204 226 255
204 226 255
204 226 255
204 226 255
204 226 255
204 226 255
204 226 255
204 226 255
204 226 255
204 226 255
204 226 255
204 226 255
204 226 255
204 226 255
203 226 255
203 226 255
203 226 255
203 226 255
203 226 255
203 226 255
203 226 255
203 225 255
203 225 255
203 225 255
203 225 255
203 225 255
203 225 255
203 225 255
203 225 255
202 225 255
202 225 255
202 225 255
202 225 255
202 225 255
202 225 255
202 225 255
202 225 255
202 225 255
202 225 255
202 225 255
202 225 255
202 225 255
202 225 255
202 225 255
201 225 255
201 225 255
201 225 255
201 225 255
201 225 255
201 224 255
201 224 255
201 224 255
201 224 255
201 224 255
201 224 255
201 224 255
201 224 255
201 224 255
201 224 255
200 224 255
200 224 255
200 224 255
200 224 255
200 224 255
200 224 255
200 224 255
200 224 255
200 224 255
200 224 255
200 224 255
200 224 255
200 224 255
200 224 255
200 224 255
200 224 255
199 224 255
199 224 255
199 223 255
199 223 255
199 223 255
199 223 255
199 223 255
199 223 255
199 223 255
199 223 255
199 223 255
199 223 255
199 223 255
199 223 255
199 223 255
199 223 255
199 223 255
198 223 255
198 223 255
198 223 255
198 223 255
198 223 255
198 223 255
198 223 255
198 223 255
198 223 255
198 223 255
198 223 255
198 223 255
198 223 255
198 223 255
198 223 255
198 223 255
198 223 255
198 223 255
198 223 255
198 223 255
198 223 255
198 223 255
197 223 255
197 222 255
197 222 255
197 222 255
197 222 255
197 222 255
197 222 255
197 222 255
197 222 255
197 222 255
197 222 255
197 222 255
197 222 255
197 222 255
197 222 255
197 222 255
197 222 255
197 222 255
197 222 255
197 222 255
197 222 255
197 222 255
197 222 255
197 222 255
197 222 255
197 222 255
197 222 255
197 222 255
197 222 255
197 222 255
197 222 255
197 222 255
197 222 255
197 222 255
197 222 255
197 222 255
197 222 255
197 222 255
197 222 255
197 222 255
197 222 255
197 222 255
197 222 255
197 222 255
197 222 255
197 222 255
197 222 255
197 222 255
197 222 255
197 222 255
197 222 255
197 222 255
197 222 255
197 222 255
197 222 255
197 222 255
197 222 255
197 222 255
197 222 255
197 223 255
198 223 255
198 223 255
198 223 255
198 223 255
198 223 255
198 223 255
198 223 255
198 223 255
198 223 255
198 223 255
198 223 255
198 223 255
198 223 255
198 223 255
198 223 255
198 223 255
198 223 255
198 223 255
198 223 255
198 223 255
198 223 255
198 223 255
199 223 255
199 223 255
199 223 255
199 223 255
199 223 255
199 223 255
199 223 255
199 223 255
199 223 255
199 223 255
199 223 255
199 223 255
199 223 255
199 223 255
199 223 255
199 224 255
199 224 255
200 224 255
200 224 255
200 224 255
200 224 255
200 224 255
200 224 255
200 224 255
200 224 255
200 224 255
200 224 255
200 224 255
200 224 255
200 224 255
200 224 255
200 224 255
200 224 255
201 224 255
201 224 255
201 224 255
201 224 255
201 224 255
201 224 255
201 224 255
201 224 255
201 224 255
201 224 255
201 225 255
201 225 255
201 225 255
201 225 255
201 225 255
202 225 255
202 225 255
202 225 255
202 225 255
202 225 255
202 225 255
202 225 255
202 225 255
202 225 255
202 225 255
202 225 255
202 225 255
202 225 255
202 225 255
202 225 255
203 225 255
203 225 255
203 225 255
203 225 255
203 225 255
203 225 255
203 225 255
203 225 255
203 226 255
203 226 255
203 226 255
203 226 255
203 226 255
203 226 255
203 226 255
204 226 255
204 226 255
204 226 255
204 226 255
204 226 255
204 226 255
204 226 255
204 226 255
204 226 255
204 226 255
204 226 255
204 226 255
204 226 255
204 226 255
204 226 255
204 226 255
205 226 255
205 226 255
205 226 255
205 226 255
205 226 255
205 226 255
205 226 255
205 227 255
205 227 255
205 227 255
205 227 255
205 227 255
205 227 255
205 227 255
205 227 255
205 227 255
205 227 255
206 227 255
206 227 255
206 227 255
206 227 255
206 227 255
206 227 255
206 227 255
206 227 255
206 227 255
206 227 255
206 227 255
206 227 255
206 227 255
206 227 255
206 227 255
206 227 255
206 227 255
206 227 255
206 227 255
207 227 255
207 227 255
207 227 255
207 227 255
207 228 255
207 228 255
207 228 255
207 228 255
207 228 255
207 228 255
207 228 255
207 228 255
207 228 255
207 228 255
207 228 255
207 228 255
207 228 255
207 228 255
208 228 255
207 228 255
207 228 255
207 228 255
207 228 255
207 228 255
207 228 255
207 228 255
207 228 255
207 228 255
207 228 255
207 228 255
207 228 255
207 228 255
207 228 255
207 228 255
207 228 255
207 227 255
207 227 255
207 227 255
207 227 255
206 227 255
206 227 255
206 227 255
206 227 255
206 227 255
206 227 255
206 227 255
206 227 255
206 227 255
206 227 255
206 227 255
206 227 255
206 227 255
206 227 255
206 227 255
206 227 255
206 227 255
206 227 255
206 227 255
205 227 255
205 227 255
205 227 255
205 227 255
205 227 255
205 227 255
205 227 255
205 227 255
205 227 255
205 227 255
205 226 255
205 226 255
205 226 255
205 226 255
205 226 255
205 226 255
205 226 255
204 226 255
204 226 255
204 226 255
204 226 255
204 226 255
204 226 255
204 226 255
204 226 255
204 226 255
204 226 255
204 226 255
204 226 255
204 226 255
204 226 255
204 226 255
204 226 255
203 226 255
203 226 255
203 226 255
203 226 255
203 226 255
203 226 255
203 226 255
203 225 255
203 225 255
203 225 255
203 225 255
203 225 255
203 225 255
203 225 255
203 225 255
202 225 255
202 225 255
202 225 255
202 225 255
202 225 255
202 225 255
202 225 255
202 225 255
202 225 255
202 225 255
202 225 255
202 225 255
202 225 255
202 225 255
202 225 255
201 225 255
201 225 255
201 225 255
201 225 255
201 224 255
201 224 255
201 224 255
201 224 255
201 224 255
201 224 255
201 224 255
201 224 255
201 224 255
201 224 255
201 224 255
200 224 255
200 224 255
200 224 255
200 224 255
200 224 255
200 224 255
200 224 255
200 224 255
200 224 255
200 224 255
200 224 255
200 224 255
200 224 255
200 224 255
200 224 255
199 224 255
199 224 255
199 224 255
199 223 255
199 223 255
199 223 255
199 223 255
199 223 255
199 223 255
199 223 255
199 223 255
199 223 255
199 223 255
199 223 255
199 223 255
199 223 255
199 223 255
199 223 255
198 223 255
198 223 255
198 223 255
198 223 255
198 223 255
198 223 255
198 223 255
198 223 255
198 223 255
198 223 255
198 223 255
198 223 255
198 223 255
198 223 255
198 223 255
198 223 255
198 223 255
198 223 255
198 223 255
198 223 255
198 223 255
198 223 255
198 223 255
198 223 255
198 223 255
197 223 255
197 222 255
197 222 255
197 222 255
197 222 255
197 222 255
197 222 255
197 222 255
197 222 255
197 222 255
197 222 255
197 222 255
197 222 255
197 222 255
197 222 255
197 222 255
197 222 255
197 222 255
197 222 255
197 222 255
197 222 255
197 222 255
197 222 255
197 222 255
197 222 255
197 222 255
197 222 255
197 222 255
197 222 255
197 222 255
197 222 255
197 222 255
197 222 255
197 222 255
197 222 255
197 222 255
197 222 255
197 222 255
197 222 255
197 222 255
197 222 255
197 222 255
197 222 255
197 222 255
197 222 255
197 222 255
197 222 255
197 223 255
197 223 255
198 223 255
198 223 255
198 223 255
198 223 255
198 223 255
198 223 255
198 223 255
198 223 255
198 223 255
198 223 255
198 223 255
198 223 255
198 223 255
198 223 255
198 223 255
198 223 255
198 223 255
198 223 255
198 223 255
198 223 255
198 223 255
198 223 255
198 223 255
198 223 255
199 223 255
199 223 255
199 223 255
199 223 255
199 223 255
199 223 255
199 223 255
199 223 255
199 223 255
199 223 255
199 223 255
199 223 255
199 223 255
199 223 255
199 223 255
199 224 255
199 224 255
199 224 255
200 224 255
200 224 255
200 224 255
200 224 255
200 224 255
200 224 255
200 224 255
200 224 255
200 224 255
200 224 255
200 224 255
200 224 255
200 224 255
200 224 255
200 224 255
201 224 255
201 224 255
201 224 255
201 224 255
201 224 255
201 224 255
201 224 255
201 224 255
201 224 255
201 224 255
201 224 255
201 225 255
201 225 255
201 225 255
201 225 255
202 225 255
202 225 255
202 225 255
202 225 255
202 225 255
202 225 255
202 225 255
202 225 255
202 225 255
202 225 255
202 225 255
202 225 255
202 225 255
202 225 255
202 225 255
203 225 255
203 225 255
203 225 255
203 225 255
203 225 255
203 225 255
203 225 255
203 225 255
203 226 255
203 226 255
203 226 255
203 226 255
203 226 255
203 226 255
203 226 255
204 226 255
204 226 255
204 226 255
204 226 255
204 226 255
204 226 255
204 226 255
204 226 255
204 226 255
204 226 255
204 226 255
204 226 255
204 226 255
204 226 255
204 226 255
204 226 255
205 226 255
205 226 255
205 226 255
205 226 255
205 226 255
205 226 255
205 226 255
205 227 255
205 227 255
205 227 255
205 227 255
205 227 255
205 227 255
205 227 255
205 227 255
205 227 255
205 227 255
206 227 255
206 227 255
206 227 255
206 227 255
206 227 255
206 227 255
206 227 255
206 227 255
206 227 255
206 227 255
206 227 255
206 227 255
206 227 255
206 227 255
206 227 255
206 227 255
206 227 255
206 227 255
206 227 255
207 227 255
207 227 255
207 227 255
207 227 255
207 228 255
207 228 255
207 228 255
207 228 255
207 228 255
207 228 255
207 228 255
207 228 255
207 228 255
207 228 255
207 228 255
207 228 255
207 228 255
207 228 255
207 228 255
207 228 255
208 228 255
208 228 255
208 228 255
208 228 255
208 228 255
207 228 255
207 228 255
207 228 255
207 228 255
207 228 255
207 228 255
207 228 255
207 228 255
207 228 255
207 228 255
207 228 255
207 228 255
207 228 255
207 228 255
207 228 255
207 228 255
207 227 255
207 227 255
207 227 255
207 227 255
206 227 255
206 227 255
206 227 255
206 227 255
206 227 255
206 227 255
206 227 255
206 227 255
206 227 255
206 227 255
206 227 255
206 227 255
206 227 255
206 227 255
206 227 255
206 227 255
206 227 255
206 227 255
205 227 255
205 227 255
205 227 255
205 227 255
205 227 255
205 227 255
205 227 255
205 227 255
205 227 255
205 227 255
205 227 255
205 226 255
205 226 255
205 226 255
205 226 255
205 226 255
205 226 255
204 226 255
204 226 255
204 226 255
204 226 255
204 226 255
204 226 255
204 226 255
204 226 255
204 226 255
204 226 255
204 226 255
204 226 255
204 226 255
204 226 255
204 226 255
204 226 255
203 226 255
203 226 255
203 226 255
203 226 255
203 226 255
203 226 255
203 226 255
203 225 255
203 225 255
203 225 255
203 225 255
203 225 255
203 225 255
203 225 255
203 225 255
202 225 255
202 225 255
202 225 255
202 225 255
202 225 255
202 225 255
202 225 255
202 225 255
202 225 255
202 225 255
202 225 255
202 225 255
202 225 255
202 225 255
202 225 255
202 225 255
201 225 255
201 225 255
201 225 255
201 225 255
201 224 255
201 224 255
201 224 255
201 224 255
201 224 255
201 224 255
201 224 255
201 224 255
201 224 255
201 224 255
201 224 255
200 224 255
200 224 255
200 224 255
200 224 255
200 224 255
200 224 255
200 224 255
200 224 255
200 224 255
200 224 255
200 224 255
200 224 255
200 224 255
200 224 255
200 224 255
199 224 255
199 224 255
199 224 255
199 223 255
199 223 255
199 223 255
199 223 255
199 223 255
199 223 255
199 223 255
199 223 255
199 223 255
199 223 255
199 223 255
199 223 255
199 223 255
199 223 255
199 223 255
199 223 255
198 223 255
198 223 255
198 223 255
198 223 255
198 223 255
198 223 255
198 223 255
198 223 255
198 223 255
198 223 255
198 223 255
198 223 255
198 223 255
198 223 255
198 223 255
198 223 255
198 223 255
198 223 255
198 223 255
198 223 255
198 223 255
198 223 255
198 223 255
198 223 255
198 223 255
198 223 255
198 223 255
197 223 255
197 223 255
197 223 255
197 222 255
197 222 255
197 222 255
197 222 255
197 222 255
197 222 255
197 222 255
197 222 255
197 222 255
197 222 255
197 222 255
197 222 255
197 222 255
197 222 255
197 222 255
197 222 255
197 222 255
197 222 255
197 222 255
197 222 255
197 222 255
197 222 255
197 222 255
197 222 255
197 222 255
197 222 255
197 222 255
197 222 255
197 222 255
197 222 255
197 223 255
197 223 255
198 223 255
198 223 255
198 223 255
198 223 255
198 223 255
198 223 255
198 223 255
198 223 255
198 223 255
198 223 255
198 223 255
198 223 255
198 223 255
198 223 255
198 223 255
198 223 255
198 223 255
198 223 255
198 223 255
198 223 255
198 223 255
198 223 255
198 223 255
198 223 255
198 223 255
198 223 255
198 223 255
198 223 255
199 223 255
199 223 255
199 223 255
199 223 255
199 223 255
199 223 255
199 223 255
199 223 255
199 223 255
199 223 255
199 223 255
199 223 255
199 223 255
199 223 255
199 223 255
199 223 255
199 224 255
199 224 255
199 224 255
200 224 255
200 224 255
200 224 255
200 224 255
200 224 255
200 224 255
200 224 255
200 224 255
200 224 255
200 224 255
200 224 255
200 224 255
200 224 255
200 224 255
200 224 255
201 224 255
201 224 255
201 224 255
201 224 255
201 224 255
201 224 255
201 224 255
201 224 255
201 224 255
201 224 255
201 224 255
201 225 255
201 225 255
201 225 255
201 225 255
201 225 255
202 225 255
202 225 255
202 225 255
202 225 255
202 225 255
202 225 255
202 225 255
202 225 255
202 225 255
202 225 255
202 225 255
202 225 255
202 225 255
202 225 255
202 225 255
203 225 255
203 225 255
203 225 255
203 225 255
203 225 255
203 225 255
203 225 255
203 225 255
203 226 255
203 226 255
203 226 255
203 226 255
203 226 255
203 226 255
203 226 255
204 226 255
204 226 255
204 226 255
204 226 255
204 226 255
204 226 255
204 226 255
204 226 255
204 226 255
204 226 255
204 226 255
204 226 255
204 226 255
204 226 255
204 226 255
204 226 255
205 226 255
205 226 255
205 226 255
205 226 255
205 226 255
205 226 255
205 227 255
205 227 255
205 227 255
205 227 255
205 227 255
205 227 255
205 227 255
205 227 255
205 227 255
205 227 255
205 227 255
206 227 255
206 227 255
206 227 255
206 227 255
206 227 255
206 227 255
206 227 255
206 227 255
206 227 255
206 227 255
206 227 255
206 227 255
206 227 255
206 227 255
206 227 255
206 227 255
206 227 255
206 227 255
207 227 255
207 227 255
207 227 255
207 227 255
207 228 255
207 228 255
207 228 255
207 228 255
207 228 255
207 228 255
207 228 255
207 228 255
207 228 255
207 228 255
207 228 255
207 228 255
207 228 255
207 228 255
207 228 255
207 228 255
208 228 255
208 228 255
208 228 255
208 228 255
208 228 255
208 228 255
208 228 255
208 228 255
208 228 255
208 228 255
208 228 255
207 228 255
207 228 255
207 228 255
207 228 255
207 228 255
207 228 255
207 228 255
207 228 255
207 228 255
207 228 255
207 228 255
207 228 255
207 228 255
207 228 255
207 228 255
207 227 255
207 227 255
207 227 255
207 227 255
207 227 255
206 227 255
206 227 255
206 227 255
206 227 255
206 227 255
206 227 255
206 227 255
206 227 255
206 227 255
206 227 255
206 227 255
206 227 255
206 227 255
206 227 255
206 227 255
206 227 255
206 227 255
206 227 255
205 227 255
205 227 255
205 227 255
205 227 255
205 227 255
205 227 255
205 227 255
205 227 255
205 227 255
205 227 255
205 226 255
205 226 255
205 226 255
205 226 255
205 226 255
205 226 255
205 226 255
204 226 255
204 226 255
204 226 255
204 226 255
204 226 255
204 226 255
204 226 255
204 226 255
204 226 255
204 226 255
204 226 255
204 226 255
204 226 255
204 226 255
204 226 255
204 226 255
203 226 255
203 226 255
203 226 255
203 226 255
203 226 255
203 226 255
203 226 255
203 225 255
203 225 255
203 225 255
203 225 255
203 225 255
203 225 255
203 225 255
203 225 255
202 225 255
202 225 255
202 225 255
202 225 255
202 225 255
202 225 255
202 225 255
202 225 255
202 225 255
202 225 255
202 225 255
202 225 255
202 225 255
202 225 255
202 225 255
201 225 255
201 225 255
201 225 255
201 225 255
201 225 255
201 224 255
201 224 255
201 224 255
201 224 255
201 224 255
201 224 255
201 224 255
201 224 255
201 224 255
201 224 255
200 224 255
200 224 255
200 224 255
200 224 255
200 224 255
200 224 255
200 224 255
200 224 255
200 224 255
200 224 255
200 224 255
200 224 255
200 224 255
200 224 255
200 224 255
200 224 255
200 224 255
199 224 255
199 224 255
199 223 255
199 223 255
199 223 255
199 223 255
199 223 255
199 223 255
199 223 255
199 223 255
199 223 255
199 223 255
199 223 255
199 223 255
199 223 255
199 223 255
199 223 255
199 223 255
199 223 255
198 223 255
198 223 255
198 223 255
198 223 255
198 223 255
198 223 255
198 223 255
198 223 255
198 223 255
198 223 255
198 223 255
198 223 255
198 223 255
198 223 255
198 223 255
198 223 255
198 223 255
198 223 255
198 223 255
198 223 255
198 223 255
198 223 255
198 223 255
198 223 255
198 223 255
198 223 255
198 223 255
198 223 255
198 223 255
198 223 255
198 223 255
198 223 255
198 223 255
198 223 255
198 223 255
198 223 255
198 223 255
198 223 255
198 223 255
197 223 255
197 223 255
197 223 255
198 223 255
197 223 255
197 223 255
198 223 255
198 223 255
198 223 255
198 223 255
198 223 255
198 223 255
198 223 255
198 223 255
198 223 255
198 223 255
198 223 255
198 223 255
198 223 255
198 223 255
198 223 255
198 223 255
198 223 255
198 223 255
198 223 255
198 223 255
198 223 255
198 223 255
198 223 255
198 223 255
198 223 255
198 223 255
198 223 255
198 223 255
198 223 255
198 223 255
198 223 255
198 223 255
198 223 255
198 223 255
198 223 255
198 223 255
198 223 255
199 223 255
199 223 255
199 223 255
199 223 255
199 223 255
199 223 255
199 223 255
199 223 255
199 223 255
199 223 255
199 223 255
199 223 255
199 223 255
199 223 255
199 223 255
199 223 255
199 223 255
199 224 255
199 224 255
199 224 255
200 224 255
200 224 255
200 224 255
200 224 255
200 224 255
200 224 255
200 224 255
200 224 255
200 224 255
200 224 255
200 224 255
200 224 255
200 224 255
200 224 255
200 224 255
200 224 255
201 224 255
201 224 255
201 224 255
201 224 255
201 224 255
201 224 255
201 224 255
201 224 255
201 224 255
201 224 255
201 224 255
201 225 255
201 225 255
201 225 255
201 225 255
202 225 255
202 225 255
202 225 255
202 225 255
202 225 255
202 225 255
202 225 255
202 225 255
202 225 255
202 225 255
202 225 255
202 225 255
202 225 255
202 225 255
202 225 255
203 225 255
203 225 255
203 225 255
203 225 255
203 225 255
203 225 255
203 225 255
203 225 255
203 226 255
203 226 255
203 226 255
203 226 255
203 226 255
203 226 255
203 226 255
204 226 255
204 226 255
204 226 255
204 226 255
204 226 255
204 226 255
204 226 255
204 226 255
204 226 255
204 226 255
204 226 255
204 226 255
204 226 255
204 226 255
204 226 255
204 226 255
205 226 255
205 226 255
205 226 255
205 226 255
205 226 255
205 226 255
205 226 255
205 227 255
205 227 255
205 227 255
205 227 255
205 227 255
205 227 255
205 227 255
205 227 255
205 227 255
205 227 255
206 227 255
206 227 255
206 227 255
206 227 255
206 227 255
206 227 255
206 227 255
206 227 255
206 227 255
206 227 255
206 227 255
206 227 255
206 227 255
206 227 255
206 227 255
206 227 255
206 227 255
206 227 255
207 227 255
207 227 255
207 227 255
207 227 255
207 227 255
207 228 255
207 228 255
207 228 255
207 228 255
207 228 255
207 228 255
207 228 255
207 228 255
207 228 255
207 228 255
207 228 255
207 228 255
207 228 255
207 228 255
207 228 255
208 228 255
208 228 255
208 228 255
208 228 255
208 228 255
208 228 255
208 228 255
208 228 255
208 228 255
208 228 255
208 228 255
208 228 255
208 228 255
208 228 255
208 228 255
208 228 255
208 228 255
207 228 255
207 228 255
207 228 255
207 228 255
207 228 255
207 228 255
207 228 255
207 228 255
207 228 255
207 228 255
207 228 255
207 228 255
207 228 255
207 228 255
207 228 255
207 227 255
207 227 255
207 227 255
207 227 255
207 227 255
206 227 255
206 227 255
206 227 255
206 227 255
206 227 255
206 227 255
206 227 255
206 227 255
206 227 255
206 227 255
206 227 255
206 227 255
206 227 255
206 227 255
206 227 255
206 227 255
206 227 255
206 227 255
205 227 255
205 227 255
205 227 255
205 227 255
205 227 255
205 227 255
205 227 255
205 227 255
205 227 255
205 227 255
205 226 255
205 226 255
205 226 255
205 226 255
205 226 255
205 226 255
205 226 255
204 226 255
204 226 255
204 226 255
204 226 255
204 226 255
204 226 255
204 226 255
204 226 255
204 226 255
204 226 255
204 226 255
204 226 255
204 226 255
204 226 255
204 226 255
204 226 255
203 226 255
203 226 255
203 226 255
203 226 255
203 226 255
203 226 255
203 225 255
203 225 255
203 225 255
203 225 255
203 225 255
203 225 255
203 225 255
203 225 255
203 225 255
202 225 255
202 225 255
202 225 255
202 225 255
202 225 255
202 225 255
202 225 255
202 225 255
202 225 255
202 225 255
202 225 255
202 225 255
202 225 255
202 225 255
202 225 255
201 225 255
201 225 255
201 225 255
201 225 255
201 224 255
201 224 255
201 224 255
201 224 255
201 224 255
201 224 255
201 224 255
201 224 255
201 224 255
201 224 255
201 224 255
200 224 255
200 224 255
200 224 255
200 224 255
200 224 255
200 224 255
200 224 255
200 224 255
200 224 255
200 224 255
200 224 255
200 224 255
200 224 255
200 224 255
200 224 255
200 224 255
200 224 255
199 224 255
199 224 255
199 224 255
199 223 255
199 223 255
199 223 255
199 223 255
199 223 255
199 223 255
199 223 255
199 223 255
199 223 255
199 223 255
199 223 255
199 223 255
199 223 255
199 223 255
199 223 255
199 223 255
199 223 255
198 223 255
198 223 255
198 223 255
198 223 255
198 223 255
198 223 255
198 223 255
198 223 255
198 223 255
198 223 255
198 223 255
198 223 255
198 223 255
198 223 255
198 223 255
198 223 255
198 223 255
198 223 255
198 223 255
198 223 255
198 223 255
198 223 255
198 223 255
198 223 255
198 223 255
198 223 255
198 223 255
198 223 255
198 223 255
198 223 255
198 223 255
198 223 255
198 223 255
198 223 255
198 223 255
198 223 255
198 223 255
198 223 255
198 223 255
198 223 255
198 223 255
198 223 255
198 223 255
198 223 255
198 223 255
198 223 255
198 223 255
198 223 255
198 223 255
198 223 255
198 223 255
198 223 255
198 223 255
198 223 255
198 223 255
198 223 255
198 223 255
198 223 255
198 223 255
198 223 255
198 223 255
198 223 255
198 223 255
198 223 255
198 223 255
198 223 255
198 223 255
198 223 255
198 223 255
198 223 255
198 223 255
198 223 255
198 223 255
198 223 255
199 223 255
199 223 255
199 223 255
199 223 255
199 223 255
199 223 255
199 223 255
199 223 255
199 223 255
199 223 255
199 223 255
199 223 255
199 223 255
199 223 255
199 223 255
199 223 255
199 223 255
199 224 255
199 224 255
199 224 255
200 224 255
200 224 255
200 224 255
200 224 255
200 224 255
200 224 255
200 224 255
200 224 255
200 224 255
200 224 255
200 224 255
200 224 255
200 224 255
200 224 255
200 224 255
200 224 255
200 224 255
201 224 255
201 224 255
201 224 255
201 224 255
201 224 255
201 224 255
201 224 255
201 224 255
201 224 255
201 224 255
201 224 255
201 225 255
201 225 255
201 225 255
201 225 255
202 225 255
202 225 255
202 225 255
202 225 255
202 225 255
202 225 255
202 225 255
202 225 255
202 225 255
202 225 255
202 225 255
202 225 255
202 225 255
202 225 255
202 225 255
203 225 255
203 225 255
203 225 255
203 225 255
203 225 255
203 225 255
203 225 255
203 225 255
203 225 255
203 226 255
203 226 255
203 226 255
203 226 255
203 226 255
203 226 255
204 226 255
204 226 255
204 226 255
204 226 255
204 226 255
204 226 255
204 226 255
204 226 255
204 226 255
204 226 255
204 226 255
204 226 255
204 226 255
204 226 255
204 226 255
204 226 255
205 226 255
205 226 255
205 226 255
205 226 255
205 226 255
205 226 255
205 226 255
205 227 255
205 227 255
205 227 255
205 227 255
205 227 255
205 227 255
205 227 255
205 227 255
205 227 255
205 227 255
206 227 255
206 227 255
206 227 255
206 227 255
206 227 255
206 227 255
206 227 255
206 227 255
206 227 255
206 227 255
206 227 255
206 227 255
206 227 255
206 227 255
206 227 255
206 227 255
206 227 255
206 227 255
207 227 255
207 227 255
207 227 255
207 227 255
207 227 255
207 228 255
207 228 255
207 228 255
207 228 255
207 228 255
207 228 255
207 228 255
207 228 255
207 228 255
207 228 255
207 228 255
207 228 255
207 228 255
207 228 255
207 228 255
208 228 255
208 228 255
208 228 255
208 228 255
208 228 255
208 228 255
208 228 255
208 228 255
208 228 255
208 228 255
208 228 255
208 228 255
208 228 255
208 228 255
208 228 255
208 228 255
208 228 255
208 228 255
208 228 255
208 228 255
208 228 255
208 228 255
208 228 255
207 228 255
207 228 255
207 228 255
207 228 255
207 228 255
207 228 255
207 228 255
207 228 255
207 228 255
207 228 255
207 228 255
207 228 255
207 228 255
207 228 255
207 228 255
207 227 255
207 227 255
207 227 255
207 227 255
207 227 255
206 227 255
206 227 255
206 227 255
206 227 255
206 227 255
206 227 255
206 227 255
206 227 255
206 227 255
206 227 255
206 227 255
206 227 255
206 227 255
206 227 255
206 227 255
206 227 255
206 227 255
206 227 255
205 227 255
205 227 255
205 227 255
205 227 255
205 227 255
205 227 255
205 227 255
205 227 255
205 227 255
205 227 255
205 226 255
205 226 255
205 226 255
205 226 255
205 226 255
205 226 255
204 226 255
204 226 255
204 226 255
204 226 255
204 226 255
204 226 255
204 226 255
204 226 255
204 226 255
204 226 255
204 226 255
204 226 255
204 226 255
204 226 255
204 226 255
204 226 255
203 226 255
203 226 255
203 226 255
203 226 255
203 226 255
203 226 255
203 226 255
203 225 255
203 225 255
203 225 255
203 225 255
203 225 255
203 225 255
203 225 255
203 225 255
202 225 255
202 225 255
202 225 255
202 225 255
202 225 255
202 225 255
202 225 255
202 225 255
202 225 255
202 225 255
202 225 255
202 225 255
202 225 255
202 225 255
202 225 255
202 225 255
201 225 255
201 225 255
201 225 255
201 225 255
201 224 255
201 224 255
201 224 255
201 224 255
201 224 255
201 224 255
201 224 255
201 224 255
201 224 255
201 224 255
201 224 255
200 224 255
200 224 255
200 224 255
200 224 255
200 224 255
200 224 255
200 224 255
200 224 255
200 224 255
200 224 255
200 224 255
200 224 255
200 224 255
200 224 255
200 224 255
200 224 255
200 224 255
199 224 255
199 224 255
199 224 255
199 223 255
199 223 255
199 223 255
199 223 255
199 223 255
199 223 255
199 223 255
199 223 255
199 223 255
199 223 255
199 223 255
199 223 255
199 223 255
199 223 255
199 223 255
199 223 255
199 223 255
199 223 255
198 223 255
198 223 255
198 223 255
198 223 255
198 223 255
198 223 255
198 223 255
198 223 255
198 223 255
198 223 255
198 223 255
198 223 255
198 223 255
198 223 255
198 223 255
198 223 255
198 223 255
198 223 255
198 223 255
198 223 255
198 223 255
198 223 255
198 223 255
198 223 255
198 223 255
198 223 255
198 223 255
198 223 255
198 223 255
198 223 255
198 223 255
198 223 255
198 223 255
198 223 255
198 223 255
198 223 255
198 223 255
198 223 255
198 223 255
198 223 255
198 223 255
198 223 255
198 223 255
198 223 255
198 223 255
198 223 255
198 223 255
198 223 255
198 223 255
198 223 255
198 223 255
198 223 255
198 223 255
198 223 255
198 223 255
198 223 255
198 223 255
198 223 255
198 223 255
198 223 255
198 223 255
198 223 255
198 223 255
198 223 255
198 223 255
199 223 255
199 223 255
199 223 255
199 223 255
199 223 255
199 223 255
199 223 255
199 223 255
199 223 255
199 223 255
199 223 255
199 223 255
199 223 255
199 223 255
199 223 255
199 223 255
199 223 255
199 223 255
199 223 255
199 224 255
199 224 255
199 224 255
200 224 255
200 224 255
200 224 255
200 224 255
200 224 255
200 224 255
200 224 255
200 224 255
200 224 255
200 224 255
200 224 255
200 224 255
200 224 255
200 224 255
200 224 255
200 224 255
200 224 255
201 224 255
201 224 255
201 224 255
201 224 255
201 224 255
201 224 255
201 224 255
201 224 255
201 224 255
201 224 255
201 224 255
201 225 255
201 225 255
201 225 255
201 225 255
202 225 255
202 225 255
202 225 255
202 225 255
202 225 255
202 225 255
202 225 255
202 225 255
202 225 255
202 225 255
202 225 255
202 225 255
202 225 255
202 225 255
202 225 255
203 225 255
203 225 255
203 225 255
203 225 255
203 225 255
203 225 255
203 225 255
203 225 255
203 225 255
203 226 255
203 226 255
203 226 255
203 226 255
203 226 255
203 226 255
203 226 255
204 226 255
204 226 255
204 226 255
204 226 255
204 226 255
204 226 255
204 226 255
204 226 255
204 226 255
204 226 255
204 226 255
204 226 255
204 226 255
204 226 255
204 226 255
204 226 255
205 226 255
205 226 255
205 226 255
205 226 255
205 226 255
205 226 255
205 227 255
205 227 255
205 227 255
205 227 255
205 227 255
205 227 255
205 227 255
205 227 255
205 227 255
205 227 255
206 227 255
206 227 255
206 227 255
206 227 255
206 227 255
206 227 255
206 227 255
206 227 255
206 227 255
206 227 255
206 227 255
206 227 255
206 227 255
206 227 255
206 227 255
206 227 255
206 227 255
206 227 255
207 227 255
207 227 255
207 227 255
207 227 255
207 227 255
207 228 255
207 228 255
207 228 255
207 228 255
207 228 255
207 228 255
207 228 255
207 228 255
207 228 255
207 228 255
207 228 255
207 228 255
207 228 255
207 228 255
207 228 255
208 228 255
208 228 255
208 228 255
208 228 255
208 228 255
208 228 255
208 228 255
208 228 255
208 228 255
208 228 255
208 228 255
208 228 255
208 228 255
208 228 255
208 228 255
208 228 255
208 228 255
208 228 255
208 228 255
208 228 255
208 228 255
208 228 255
208 228 255
208 228 255
208 228 255
208 228 255
208 228 255
208 228 255
208 228 255
207 228 255
207 228 255
207 228 255
207 228 255
207 228 255
207 228 255
207 228 255
207 228 255
207 228 255
207 228 255
207 228 255
207 228 255
207 228 255
207 228 255
207 228 255
207 227 255
207 227 255
207 227 255
207 227 255
206 227 255
206 227 255
206 227 255
206 227 255
206 227 255
206 227 255
206 227 255
206 227 255
206 227 255
206 227 255
206 227 255
206 227 255
206 227 255
206 227 255
206 227 255
206 227 255
206 227 255
206 227 255
206 227 255
205 227 255
205 227 255
205 227 255
205 227 255
205 227 255
205 227 255
205 227 255
205 227 255
205 227 255
205 227 255
205 226 255
205 226 255
205 226 255
205 226 255
205 226 255
205 226 255
204 226 255
204 226 255
204 226 255
204 226 255
204 226 255
204 226 255
204 226 255
204 226 255
204 226 255
204 226 255
204 226 255
204 226 255
204 226 255
204 226 255
204 226 255
204 226 255
203 226 255
203 226 255
203 226 255
203 226 255
203 226 255
203 226 255
203 226 255
203 225 255
203 225 255
203 225 255
203 225 255
203 225 255
203 225 255
203 225 255
203 225 255
202 225 255
202 225 255
202 225 255
202 225 255
202 225 255
202 225 255
202 225 255
202 225 255
202 225 255
202 225 255
202 225 255
202 225 255
202 225 255
202 225 255
202 225 255
201 225 255
201 225 255
201 225 255
201 225 255
201 225 255
201 224 255
201 224 255
201 224 255
201 224 255
201 224 255
201 224 255
201 224 255
201 224 255
201 224 255
201 224 255
201 224 255
200 224 255
200 224 255
200 224 255
200 224 255
200 224 255
200 224 255
200 224 255
200 224 255
200 224 255
200 224 255
200 224 255
200 224 255
200 224 255
200 224 255
200 224 255
200 224 255
200 224 255
200 224 255
199 224 255
199 224 255
199 224 255
199 223 255
199 223 255
199 223 255
199 223 255
199 223 255
199 223 255
199 223 255
199 223 255
199 223 255
199 223 255
199 223 255
199 223 255
199 223 255
199 223 255
199 223 255
199 223 255
199 223 255
199 223 255
199 223 255
199 223 255
198 223 255
198 223 255
198 223 255
198 223 255
198 223 255
198 223 255
198 223 255
198 223 255
198 223 255
198 223 255
198 223 255
198 223 255
198 223 255
198 223 255
198 223 255
198 223 255
198 223 255
198 223 255
198 223 255
198 223 255
198 223 255
198 223 255
198 223 255
198 223 255
198 223 255
198 223 255
198 223 255
198 223 255
198 223 255
198 223 255
198 223 255
198 223 255
198 223 255
198 223 255
198 223 255
198 223 255
198 223 255
198 223 255
198 223 255
198 223 255
198 223 255
198 223 255
198 223 255
198 223 255
198 223 255
198 223 255
198 223 255
198 223 255
198 223 255
198 223 255
198 223 255
198 223 255
198 223 255
198 223 255
199 223 255
199 223 255
199 223 255
199 223 255
199 223 255
199 223 255
199 223 255
199 223 255
199 223 255
199 223 255
199 223 255
199 223 255
199 223 255
199 223 255
199 223 255
199 223 255
199 223 255
199 223 255
199 223 255
199 223 255
199 224 255
199 224 255
199 224 255
200 224 255
200 224 255
200 224 255
200 224 255
200 224 255
200 224 255
200 224 255
200 224 255
200 224 255
200 224 255
200 224 255
200 224 255
200 224 255
200 224 255
200 224 255
200 224 255
200 224 255
200 224 255
201 224 255
201 224 255
201 224 255
201 224 255
201 224 255
201 224 255
201 224 255
201 224 255
201 224 255
201 224 255
201 224 255
201 225 255
201 225 255
201 225 255
201 225 255
201 225 255
202 225 255
202 225 255
202 225 255
202 225 255
202 225 255
202 225 255
202 225 255
202 225 255
202 225 255
202 225 255
202 225 255
202 225 255
202 225 255
202 225 255
202 225 255
203 225 255
203 225 255
203 225 255
203 225 255
203 225 255
203 225 255
203 225 255
203 225 255
203 226 255
203 226 255
203 226 255
203 226 255
203 226 255
203 226 255
203 226 255
204 226 255
204 226 255
204 226 255
204 226 255
204 226 255
204 226 255
204 226 255
204 226 255
204 226 255
204 226 255
204 226 255
204 226 255
204 226 255
204 226 255
204 226 255
204 226 255
205 226 255
205 226 255
205 226 255
205 226 255
205 226 255
205 226 255
205 226 255
205 227 255
205 227 255
205 227 255
205 227 255
205 227 255
205 227 255
205 227 255
205 227 255
205 227 255
206 227 255
206 227 255
206 227 255
206 227 255
206 227 255
206 227 255
206 227 255
206 227 255
206 227 255
206 227 255
206 227 255
206 227 255
206 227 255
206 227 255
206 227 255
206 227 255
206 227 255
206 227 255
207 227 255
207 227 255
207 227 255
207 227 255
207 227 255
207 228 255
207 228 255
207 228 255
207 228 255
207 228 255
207 228 255
207 228 255
207 228 255
207 228 255
207 228 255
207 228 255
207 228 255
207 228 255
207 228 255
207 228 255
208 228 255
208 228 255
208 228 255
208 228 255
208 228 255
208 228 255
208 228 255
208 228 255
208 228 255
208 228 255
208 228 255
208 228 255
208 228 255
208 228 255
208 228 255
208 228 255
208 228 255
208 228 255
208 228 255
208 228 255
208 228 255
208 228 255
208 228 255
208 228 255
208 228 255
208 228 255
208 228 255
208 228 255
208 228 255
208 228 255
208 228 255
208 228 255
208 228 255
208 228 255
208 228 255
207 228 255
207 228 255
207 228 255
207 228 255
207 228 255
207 228 255
207 228 255
207 228 255
207 228 255
207 228 255
207 228 255
207 228 255
207 228 255
207 228 255
207 228 255
207 227 255
207 227 255
207 227 255
207 227 255
206 227 255
206 227 255
206 227 255
206 227 255
206 227 255
206 227 255
206 227 255
206 227 255
206 227 255
206 227 255
206 227 255
206 227 255
206 227 255
206 227 255
206 227 255
206 227 255
206 227 255
206 227 255
205 227 255
205 227 255
205 227 255
205 227 255
205 227 255
205 227 255
205 227 255
205 227 255
205 227 255
205 227 255
205 226 255
205 226 255
205 226 255
205 226 255
205 226 255
205 226 255
205 226 255
204 226 255
204 226 255
204 226 255
204 226 255
204 226 255
204 226 255
204 226 255
204 226 255
204 226 255
204 226 255
204 226 255
204 226 255
204 226 255
204 226 255
204 226 255
204 226 255
203 226 255
203 226 255
203 226 255
203 226 255
203 226 255
203 226 255
203 225 255
203 225 255
203 225 255
203 225 255
203 225 255
203 225 255
203 225 255
203 225 255
203 225 255
202 225 255
202 225 255
202 225 255
202 225 255
202 225 255
202 225 255
202 225 255
202 225 255
202 225 255
202 225 255
202 225 255
202 225 255
202 225 255
202 225 255
202 225 255
201 225 255
201 225 255
201 225 255
201 225 255
201 225 255
201 224 255
201 224 255
201 224 255
201 224 255
201 224 255
201 224 255
201 224 255
201 224 255
201 224 255
201 224 255
201 224 255
200 224 255
200 224 255
200 224 255
200 224 255
200 224 255
200 224 255
200 224 255
200 224 255
200 224 255
200 224 255
200 224 255
200 224 255
200 224 255
200 224 255
200 224 255
200 224 255
200 224 255
200 224 255
199 224 255
199 224 255
199 224 255
199 224 255
199 223 255
199 223 255
199 223 255
199 223 255
199 223 255
199 223 255
199 223 255
199 223 255
199 223 255
199 223 255
199 223 255
199 223 255
199 223 255
199 223 255
199 223 255
199 223 255
199 223 255
199 223 255
199 223 255
199 223 255
199 223 255
199 223 255
199 223 255
198 223 255
198 223 255
198 223 255
198 223 255
198 223 255
198 223 255
198 223 255
198 223 255
198 223 255
198 223 255
198 223 255
198 223 255
198 223 255
198 223 255
198 223 255
198 223 255
198 223 255
198 223 255
198 223 255
198 223 255
198 223 255
198 223 255
198 223 255
198 223 255
198 223 255
198 223 255
198 223 255
198 223 255
198 223 255
198 223 255
198 223 255
198 223 255
198 223 255
198 223 255
198 223 255
198 223 255
198 223 255
198 223 255
198 223 255
198 223 255
199 223 255
199 223 255
199 223 255
199 223 255
199 223 255
199 223 255
199 223 255
199 223 255
199 223 255
199 223 255
199 223 255
199 223 255
199 223 255
199 223 255
199 223 255
199 223 255
199 223 255
199 223 255
199 223 255
199 223 255
199 223 255
199 223 255
199 223 255
199 224 255
199 224 255
199 224 255
199 224 255
200 224 255
200 224 255
200 224 255
200 224 255
200 224 255
200 224 255
200 224 255
200 224 255
200 224 255
200 224 255
200 224 255
200 224 255
200 224 255
200 224 255
200 224 255
200 224 255
200 224 255
200 224 255
201 224 255
201 224 255
201 224 255
201 224 255
201 224 255
201 224 255
201 224 255
201 224 255
201 224 255
201 224 255
201 224 255
201 225 255
201 225 255
201 225 255
201 225 255
201 225 255
202 225 255
202 225 255
202 225 255
202 225 255
202 225 255
202 225 255
202 225 255
202 225 255
202 225 255
202 225 255
202 225 255
202 225 255
202 225 255
202 225 255
202 225 255
203 225 255
203 225 255
203 225 255
203 225 255
203 225 255
203 225 255
203 225 255
203 225 255
203 226 255
203 226 255
203 226 255
203 226 255
203 226 255
203 226 255
203 226 255
204 226 255
204 226 255
204 226 255
204 226 255
204 226 255
204 226 255
204 226 255
204 226 255
204 226 255
204 226 255
204 226 255
204 226 255
204 226 255
204 226 255
204 226 255
204 226 255
205 226 255
205 226 255
205 226 255
205 226 255
205 226 255
205 226 255
205 226 255
205 227 255
205 227 255
205 227 255
205 227 255
205 227 255
205 227 255
205 227 255
205 227 255
205 227 255
205 227 255
206 227 255
206 227 255
206 227 255
206 227 255
206 227 255
206 227 255
206 227 255
206 227 255
206 227 255
206 227 255
206 227 255
206 227 255
206 227 255
206 227 255
206 227 255
206 227 255
206 227 255
207 227 255
207 227 255
207 227 255
207 227 255
207 227 255
207 228 255
207 228 255
207 228 255
207 228 255
207 228 255
207 228 255
207 228 255
207 228 255
207 228 255
207 228 255
207 228 255
207 228 255
207 228 255
207 228 255
207 228 255
208 228 255
208 228 255
208 228 255
208 228 255
208 228 255
208 228 255
208 228 255
208 228 255
208 228 255
208 228 255
208 228 255
208 228 255
208 228 255
208 228 255
208 228 255
208 228 255
208 228 255
208 228 255
208 228 255
209 228 255
208 228 255
208 228 255
208 228 255
208 228 255
208 228 255
208 228 255
208 228 255
208 228 255
208 228 255
208 228 255
208 228 255
208 228 255
208 228 255
208 228 255
208 228 255
208 228 255
208 228 255
208 228 255
208 228 255
208 228 255
208 228 255
207 228 255
207 228 255
207 228 255
207 228 255
207 228 255
207 228 255
207 228 255
207 228 255
207 228 255
207 228 255
207 228 255
207 228 255
207 228 255
207 228 255
207 228 255
207 227 255
207 227 255
207 227 255
207 227 255
207 227 255
206 227 255
206 227 255
206 227 255
206 227 255
206 227 255
206 227 255
206 227 255
206 227 255
206 227 255
206 227 255
206 227 255
206 227 255
206 227 255
206 227 255
206 227 255
206 227 255
206 227 255
205 227 255
205 227 255
205 227 255
205 227 255
205 227 255
205 227 255
205 227 255
205 227 255
205 227 255
205 227 255
205 226 255
205 226 255
205 226 255
205 226 255
205 226 255
205 226 255
205 226 255
204 226 255
204 226 255
204 226 255
204 226 255
204 226 255
204 226 255
204 226 255
204 226 255
204 226 255
204 226 255
204 226 255
204 226 255
204 226 255
204 226 255
204 226 255
203 226 255
203 226 255
203 226 255
203 226 255
203 226 255
203 226 255
203 226 255
203 225 255
203 225 255
203 225 255
203 225 255
203 225 255
203 225 255
203 225 255
203 225 255
203 225 255
202 225 255
202 225 255
202 225 255
202 225 255
202 225 255
202 225 255
202 225 255
202 225 255
202 225 255
202 225 255
202 225 255
202 225 255
202 225 255
202 225 255
202 225 255
201 225 255
201 225 255
201 225 255
201 225 255
201 225 255
201 224 255
201 224 255
201 224 255
201 224 255
201 224 255
201 224 255
201 224 255
201 224 255
201 224 255
201 224 255
201 224 255
201 224 255
200 224 255
200 224 255
200 224 255
200 224 255
200 224 255
200 224 255
200 224 255
200 224 255
200 224 255
200 224 255
200 224 255
200 224 255
200 224 255
200 224 255
200 224 255
200 224 255
200 224 255
200 224 255
199 224 255
199 224 255
199 224 255
199 224 255
199 223 255
199 223 255
199 223 255
199 223 255
199 223 255
199 223 255
199 223 255
199 223 255
199 223 255
199 223 255
199 223 255
199 223 255
199 223 255
199 223 255
199 223 255
199 223 255
199 223 255
199 223 255
199 223 255
199 223 255
199 223 255
199 223 255
199 223 255
199 223 255
199 223 255
199 223 255
199 223 255
199 223 255
199 223 255
199 223 255
198 223 255
198 223 255
198 223 255
198 223 255
198 223 255
198 223 255
198 223 255
198 223 255
198 223 255
198 223 255
198 223 255
198 223 255
198 223 255
198 223 255
198 223 255
198 223 255
198 223 255
198 223 255
198 223 255
199 223 255
199 223 255
199 223 255
199 223 255
199 223 255
199 223 255
199 223 255
199 223 255
199 223 255
199 223 255
199 223 255
199 223 255
199 223 255
199 223 255
199 223 255
199 223 255
199 223 255
199 223 255
199 223 255
199 223 255
199 223 255
199 223 255
199 223 255
199 223 255
199 223 255
199 223 255
199 223 255
199 223 255
199 223 255
199 224 255
199 224 255
199 224 255
199 224 255
200 224 255
200 224 255
200 224 255
200 224 255
200 224 255
200 224 255
200 224 255
200 224 255
200 224 255
200 224 255
200 224 255
200 224 255
200 224 255
200 224 255
200 224 255
200 224 255
200 224 255
200 224 255
201 224 255
201 224 255
201 224 255
201 224 255
201 224 255
201 224 255
201 224 255
201 224 255
201 224 255
201 224 255
201 224 255
201 224 255
201 225 255
201 225 255
201 225 255
201 225 255
201 225 255
202 225 255
202 225 255
202 225 255
202 225 255
202 225 255
202 225 255
202 225 255
202 225 255
202 225 255
202 225 255
202 225 255
202 225 255
202 225 255
202 225 255
202 225 255
203 225 255
203 225 255
203 225 255
203 225 255
203 225 255
203 225 255
203 225 255
203 225 255
203 225 255
203 226 255
203 226 255
203 226 255
203 226 255
203 226 255
203 226 255
203 226 255
204 226 255
204 226 255
204 226 255
204 226 255
204 226 255
204 226 255
204 226 255
204 226 255
204 226 255
204 226 255
204 226 255
204 226 255
204 226 255
204 226 255
204 226 255
205 226 255
205 226 255
205 226 255
205 226 255
205 226 255
205 226 255
205 226 255
205 227 255
205 227 255
205 227 255
205 227 255
205 227 255
205 227 255
205 227 255
205 227 255
205 227 255
205 227 255
206 227 255
206 227 255
206 227 255
206 227 255
206 227 255
206 227 255
206 227 255
206 227 255
206 227 255
206 227 255
206 227 255
206 227 255
206 227 255
206 227 255
206 227 255
206 227 255
206 227 255
207 227 255
207 227 255
207 227 255
207 227 255
207 227 255
207 228 255
207 228 255
207 228 255
207 228 255
207 228 255
207 228 255
207 228 255
207 228 255
207 228 255
207 228 255
207 228 255
207 228 255
207 228 255
207 228 255
207 228 255
208 228 255
208 228 255
208 228 255
208 228 255
208 228 255
208 228 255
208 228 255
208 228 255
208 228 255
208 228 255
208 228 255
208 228 255
208 228 255
208 228 255
208 228 255
208 228 255
208 228 255
208 228 255
208 228 255
208 228 255
208 228 255
209 228 255
209 229 255
209 229 255
209 228 255
209 228 255
208 228 255
208 228 255
208 228 255
208 228 255
208 228 255
208 228 255
208 228 255
208 228 255
208 228 255
208 228 255
208 228 255
208 228 255
208 228 255
208 228 255
208 228 255
208 228 255
208 228 255
208 228 255
208 228 255
208 228 255
208 228 255
208 228 255
207 228 255
207 228 255
207 228 255
207 228 255
207 228 255
207 228 255
207 228 255
207 228 255
207 228 255
207 228 255
207 228 255
207 228 255
207 228 255
207 228 255
207 227 255
207 227 255
207 227 255
207 227 255
207 227 255
206 227 255
206 227 255
206 227 255
206 227 255
206 227 255
206 227 255
206 227 255
206 227 255
206 227 255
206 227 255
206 227 255
206 227 255
206 227 255
206 227 255
206 227 255
206 227 255
206 227 255
205 227 255
205 227 255
205 227 255
205 227 255
205 227 255
205 227 255
205 227 255
205 227 255
205 227 255
205 227 255
205 226 255
205 226 255
205 226 255
205 226 255
205 226 255
205 226 255
205 226 255
204 226 255
204 226 255
204 226 255
204 226 255
204 226 255
204 226 255
204 226 255
204 226 255
204 226 255
204 226 255
204 226 255
204 226 255
204 226 255
204 226 255
204 226 255
203 226 255
203 226 255
203 226 255
203 226 255
203 226 255
203 226 255
203 226 255
203 225 255
203 225 255
203 225 255
203 225 255
203 225 255
203 225 255
203 225 255
203 225 255
203 225 255
202 225 255
202 225 255
202 225 255
202 225 255
202 225 255
202 225 255
202 225 255
202 225 255
202 225 255
202 225 255
202 225 255
202 225 255
202 225 255
202 225 255
202 225 255
201 225 255
201 225 255
201 225 255
201 225 255
201 225 255
201 224 255
201 224 255
201 224 255
201 224 255
201 224 255
201 224 255
201 224 255
201 224 255
201 224 255
201 224 255
201 224 255
201 224 255
200 224 255
200 224 255
200 224 255
200 224 255
200 224 255
200 224 255
200 224 255
200 224 255
200 224 255
200 224 255
200 224 255
200 224 255
200 224 255
200 224 255
200 224 255
200 224 255
200 224 255
200 224 255
200 224 255
200 224 255
199 224 255
199 224 255
199 224 255
199 224 255
199 223 255
199 223 255
199 223 255
199 223 255
199 223 255
199 223 255
199 223 255
199 223 255
199 223 255
199 223 255
199 223 255
199 223 255
199 223 255
199 223 255
199 223 255
199 223 255
199 223 255
199 223 255
199 223 255
199 223 255
199 223 255
199 223 255
199 223 255
199 223 255
199 223 255
199 223 255
199 223 255
199 223 255
199 223 255
199 223 255
199 223 255
199 223 255
199 223 255
199 223 255
199 223 255
199 223 255
199 223 255
199 223 255
199 223 255
199 223 255
199 223 255
199 223 255
199 223 255
199 223 255
199 223 255
199 223 255
199 223 255
199 223 255
199 223 255
199 223 255
199 223 255
199 223 255
199 223 255
199 223 255
199 223 255
199 223 255
199 223 255
199 223 255
199 223 255
199 223 255
199 223 255
199 223 255
199 223 255
199 223 255
199 223 255
199 223 255
199 223 255
199 223 255
199 224 255
199 224 255
199 224 255
199 224 255
200 224 255
200 224 255
200 224 255
200 224 255
200 224 255
200 224 255
200 224 255
200 224 255
200 224 255
200 224 255
200 224 255
200 224 255
200 224 255
200 224 255
200 224 255
200 224 255
200 224 255
200 224 255
200 224 255
200 224 255
201 224 255
201 224 255
201 224 255
201 224 255
201 224 255
201 224 255
201 224 255
201 224 255
201 224 255
201 224 255
201 224 255
201 224 255
201 225 255
201 225 255
201 225 255
201 225 255
201 225 255
202 225 255
202 225 255
202 225 255
202 225 255
202 225 255
202 225 255
202 225 255
202 225 255
202 225 255
202 225 255
202 225 255
202 225 255
202 225 255
202 225 255
202 225 255
203 225 255
203 225 255
203 225 255
203 225 255
203 225 255
203 225 255
203 225 255
203 225 255
203 225 255
203 226 255
203 226 255
203 226 255
203 226 255
203 226 255
203 226 255
203 226 255
204 226 255
204 226 255
204 226 255
204 226 255
204 226 255
204 226 255
204 226 255
204 226 255
204 226 255
204 226 255
204 226 255
204 226 255
204 226 255
204 226 255
204 226 255
205 226 255
205 226 255
205 226 255
205 226 255
205 226 255
205 226 255
205 226 255
205 227 255
205 227 255
205 227 255
205 227 255
205 227 255
205 227 255
205 227 255
205 227 255
205 227 255
205 227 255
206 227 255
206 227 255
206 227 255
206 227 255
206 227 255
206 227 255
206 227 255
206 227 255
206 227 255
206 227 255
206 227 255
206 227 255
206 227 255
206 227 255
206 227 255
206 227 255
206 227 255
207 227 255
207 227 255
207 227 255
207 227 255
207 227 255
207 228 255
207 228 255
207 228 255
207 228 255
207 228 255
207 228 255
207 228 255
207 228 255
207 228 255
207 228 255
207 228 255
207 228 255
207 228 255
207 228 255
207 228 255
208 228 255
208 228 255
208 228 255
208 228 255
208 228 255
208 228 255
208 228 255
208 228 255
208 228 255
208 228 255
208 228 255
208 228 255
208 228 255
208 228 255
208 228 255
208 228 255
208 228 255
208 228 255
208 228 255
208 228 255
208 228 255
209 228 255
209 229 255
209 229 255
209 229 255
209 229 255
209 229 255
209 229 255
209 229 255
209 229 255
209 229 255
209 228 255
208 228 255
208 228 255
208 228 255
208 228 255
208 228 255
208 228 255
208 228 255
208 228 255
208 228 255
208 228 255
208 228 255
208 228 255
208 228 255
208 228 255
208 228 255
208 228 255
208 228 255
208 228 255
208 228 255
208 228 255
208 228 255
207 228 255
207 228 255
207 228 255
207 228 255
207 228 255
207 228 255
207 228 255
207 228 255
207 228 255
207 228 255
207 228 255
207 228 255
207 228 255
207 228 255
207 228 255
207 227 255
207 227 255
207 227 255
207 227 255
206 227 255
206 227 255
206 227 255
206 227 255
206 227 255
206 227 255
206 227 255
206 227 255
206 227 255
206 227 255
206 227 255
206 227 255
206 227 255
206 227 255
206 227 255
206 227 255
206 227 255
206 227 255
205 227 255
205 227 255
205 227 255
205 227 255
205 227 255
205 227 255
205 227 255
205 227 255
205 227 255
205 227 255
205 226 255
205 226 255
205 226 255
205 226 255
205 226 255
205 226 255
204 226 255
204 226 255
204 226 255
204 226 255
204 226 255
204 226 255
204 226 255
204 226 255
204 226 255
204 226 255
204 226 255
204 226 255
204 226 255
204 226 255
204 226 255
204 226 255
203 226 255
203 226 255
203 226 255
203 226 255
203 226 255
203 226 255
203 226 255
203 225 255
203 225 255
203 225 255
203 225 255
203 225 255
203 225 255
203 225 255
203 225 255
203 225 255
202 225 255
202 225 255
202 225 255
202 225 255
202 225 255
202 225 255
202 225 255
202 225 255
202 225 255
202 225 255
202 225 255
202 225 255
202 225 255
202 225 255
202 225 255
201 225 255
201 225 255
201 225 255
201 225 255
201 225 255
201 224 255
201 224 255
201 224 255
201 224 255
201 224 255
201 224 255
201 224 255
201 224 255
201 224 255
201 224 255
201 224 255
201 224 255
201 224 255
200 224 255
200 224 255
200 224 255
200 224 255
200 224 255
200 224 255
200 224 255
200 224 255
200 224 255
200 224 255
200 224 255
200 224 255
200 224 255
200 224 255
200 224 255
200 224 255
200 224 255
200 224 255
200 224 255
200 224 255
200 224 255
199 224 255
199 224 255
199 224 255
199 224 255
199 223 255
199 223 255
199 223 255
199 223 255
199 223 255
199 223 255
199 223 255
199 223 255
199 223 255
199 223 255
199 223 255
199 223 255
199 223 255
199 223 255
199 223 255
199 223 255
199 223 255
199 223 255
199 223 255
199 223 255
199 223 255
199 223 255
199 223 255
199 223 255
199 223 255
199 223 255
199 223 255
199 223 255
199 223 255
199 223 255
199 223 255
199 223 255
199 223 255
199 223 255
199 223 255
199 223 255
199 223 255
199 223 255
199 223 255
199 223 255
199 223 255
199 223 255
199 223 255
199 223 255
199 223 255
199 223 255
199 223 255
199 223 255
199 223 255
199 223 255
199 223 255
199 223 255
199 223 255
199 223 255
199 223 255
199 223 255
199 223 255
199 223 255
199 224 255
199 224 255
199 224 255
199 224 255
200 224 255
200 224 255
200 224 255
200 224 255
200 224 255
200 224 255
200 224 255
200 224 255
200 224 255
200 224 255
200 224 255
200 224 255
200 224 255
200 224 255
200 224 255
200 224 255
200 224 255
200 224 255
200 224 255
200 224 255
200 224 255
200 224 255
201 224 255
201 224 255
201 224 255
201 224 255
201 224 255
201 224 255
201 224 255
201 224 255
201 224 255
201 224 255
201 224 255
201 224 255
201 225 255
201 225 255
201 225 255
201 225 255
201 225 255
202 225 255
202 225 255
202 225 255
202 225 255
202 225 255
202 225 255
202 225 255
202 225 255
202 225 255
202 225 255
202 225 255
202 225 255
202 225 255
202 225 255
202 225 255
203 225 255
203 225 255
203 225 255
203 225 255
203 225 255
203 225 255
203 225 255
203 225 255
203 225 255
203 226 255
203 226 255
203 226 255
203 226 255
203 226 255
203 226 255
203 226 255
204 226 255
204 226 255
204 226 255
204 226 255
204 226 255
204 226 255
204 226 255
204 226 255
204 226 255
204 226 255
204 226 255
204 226 255
204 226 255
204 226 255
204 226 255
204 226 255
205 226 255
205 226 255
205 226 255
205 226 255
205 226 255
205 226 255
205 227 255
205 227 255
205 227 255
205 227 255
205 227 255
205 227 255
205 227 255
205 227 255
205 227 255
205 227 255
206 227 255
206 227 255
206 227 255
206 227 255
206 227 255
206 227 255
206 227 255
206 227 255
206 227 255
206 227 255
206 227 255
206 227 255
206 227 255
206 227 255
206 227 255
206 227 255
206 227 255
207 227 255
207 227 255
207 227 255
207 227 255
207 227 255
207 228 255
207 228 255
207 228 255
207 228 255
207 228 255
207 228 255
207 228 255
207 228 255
207 228 255
207 228 255
207 228 255
207 228 255
207 228 255
207 228 255
208 228 255
208 228 255
208 228 255
208 228 255
208 228 255
208 228 255
208 228 255
208 228 255
208 228 255
208 228 255
208 228 255
208 228 255
208 228 255
208 228 255
208 228 255
208 228 255
208 228 255
208 228 255
208 228 255
208 228 255
208 228 255
208 228 255
209 228 255
209 229 255
209 229 255
209 229 255
209 229 255
209 229 255
209 229 255
209 229 255
209 229 255
209 229 255
209 229 255
209 229 255
209 229 255
209 229 255
209 229 255
209 229 255
209 228 255
209 228 255
208 228 255
208 228 255
208 228 255
208 228 255
208 228 255
208 228 255
208 228 255
208 228 255
208 228 255
208 228 255
208 228 255
208 228 255
208 228 255
208 228 255
208 228 255
208 228 255
208 228 255
208 228 255
208 228 255
208 228 255
208 228 255
207 228 255
207 228 255
207 228 255
207 228 255
207 228 255
207 228 255
207 228 255
207 228 255
207 228 255
207 228 255
207 228 255
207 228 255
207 228 255
207 228 255
207 227 255
207 227 255
207 227 255
207 227 255
206 227 255
206 227 255
206 227 255
206 227 255
206 227 255
206 227 255
206 227 255
206 227 255
206 227 255
206 227 255
206 227 255
206 227 255
206 227 255
206 227 255
206 227 255
206 227 255
206 227 255
206 227 255
205 227 255
205 227 255
205 227 255
205 227 255
205 227 255
205 227 255
205 227 255
205 227 255
205 227 255
205 227 255
205 226 255
205 226 255
205 226 255
205 226 255
205 226 255
205 226 255
204 226 255
204 226 255
204 226 255
204 226 255
204 226 255
204 226 255
204 226 255
204 226 255
204 226 255
204 226 255
204 226 255
204 226 255
204 226 255
204 226 255
204 226 255
204 226 255
203 226 255
203 226 255
203 226 255
203 226 255
203 226 255
203 226 255
203 226 255
203 225 255
203 225 255
203 225 255
203 225 255
203 225 255
203 225 255
203 225 255
203 225 255
203 225 255
202 225 255
202 225 255
202 225 255
202 225 255
202 225 255
202 225 255
202 225 255
202 225 255
202 225 255
202 225 255
202 225 255
202 225 255
202 225 255
202 225 255
202 225 255
201 225 255
201 225 255
201 225 255
201 225 255
201 225 255
201 224 255
201 224 255
201 224 255
201 224 255
201 224 255
201 224 255
201 224 255
201 224 255
201 224 255
201 224 255
201 224 255
201 224 255
201 224 255
200 224 255
200 224 255
200 224 255
200 224 255
200 224 255
200 224 255
200 224 255
200 224 255
200 224 255
200 224 255
200 224 255
200 224 255
200 224 255
200 224 255
200 224 255
200 224 255
200 224 255
200 224 255
200 224 255
200 224 255
200 224 255
200 224 255
200 224 255
200 224 255
199 224 255
199 224 255
199 224 255
199 224 255
199 224 255
199 223 255
199 223 255
199 223 255
199 223 255
199 223 255
199 223 255
199 223 255
199 223 255
199 223 255
199 223 255
199 223 255
199 223 255
199 223 255
199 223 255
199 223 255
199 223 255
199 223 255
199 223 255
199 223 255
199 223 255
199 223 255
199 223 255
199 223 255
199 223 255
199 223 255
199 223 255
199 223 255
199 223 255
199 223 255
199 223 255
199 223 255
199 223 255
199 223 255
199 223 255
199 223 255
199 223 255
199 223 255
199 223 255
199 223 255
199 223 255
199 223 255
199 223 255
199 223 255
199 223 255
199 224 255
199 224 255
199 224 255
199 224 255
199 224 255
200 224 255
200 224 255
200 224 255
200 224 255
200 224 255
200 224 255
200 224 255
200 224 255
200 224 255
200 224 255
200 224 255
200 224 255
200 224 255
200 224 255
200 224 255
200 224 255
200 224 255
200 224 255
200 224 255
200 224 255
200 224 255
200 224 255
200 224 255
200 224 255
201 224 255
201 224 255
201 224 255
201 224 255
201 224 255
201 224 255
201 224 255
201 224 255
201 224 255
201 224 255
201 224 255
201 224 255
201 224 255
201 225 255
201 225 255
201 225 255
201 225 255
201 225 255
202 225 255
202 225 255
202 225 255
202 225 255
202 225 255
202 225 255
202 225 255
202 225 255
202 225 255
202 225 255
202 225 255
202 225 255
202 225 255
202 225 255
202 225 255
202 225 255
203 225 255
203 225 255
203 225 255
203 225 255
203 225 255
203 225 255
203 225 255
203 225 255
203 226 255
203 226 255
203 226 255
203 226 255
203 226 255
203 226 255
203 226 255
204 226 255
204 226 255
204 226 255
204 226 255
204 226 255
204 226 255
204 226 255
204 226 255
204 226 255
204 226 255
204 226 255
204 226 255
204 226 255
204 226 255
204 226 255
204 226 255
205 226 255
205 226 255
205 226 255
205 226 255
205 226 255
205 226 255
205 227 255
205 227 255
205 227 255
205 227 255
205 227 255
205 227 255
205 227 255
205 227 255
205 227 255
205 227 255
206 227 255
206 227 255
206 227 255
206 227 255
206 227 255
206 227 255
206 227 255
206 227 255
206 227 255
206 227 255
206 227 255
206 227 255
206 227 255
206 227 255
206 227 255
206 227 255
206 227 255
206 227 255
207 227 255
207 227 255
207 227 255
207 227 255
207 228 255
207 228 255
207 228 255
207 228 255
207 228 255
207 228 255
207 228 255
207 228 255
207 228 255
207 228 255
207 228 255
207 228 255
207 228 255
207 228 255
208 228 255
208 228 255
208 228 255
208 228 255
208 228 255
208 228 255
208 228 255
208 228 255
208 228 255
208 228 255
208 228 255
208 228 255
208 228 255
208 228 255
208 228 255
208 228 255
208 228 255
208 228 255
208 228 255
208 228 255
208 228 255
209 228 255
209 228 255
209 229 255
209 229 255
209 229 255
209 229 255
209 229 255
209 229 255
209 229 255
209 229 255
209 229 255
209 229 255
209 229 255
209 229 255
209 229 255
209 229 255
209 229 255
209 229 255
209 229 255
209 229 255
209 229 255
209 229 255
209 229 255
209 228 255
209 228 255
208 228 255
208 228 255
208 228 255
208 228 255
208 228 255
208 228 255
208 228 255
208 228 255
208 228 255
208 228 255
208 228 255
208 228 255
208 228 255
208 228 255
208 228 255
208 228 255
208 228 255
208 228 255
208 228 255
208 228 255
208 228 255
207 228 255
207 228 255
207 228 255
207 228 255
207 228 255
207 228 255
207 228 255
207 228 255
207 228 255
207 228 255
207 228 255
207 228 255
207 228 255
207 228 255
207 227 255
207 227 255
207 227 255
207 227 255
206 227 255
206 227 255
206 227 255
206 227 255
206 227 255
206 227 255
206 227 255
206 227 255
206 227 255
206 227 255
206 227 255
206 227 255
206 227 255
206 227 255
206 227 255
206 227 255
206 227 255
206 227 255
205 227 255
205 227 255
205 227 255
205 227 255
205 227 255
205 227 255
205 227 255
205 227 255
205 227 255
205 227 255
205 226 255
205 226 255
205 226 255
205 226 255
205 226 255
205 226 255
204 226 255
204 226 255
204 226 255
204 226 255
204 226 255
204 226 255
204 226 255
204 226 255
204 226 255
204 226 255
204 226 255
204 226 255
204 226 255
204 226 255
204 226 255
204 226 255
203 226 255
203 226 255
203 226 255
203 226 255
203 226 255
203 226 255
203 226 255
203 225 255
203 225 255
203 225 255
203 225 255
203 225 255
203 225 255
203 225 255
203 225 255
203 225 255
202 225 255
202 225 255
202 225 255
202 225 255
202 225 255
202 225 255
202 225 255
202 225 255
202 225 255
202 225 255
202 225 255
202 225 255
202 225 255
202 225 255
202 225 255
202 225 255
201 225 255
201 225 255
201 225 255
201 225 255
201 225 255
201 224 255
201 224 255
201 224 255
201 224 255
201 224 255
201 224 255
201 224 255
201 224 255
201 224 255
201 224 255
201 224 255
201 224 255
201 224 255
200 224 255
200 224 255
200 224 255
200 224 255
200 224 255
200 224 255
200 224 255
200 224 255
200 224 255
200 224 255
200 224 255
200 224 255
200 224 255
200 224 255
200 224 255
200 224 255
200 224 255
200 224 255
200 224 255
200 224 255
200 224 255
200 224 255
200 224 255
200 224 255
200 224 255
200 224 255
200 224 255
199 224 255
199 224 255
199 224 255
199 224 255
199 224 255
199 224 255
199 224 255
199 223 255
199 223 255
199 223 255
199 223 255
199 223 255
199 223 255
199 223 255
199 223 255
199 223 255
199 223 255
199 223 255
199 223 255
199 223 255
199 223 255
199 223 255
199 223 255
199 223 255
199 223 255
199 223 255
199 223 255
199 223 255
199 223 255
199 223 255
199 223 255
199 223 255
199 224 255
199 224 255
199 224 255
199 224 255
199 224 255
199 224 255
199 224 255
199 224 255
199 224 255
200 224 255
200 224 255
200 224 255
200 224 255
200 224 255
200 224 255
200 224 255
200 224 255
200 224 255
200 224 255
200 224 255
200 224 255
200 224 255
200 224 255
200 224 255
200 224 255
200 224 255
200 224 255
200 224 255
200 224 255
200 224 255
200 224 255
200 224 255
200 224 255
200 224 255
200 224 255
201 224 255
201 224 255
201 224 255
201 224 255
201 224 255
201 224 255
201 224 255
201 224 255
201 224 255
201 224 255
201 224 255
201 224 255
201 224 255
201 225 255
201 225 255
201 225 255
201 225 255
201 225 255
202 225 255
202 225 255
202 225 255
202 225 255
202 225 255
202 225 255
202 225 255
202 225 255
202 225 255
202 225 255
202 225 255
202 225 255
202 225 255
202 225 255
202 225 255
202 225 255
202 225 255
203 225 255
203 225 255
203 225 255
203 225 255
203 225 255
203 225 255
203 225 255
203 225 255
203 226 255
203 226 255
203 226 255
203 226 255
203 226 255
203 226 255
203 226 255
204 226 255
204 226 255
204 226 255
204 226 255
204 226 255
204 226 255
204 226 255
204 226 255
204 226 255
204 226 255
204 226 255
204 226 255
204 226 255
204 226 255
204 226 255
204 226 255
205 226 255
205 226 255
205 226 255
205 226 255
205 226 255
205 226 255
205 227 255
205 227 255
205 227 255
205 227 255
205 227 255
205 227 255
205 227 255
205 227 255
205 227 255
205 227 255
206 227 255
206 227 255
206 227 255
206 227 255
206 227 255
206 227 255
206 227 255
206 227 255
206 227 255
206 227 255
206 227 255
206 227 255
206 227 255
206 227 255
206 227 255
206 227 255
206 227 255
207 227 255
207 227 255
207 227 255
207 227 255
207 227 255
207 228 255
207 228 255
207 228 255
207 228 255
207 228 255
207 228 255
207 228 255
207 228 255
207 228 255
207 228 255
207 228 255
207 228 255
207 228 255
207 228 255
208 228 255
208 228 255
208 228 255
208 228 255
208 228 255
208 228 255
208 228 255
208 228 255
208 228 255
208 228 255
208 228 255
208 228 255
208 228 255
208 228 255
208 228 255
208 228 255
208 228 255
208 228 255
208 228 255
208 228 255
208 228 255
209 228 255
209 229 255
209 229 255
209 229 255
209 229 255
209 229 255
209 229 255
209 229 255
209 229 255
209 229 255
209 229 255
209 229 255
209 229 255
209 229 255
209 229 255
209 229 255
209 229 255
209 229 255
209 229 255
209 229 255
209 229 255
209 229 255
209 229 255
209 229 255
209 229 255
209 229 255
209 229 255
209 229 255
209 229 255
209 229 255
209 228 255
208 228 255
208 228 255
208 228 255
208 228 255
208 228 255
208 228 255
208 228 255
208 228 255
208 228 255
208 228 255
208 228 255
208 228 255
208 228 255
208 228 255
208 228 255
208 228 255
208 228 255
208 228 255
208 228 255
208 228 255
208 228 255
207 228 255
207 228 255
207 228 255
207 228 255
207 228 255
207 228 255
207 228 255
207 228 255
207 228 255
207 228 255
207 228 255
207 228 255
207 228 255
207 228 255
207 227 255
207 227 255
207 227 255
207 227 255
207 227 255
206 227 255
206 227 255
206 227 255
206 227 255
206 227 255
206 227 255
206 227 255
206 227 255
206 227 255
206 227 255
206 227 255
206 227 255
206 227 255
206 227 255
206 227 255
206 227 255
206 227 255
205 227 255
205 227 255
205 227 255
205 227 255
205 227 255
205 227 255
205 227 255
205 227 255
205 227 255
205 227 255
205 226 255
205 226 255
205 226 255
205 226 255
205 226 255
205 226 255
204 226 255
204 226 255
204 226 255
204 226 255
204 226 255
204 226 255
204 226 255
204 226 255
204 226 255
204 226 255
204 226 255
204 226 255
204 226 255
204 226 255
204 226 255
204 226 255
203 226 255
203 226 255
203 226 255
203 226 255
203 226 255
203 226 255
203 226 255
203 225 255
203 225 255
203 225 255
203 225 255
203 225 255
203 225 255
203 225 255
203 225 255
203 225 255
202 225 255
202 225 255
202 225 255
202 225 255
202 225 255
202 225 255
202 225 255
202 225 255
202 225 255
202 225 255
202 225 255
202 225 255
202 225 255
202 225 255
202 225 255
202 225 255
201 225 255
201 225 255
201 225 255
201 225 255
201 225 255
201 225 255
201 224 255
201 224 255
201 224 255
201 224 255
201 224 255
201 224 255
201 224 255
201 224 255
201 224 255
201 224 255
201 224 255
201 224 255
201 224 255
200 224 255
200 224 255
200 224 255
200 224 255
200 224 255
200 224 255
200 224 255
200 224 255
200 224 255
200 224 255
200 224 255
200 224 255
200 224 255
200 224 255
200 224 255
200 224 255
200 224 255
200 224 255
200 224 255
200 224 255
200 224 255
200 224 255
200 224 255
200 224 255
200 224 255
200 224 255
200 224 255
200 224 255
200 224 255
200 224 255
200 224 255
200 224 255
200 224 255
200 224 255
199 224 255
199 224 255
199 224 255
199 224 255
199 224 255
199 224 255
199 224 255
199 224 255
199 224 255
199 224 255
199 224 255
199 224 255
199 224 255
199 224 255
199 224 255
199 224 255
199 224 255
199 224 255
199 224 255
200 224 255
200 224 255
200 224 255
200 224 255
200 224 255
200 224 255
200 224 255
200 224 255
200 224 255
200 224 255
200 224 255
200 224 255
200 224 255
200 224 255
200 224 255
200 224 255
200 224 255
200 224 255
200 224 255
200 224 255
200 224 255
200 224 255
200 224 255
200 224 255
200 224 255
200 224 255
200 224 255
200 224 255
200 224 255
200 224 255
200 224 255
200 224 255
200 224 255
201 224 255
201 224 255
201 224 255
201 224 255
201 224 255
201 224 255
201 224 255
201 224 255
201 224 255
201 224 255
201 224 255
201 224 255
201 224 255
201 224 255
201 225 255
201 225 255
201 225 255
201 225 255
201 225 255
202 225 255
202 225 255
202 225 255
202 225 255
202 225 255
202 225 255
202 225 255
202 225 255
202 225 255
202 225 255
202 225 255
202 225 255
202 225 255
202 225 255
202 225 255
202 225 255
203 225 255
203 225 255
203 225 255
203 225 255
203 225 255
203 225 255
203 225 255
203 225 255
203 225 255
203 226 255
203 226 255
203 226 255
203 226 255
203 226 255
203 226 255
203 226 255
204 226 255
204 226 255
204 226 255
204 226 255
204 226 255
204 226 255
204 226 255
204 226 255
204 226 255
204 226 255
204 226 255
204 226 255
204 226 255
204 226 255
204 226 255
204 226 255
205 226 255
205 226 255
205 226 255
205 226 255
205 226 255
205 226 255
205 227 255
205 227 255
205 227 255
205 227 255
205 227 255
205 227 255
205 227 255
205 227 255
205 227 255
205 227 255
206 227 255
206 227 255
206 227 255
206 227 255
206 227 255
206 227 255
206 227 255
206 227 255
206 227 255
206 227 255
206 227 255
206 227 255
206 227 255
206 227 255
206 227 255
206 227 255
206 227 255
206 227 255
207 227 255
207 227 255
207 227 255
207 227 255
207 228 255
207 228 255
207 228 255
207 228 255
207 228 255
207 228 255
207 228 255
207 228 255
207 228 255
207 228 255
207 228 255
207 228 255
207 228 255
207 228 255
208 228 255
208 228 255
208 228 255
208 228 255
208 228 255
208 228 255
208 228 255
208 228 255
208 228 255
208 228 255
208 228 255
208 228 255
208 228 255
208 228 255
208 228 255
208 228 255
208 228 255
208 228 255
208 228 255
208 228 255
208 228 255
209 228 255
209 229 255
209 229 255
209 229 255
209 229 255
209 229 255
209 229 255
209 229 255
209 229 255
209 229 255
209 229 255
209 229 255
209 229 255
209 229 255
209 229 255
209 229 255
209 229 255
209 229 255
209 229 255
209 229 255
209 229 255
209 229 255
209 229 255
209 229 255
209 229 255
209 229 255
209 229 255
209 229 255
209 229 255
209 229 255
209 229 255
209 229 255
209 229 255
209 229 255
209 229 255
209 229 255
209 228 255
208 228 255
208 228 255
208 228 255
208 228 255
208 228 255
208 228 255
208 228 255
208 228 255
208 228 255
208 228 255
208 228 255
208 228 255
208 228 255
208 228 255
208 228 255
208 228 255
208 228 255
208 228 255
208 228 255
208 228 255
208 228 255
207 228 255
207 228 255
207 228 255
207 228 255
207 228 255
207 228 255
207 228 255
207 228 255
207 228 255
207 228 255
207 228 255
207 228 255
207 228 255
207 228 255
207 227 255
207 227 255
207 227 255
207 227 255
206 227 255
206 227 255
206 227 255
206 227 255
206 227 255
206 227 255
206 227 255
206 227 255
206 227 255
206 227 255
206 227 255
206 227 255
206 227 255
206 227 255
206 227 255
206 227 255
206 227 255
206 227 255
205 227 255
205 227 255
205 227 255
205 227 255
205 227 255
205 227 255
205 227 255
205 227 255
205 227 255
205 227 255
205 226 255
205 226 255
205 226 255
205 226 255
205 226 255
205 226 255
204 226 255
204 226 255
204 226 255
204 226 255
204 226 255
204 226 255
204 226 255
204 226 255
204 226 255
204 226 255
204 226 255
204 226 255
204 226 255
204 226 255
204 226 255
204 226 255
203 226 255
203 226 255
203 226 255
203 226 255
203 226 255
203 226 255
203 226 255
203 225 255
203 225 255
203 225 255
203 225 255
203 225 255
203 225 255
203 225 255
203 225 255
203 225 255
202 225 255
202 225 255
202 225 255
202 225 255
202 225 255
202 225 255
202 225 255
202 225 255
202 225 255
202 225 255
202 225 255
202 225 255
202 225 255
202 225 255
202 225 255
202 225 255
202 225 255
201 225 255
201 225 255
201 225 255
201 225 255
201 225 255
201 224 255
201 224 255
201 224 255
201 224 255
201 224 255
201 224 255
201 224 255
201 224 255
201 224 255
201 224 255
201 224 255
201 224 255
201 224 255
201 224 255
201 224 255
200 224 255
200 224 255
200 224 255
200 224 255
200 224 255
200 224 255
200 224 255
200 224 255
200 224 255
200 224 255
200 224 255
200 224 255
200 224 255
200 224 255
200 224 255
200 224 255
200 224 255
200 224 255
200 224 255
200 224 255
200 224 255
200 224 255
200 224 255
200 224 255
200 224 255
200 224 255
200 224 255
200 224 255
200 224 255
200 224 255
200 224 255
200 224 255
200 224 255
200 224 255
200 224 255
200 224 255
200 224 255
200 224 255
200 224 255
200 224 255
200 224 255
200 224 255
200 224 255
200 224 255
200 224 255
200 224 255
200 224 255
200 224 255
200 224 255
200 224 255
200 224 255
200 224 255
200 224 255
200 224 255
200 224 255
200 224 255
200 224 255
200 224 255
200 224 255
200 224 255
200 224 255
200 224 255
200 224 255
200 224 255
200 224 255
200 224 255
200 224 255
200 224 255
200 224 255
200 224 255
200 224 255
200 224 255
200 224 255
200 224 255
200 224 255
200 224 255
201 224 255
201 224 255
201 224 255
201 224 255
201 224 255
201 224 255
201 224 255
201 224 255
201 224 255
201 224 255
201 224 255
201 224 255
201 224 255
201 224 255
201 224 255
201 225 255
201 225 255
201 225 255
201 225 255
201 225 255
202 225 255
202 225 255
202 225 255
202 225 255
202 225 255
202 225 255
202 225 255
202 225 255
202 225 255
202 225 255
202 225 255
202 225 255
202 225 255
202 225 255
202 225 255
202 225 255
202 225 255
203 225 255
203 225 255
203 225 255
203 225 255
203 225 255
203 225 255
203 225 255
203 225 255
203 225 255
203 226 255
203 226 255
203 226 255
203 226 255
203 226 255
203 226 255
203 226 255
204 226 255
204 226 255
204 226 255
204 226 255
204 226 255
204 226 255
204 226 255
204 226 255
204 226 255
204 226 255
204 226 255
204 226 255
204 226 255
204 226 255
204 226 255
204 226 255
205 226 255
205 226 255
205 226 255
205 226 255
205 226 255
205 226 255
205 226 255
205 227 255
205 227 255
205 227 255
205 227 255
205 227 255
205 227 255
205 227 255
205 227 255
205 227 255
206 227 255
206 227 255
206 227 255
206 227 255
206 227 255
206 227 255
206 227 255
206 227 255
206 227 255
206 227 255
206 227 255
206 227 255
206 227 255
206 227 255
206 227 255
206 227 255
206 227 255
207 227 255
207 227 255
207 227 255
207 227 255
207 227 255
207 228 255
207 228 255
207 228 255
207 228 255
207 228 255
207 228 255
207 228 255
207 228 255
207 228 255
207 228 255
207 228 255
207 228 255
207 228 255
207 228 255
208 228 255
208 228 255
208 228 255
208 228 255
208 228 255
208 228 255
208 228 255
208 228 255
208 228 255
208 228 255
208 228 255
208 228 255
208 228 255
208 228 255
208 228 255
208 228 255
208 228 255
208 228 255
208 228 255
208 228 255
209 228 255
209 228 255
209 229 255
209 229 255
209 229 255
209 229 255
209 229 255
209 229 255
209 229 255
209 229 255
209 229 255
209 229 255
209 229 255
209 229 255
209 229 255
209 229 255
209 229 255
209 229 255
209 229 255
209 229 255
209 229 255
210 229 255
209 229 255
209 229 255
209 229 255
209 229 255
209 229 255
209 229 255
209 229 255
209 229 255
209 229 255
209 229 255
209 229 255
209 229 255
209 229 255
209 229 255
209 229 255
209 229 255
209 229 255
209 229 255
209 229 255
209 229 255
209 229 255
209 228 255
209 228 255
208 228 255
208 228 255
208 228 255
208 228 255
208 228 255
208 228 255
208 228 255
208 228 255
208 228 255
208 228 255
208 228 255
208 228 255
208 228 255
208 228 255
208 228 255
208 228 255
208 228 255
208 228 255
208 228 255
208 228 255
207 228 255
207 228 255
207 228 255
207 228 255
207 228 255
207 228 255
207 228 255
207 228 255
207 228 255
207 228 255
207 228 255
207 228 255
207 228 255
207 228 255
207 227 255
207 227 255
207 227 255
207 227 255
207 227 255
206 227 255
206 227 255
206 227 255
206 227 255
206 227 255
206 227 255
206 227 255
206 227 255
206 227 255
206 227 255
206 227 255
206 227 255
206 227 255
206 227 255
206 227 255
206 227 255
206 227 255
205 227 255
205 227 255
205 227 255
205 227 255
205 227 255
205 227 255
205 227 255
205 227 255
205 227 255
205 227 255
205 226 255
205 226 255
205 226 255
205 226 255
205 226 255
205 226 255
204 226 255
204 226 255
204 226 255
204 226 255
204 226 255
204 226 255
204 226 255
204 226 255
204 226 255
204 226 255
204 226 255
204 226 255
204 226 255
204 226 255
204 226 255
204 226 255
203 226 255
203 226 255
203 226 255
203 226 255
203 226 255
203 226 255
203 226 255
203 225 255
203 225 255
203 225 255
203 225 255
203 225 255
203 225 255
203 225 255
203 225 255
203 225 255
202 225 255
202 225 255
202 225 255
202 225 255
202 225 255
202 225 255
202 225 255
202 225 255
202 225 255
202 225 255
202 225 255
202 225 255
202 225 255
202 225 255
202 225 255
202 225 255
202 225 255
202 225 255
201 225 255
201 225 255
201 225 255
201 225 255
201 225 255
201 224 255
201 224 255
201 224 255
201 224 255
201 224 255
201 224 255
201 224 255
201 224 255
201 224 255
201 224 255
201 224 255
201 224 255
201 224 255
201 224 255
201 224 255
201 224 255
200 224 255
200 224 255
200 224 255
200 224 255
200 224 255
200 224 255
200 224 255
200 224 255
200 224 255
200 224 255
200 224 255
200 224 255
200 224 255
200 224 255
200 224 255
200 224 255
200 224 255
200 224 255
200 224 255
200 224 255
200 224 255
200 224 255
200 224 255
200 224 255
200 224 255
200 224 255
200 224 255
200 224 255
200 224 255
200 224 255
200 224 255
200 224 255
200 224 255
200 224 255
200 224 255
200 224 255
200 224 255
200 224 255
200 224 255
200 224 255
200 224 255
200 224 255
200 224 255
200 224 255
200 224 255
200 224 255
200 224 255
200 224 255
200 224 255
200 224 255
200 224 255
200 224 255
200 224 255
200 224 255
200 224 255
200 224 255
200 224 255
200 224 255
200 224 255
200 224 255
200 224 255
200 224 255
200 224 255
200 224 255
200 224 255
200 224 255
201 224 255
201 224 255
201 224 255
201 224 255
201 224 255
201 224 255
201 224 255
201 224 255
201 224 255
201 224 255
201 224 255
201 224 255
201 224 255
201 224 255
201 224 255
201 224 255
201 225 255
201 225 255
201 225 255
201 225 255
201 225 255
201 225 255
202 225 255
202 225 255
202 225 255
202 225 255
202 225 255
202 225 255
202 225 255
202 225 255
202 225 255
202 225 255
202 225 255
202 225 255
202 225 255
202 225 255
202 225 255
202 225 255
202 225 255
203 225 255
203 225 255
203 225 255
203 225 255
203 225 255
203 225 255
203 225 255
203 225 255
203 225 255
203 226 255
203 226 255
203 226 255
203 226 255
203 226 255
203 226 255
203 226 255
204 226 255
204 226 255
204 226 255
204 226 255
204 226 255
204 226 255
204 226 255
204 226 255
204 226 255
204 226 255
204 226 255
204 226 255
204 226 255
204 226 255
204 226 255
204 226 255
205 226 255
205 226 255
205 226 255
205 226 255
205 226 255
205 226 255
205 227 255
205 227 255
205 227 255
205 227 255
205 227 255
205 227 255
205 227 255
205 227 255
205 227 255
205 227 255
206 227 255
206 227 255
206 227 255
206 227 255
206 227 255
206 227 255
206 227 255
206 227 255
206 227 255
206 227 255
206 227 255
206 227 255
206 227 255
206 227 255
206 227 255
206 227 255
206 227 255
207 227 255
207 227 255
207 227 255
207 227 255
207 227 255
207 228 255
207 228 255
207 228 255
207 228 255
207 228 255
207 228 255
207 228 255
207 228 255
207 228 255
207 228 255
207 228 255
207 228 255
207 228 255
207 228 255
208 228 255
208 228 255
208 228 255
208 228 255
208 228 255
208 228 255
208 228 255
208 228 255
208 228 255
208 228 255
208 228 255
208 228 255
208 228 255
208 228 255
208 228 255
208 228 255
208 228 255
208 228 255
208 228 255
208 228 255
209 228 255
209 228 255
209 229 255
209 229 255
209 229 255
209 229 255
209 229 255
209 229 255
209 229 255
209 229 255
209 229 255
209 229 255
209 229 255
209 229 255
209 229 255
209 229 255
209 229 255
209 229 255
209 229 255
209 229 255
209 229 255
209 229 255
209 229 255
210 229 255
210 229 255
210 229 255
210 229 255
210 229 255
210 229 255
209 229 255
209 229 255
209 229 255
209 229 255
209 229 255
209 229 255
209 229 255
209 229 255
209 229 255
209 229 255
209 229 255
209 229 255
209 229 255
209 229 255
209 229 255
209 229 255
209 229 255
209 229 255
209 229 255
209 229 255
209 229 255
209 228 255
209 228 255
208 228 255
208 228 255
208 228 255
208 228 255
208 228 255
208 228 255
208 228 255
208 228 255
208 228 255
208 228 255
208 228 255
208 228 255
208 228 255
208 228 255
208 228 255
208 228 255
208 228 255
208 228 255
208 228 255
207 228 255
207 228 255
207 228 255
207 228 255
207 228 255
207 228 255
207 228 255
207 228 255
207 228 255
207 228 255
207 228 255
207 228 255
207 228 255
207 228 255
207 228 255
207 227 255
207 227 255
207 227 255
207 227 255
206 227 255
206 227 255
206 227 255
206 227 255
206 227 255
206 227 255
206 227 255
206 227 255
206 227 255
206 227 255
206 227 255
206 227 255
206 227 255
206 227 255
206 227 255
206 227 255
206 227 255
205 227 255
205 227 255
205 227 255
205 227 255
205 227 255
205 227 255
205 227 255
205 227 255
205 227 255
205 227 255
205 226 255
205 226 255
205 226 255
205 226 255
205 226 255
205 226 255
204 226 255
204 226 255
204 226 255
204 226 255
204 226 255
204 226 255
204 226 255
204 226 255
204 226 255
204 226 255
204 226 255
204 226 255
204 226 255
204 226 255
204 226 255
204 226 255
203 226 255
203 226 255
203 226 255
203 226 255
203 226 255
203 226 255
203 226 255
203 225 255
203 225 255
203 225 255
203 225 255
203 225 255
203 225 255
203 225 255
203 225 255
203 225 255
203 225 255
202 225 255
202 225 255
202 225 255
202 225 255
202 225 255
202 225 255
202 225 255
202 225 255
202 225 255
202 225 255
202 225 255
202 225 255
202 225 255
202 225 255
202 225 255
202 225 255
202 225 255
202 225 255
201 225 255
201 225 255
201 225 255
201 225 255
201 225 255
201 225 255
201 224 255
201 224 255
201 224 255
201 224 255
201 224 255
201 224 255
201 224 255
201 224 255
201 224 255
201 224 255
201 224 255
201 224 255
201 224 255
201 224 255
201 224 255
201 224 255
201 224 255
201 224 255
200 224 255
200 224 255
200 224 255
200 224 255
200 224 255
200 224 255
200 224 255
200 224 255
200 224 255
200 224 255
200 224 255
200 224 255
200 224 255
200 224 255
200 224 255
200 224 255
200 224 255
200 224 255
200 224 255
200 224 255
200 224 255
200 224 255
200 224 255
200 224 255
200 224 255
200 224 255
200 224 255
200 224 255
200 224 255
200 224 255
200 224 255
200 224 255
200 224 255
200 224 255
200 224 255
200 224 255
200 224 255
200 224 255
200 224 255
200 224 255
200 224 255
200 224 255
200 224 255
200 224 255
200 224 255
200 224 255
200 224 255
200 224 255
200 224 255
200 224 255
200 224 255
200 224 255
200 224 255
201 224 255
201 224 255
201 224 255
201 224 255
201 224 255
201 224 255
201 224 255
201 224 255
201 224 255
201 224 255
201 224 255
201 224 255
201 224 255
201 224 255
201 224 255
201 224 255
201 224 255
201 225 255
201 225 255
201 225 255
201 225 255
201 225 255
201 225 255
202 225 255
202 225 255
202 225 255
202 225 255
202 225 255
202 225 255
202 225 255
202 225 255
202 225 255
202 225 255
202 225 255
202 225 255
202 225 255
202 225 255
202 225 255
202 225 255
202 225 255
202 225 255
203 225 255
203 225 255
203 225 255
203 225 255
203 225 255
203 225 255
203 225 255
203 225 255
203 225 255
203 225 255
203 226 255
203 226 255
203 226 255
203 226 255
203 226 255
203 226 255
203 226 255
204 226 255
204 226 255
204 226 255
204 226 255
204 226 255
204 226 255
204 226 255
204 226 255
204 226 255
204 226 255
204 226 255
204 226 255
204 226 255
204 226 255
204 226 255
204 226 255
205 226 255
205 226 255
205 226 255
205 226 255
205 226 255
205 226 255
205 226 255
205 227 255
205 227 255
205 227 255
205 227 255
205 227 255
205 227 255
205 227 255
205 227 255
205 227 255
206 227 255
206 227 255
206 227 255
206 227 255
206 227 255
206 227 255
206 227 255
206 227 255
206 227 255
206 227 255
206 227 255
206 227 255
206 227 255
206 227 255
206 227 255
206 227 255
206 227 255
207 227 255
207 227 255
207 227 255
207 227 255
207 227 255
207 228 255
207 228 255
207 228 255
207 228 255
207 228 255
207 228 255
207 228 255
207 228 255
207 228 255
207 228 255
207 228 255
207 228 255
207 228 255
207 228 255
208 228 255
208 228 255
208 228 255
208 228 255
208 228 255
208 228 255
208 228 255
208 228 255
208 228 255
208 228 255
208 228 255
208 228 255
208 228 255
208 228 255
208 228 255
208 228 255
208 228 255
208 228 255
208 228 255
208 228 255
209 228 255
209 229 255
209 229 255
209 229 255
209 229 255
209 229 255
209 229 255
209 229 255
209 229 255
209 229 255
209 229 255
209 229 255
209 229 255
209 229 255
209 229 255
209 229 255
209 229 255
209 229 255
209 229 255
209 229 255
209 229 255
209 229 255
210 229 255
210 229 255
210 229 255
210 229 255
210 229 255
210 229 255
210 229 255
210 229 255
210 229 255
210 229 255
210 229 255
210 229 255
210 229 255
209 229 255
209 229 255
209 229 255
209 229 255
209 229 255
209 229 255
209 229 255
209 229 255
209 229 255
209 229 255
209 229 255
209 229 255
209 229 255
209 229 255
209 229 255
209 229 255
209 229 255
209 229 255
209 229 255
209 229 255
209 229 255
209 228 255
209 228 255
208 228 255
208 228 255
208 228 255
208 228 255
208 228 255
208 228 255
208 228 255
208 228 255
208 228 255
208 228 255
208 228 255
208 228 255
208 228 255
208 228 255
208 228 255
208 228 255
208 228 255
208 228 255
208 228 255
208 228 255
207 228 255
207 228 255
207 228 255
207 228 255
207 228 255
207 228 255
207 228 255
207 228 255
207 228 255
207 228 255
207 228 255
207 228 255
207 228 255
207 228 255
207 227 255
207 227 255
207 227 255
207 227 255
206 227 255
206 227 255
206 227 255
206 227 255
206 227 255
206 227 255
206 227 255
206 227 255
206 227 255
206 227 255
206 227 255
206 227 255
206 227 255
206 227 255
206 227 255
206 227 255
206 227 255
205 227 255
205 227 255
205 227 255
205 227 255
205 227 255
205 227 255
205 227 255
205 227 255
205 227 255
205 227 255
205 226 255
205 226 255
205 226 255
205 226 255
205 226 255
205 226 255
204 226 255
204 226 255
204 226 255
204 226 255
204 226 255
204 226 255
204 226 255
204 226 255
204 226 255
204 226 255
204 226 255
204 226 255
204 226 255
204 226 255
204 226 255
204 226 255
203 226 255
203 226 255
203 226 255
203 226 255
203 226 255
203 226 255
203 226 255
203 226 255
203 225 255
203 225 255
203 225 255
203 225 255
203 225 255
203 225 255
203 225 255
203 225 255
203 225 255
202 225 255
202 225 255
202 225 255
202 225 255
202 225 255
202 225 255
202 225 255
202 225 255
202 225 255
202 225 255
202 225 255
202 225 255
202 225 255
202 225 255
202 225 255
202 225 255
202 225 255
202 225 255
202 225 255
201 225 255
201 225 255
201 225 255
201 225 255
201 225 255
201 225 255
201 224 255
201 224 255
201 224 255
201 224 255
201 224 255
201 224 255
201 224 255
201 224 255
201 224 255
201 224 255
201 224 255
201 224 255
201 224 255
201 224 255
201 224 255
201 224 255
201 224 255
201 224 255
201 224 255
201 224 255
201 224 255
200 224 255
200 224 255
200 224 255
200 224 255
200 224 255
200 224 255
200 224 255
200 224 255
200 224 255
200 224 255
200 224 255
200 224 255
200 224 255
200 224 255
200 224 255
200 224 255
200 224 255
200 224 255
200 224 255
200 224 255
200 224 255
200 224 255
200 224 255
200 224 255
200 224 255
200 224 255
200 224 255
200 224 255
200 224 255
200 224 255
200 224 255
200 224 255
200 224 255
200 224 255
200 224 255
200 224 255
200 224 255
201 224 255
201 224 255
201 224 255
201 224 255
201 224 255
201 224 255
201 224 255
201 224 255
201 224 255
201 224 255
201 224 255
201 224 255
201 224 255
201 224 255
201 224 255
201 224 255
201 224 255
201 224 255
201 224 255
201 224 255
201 224 255
201 224 255
201 225 255
201 225 255
201 225 255
201 225 255
201 225 255
201 225 255
202 225 255
202 225 255
202 225 255
202 225 255
202 225 255
202 225 255
202 225 255
202 225 255
202 225 255
202 225 255
202 225 255
202 225 255
202 225 255
202 225 255
202 225 255
202 225 255
202 225 255
202 225 255
202 225 255
203 225 255
203 225 255
203 225 255
203 225 255
203 225 255
203 225 255
203 225 255
203 225 255
203 225 255
203 226 255
203 226 255
203 226 255
203 226 255
203 226 255
203 226 255
203 226 255
203 226 255
204 226 255
204 226 255
204 226 255
204 226 255
204 226 255
204 226 255
204 226 255
204 226 255
204 226 255
204 226 255
204 226 255
204 226 255
204 226 255
204 226 255
204 226 255
204 226 255
205 226 255
205 226 255
205 226 255
205 226 255
205 226 255
205 226 255
205 227 255
205 227 255
205 227 255
205 227 255
205 227 255
205 227 255
205 227 255
205 227 255
205 227 255
205 227 255
206 227 255
206 227 255
206 227 255
206 227 255
206 227 255
206 227 255
206 227 255
206 227 255
206 227 255
206 227 255
206 227 255
206 227 255
206 227 255
206 227 255
206 227 255
206 227 255
206 227 255
207 227 255
207 227 255
207 227 255
207 227 255
207 228 255
207 228 255
207 228 255
207 228 255
207 228 255
207 228 255
207 228 255
207 228 255
207 228 255
207 228 255
207 228 255
207 228 255
207 228 255
207 228 255
207 228 255
208 228 255
208 228 255
208 228 255
208 228 255
208 228 255
208 228 255
208 228 255
208 228 255
208 228 255
208 228 255
208 228 255
208 228 255
208 228 255
208 228 255
208 228 255
208 228 255
208 228 255
208 228 255
208 228 255
209 228 255
209 228 255
209 229 255
209 229 255
209 229 255
209 229 255
209 229 255
209 229 255
209 229 255
209 229 255
209 229 255
209 229 255
209 229 255
209 229 255
209 229 255
209 229 255
209 229 255
209 229 255
209 229 255
209 229 255
209 229 255
209 229 255
209 229 255
210 229 255
210 229 255
210 229 255
210 229 255
210 229 255
210 229 255
210 229 255
210 229 255
210 229 255
210 229 255
210 229 255
210 229 255
210 229 255
210 229 255
210 229 255
210 229 255
210 229 255
210 229 255
210 229 255
210 229 255
209 229 255
209 229 255
209 229 255
209 229 255
209 229 255
209 229 255
209 229 255
209 229 255
209 229 255
209 229 255
209 229 255
209 229 255
209 229 255
209 229 255
209 229 255
209 229 255
209 229 255
209 229 255
209 229 255
209 229 255
209 229 255
209 228 255
208 228 255
208 228 255
208 228 255
208 228 255
208 228 255
208 228 255
208 228 255
208 228 255
208 228 255
208 228 255
208 228 255
208 228 255
208 228 255
208 228 255
208 228 255
208 228 255
208 228 255
208 228 255
208 228 255
208 228 255
207 228 255
207 228 255
207 228 255
207 228 255
207 228 255
207 228 255
207 228 255
207 228 255
207 228 255
207 228 255
207 228 255
207 228 255
207 228 255
207 228 255
207 227 255
207 227 255
207 227 255
207 227 255
206 227 255
206 227 255
206 227 255
206 227 255
206 227 255
206 227 255
206 227 255
206 227 255
206 227 255
206 227 255
206 227 255
206 227 255
206 227 255
206 227 255
206 227 255
206 227 255
206 227 255
205 227 255
205 227 255
205 227 255
205 227 255
205 227 255
205 227 255
205 227 255
205 227 255
205 227 255
205 227 255
205 226 255
205 226 255
205 226 255
205 226 255
205 226 255
205 226 255
204 226 255
204 226 255
204 226 255
204 226 255
204 226 255
204 226 255
204 226 255
204 226 255
204 226 255
204 226 255
204 226 255
204 226 255
204 226 255
204 226 255
204 226 255
204 226 255
204 226 255
203 226 255
203 226 255
203 226 255
203 226 255
203 226 255
203 226 255
203 226 255
203 225 255
203 225 255
203 225 255
203 225 255
203 225 255
203 225 255
203 225 255
203 225 255
203 225 255
203 225 255
202 225 255
202 225 255
202 225 255
202 225 255
202 225 255
202 225 255
202 225 255
202 225 255
202 225 255
202 225 255
202 225 255
202 225 255
202 225 255
202 225 255
202 225 255
202 225 255
202 225 255
202 225 255
202 225 255
202 225 255
201 225 255
201 225 255
201 225 255
201 225 255
201 225 255
201 225 255
201 224 255
201 224 255
201 224 255
201 224 255
201 224 255
201 224 255
201 224 255
201 224 255
201 224 255
201 224 255
201 224 255
201 224 255
201 224 255
201 224 255
201 224 255
201 224 255
201 224 255
201 224 255
201 224 255
201 224 255
201 224 255
201 224 255
201 224 255
201 224 255
201 224 255
201 224 255
201 224 255
201 224 255
201 224 255
201 224 255
201 224 255
201 224 255
201 224 255
201 224 255
201 224 255
201 224 255
201 224 255
201 224 255
201 224 255
201 224 255
201 224 255
201 224 255
201 224 255
201 224 255
201 224 255
201 224 255
201 224 255
201 224 255
201 224 255
201 224 255
201 224 255
201 224 255
201 224 255
201 224 255
201 224 255
201 224 255
201 224 255
201 224 255
201 224 255
201 224 255
201 224 255
201 224 255
201 224 255
201 224 255
201 224 255
201 224 255
201 224 255
201 224 255
201 224 255
201 225 255
201 225 255
201 225 255
201 225 255
201 225 255
201 225 255
201 225 255
202 225 255
202 225 255
202 225 255
202 225 255
202 225 255
202 225 255
202 225 255
202 225 255
202 225 255
202 225 255
202 225 255
202 225 255
202 225 255
202 225 255
202 225 255
202 225 255
202 225 255
202 225 255
202 225 255
202 225 255
203 225 255
203 225 255
203 225 255
203 225 255
203 225 255
203 225 255
203 225 255
203 225 255
203 225 255
203 225 255
203 226 255
203 226 255
203 226 255
203 226 255
203 226 255
203 226 255
203 226 255
204 226 255
204 226 255
204 226 255
204 226 255
204 226 255
204 226 255
204 226 255
204 226 255
204 226 255
204 226 255
204 226 255
204 226 255
204 226 255
204 226 255
204 226 255
204 226 255
204 226 255
205 226 255
205 226 255
205 226 255
205 226 255
205 226 255
205 226 255
205 227 255
205 227 255
205 227 255
205 227 255
205 227 255
205 227 255
205 227 255
205 227 255
205 227 255
205 227 255
206 227 255
206 227 255
206 227 255
206 227 255
206 227 255
206 227 255
206 227 255
206 227 255
206 227 255
206 227 255
206 227 255
206 227 255
206 227 255
206 227 255
206 227 255
206 227 255
206 227 255
207 227 255
207 227 255
207 227 255
207 227 255
207 228 255
207 228 255
207 228 255
207 228 255
207 228 255
207 228 255
207 228 255
207 228 255
207 228 255
207 228 255
207 228 255
207 228 255
207 228 255
207 228 255
208 228 255
208 228 255
208 228 255
208 228 255
208 228 255
208 228 255
208 228 255
208 228 255
208 228 255
208 228 255
208 228 255
208 228 255
208 228 255
208 228 255
208 228 255
208 228 255
208 228 255
208 228 255
208 228 255
208 228 255
209 228 255
209 229 255
209 229 255
209 229 255
209 229 255
209 229 255
209 229 255
209 229 255
209 229 255
209 229 255
209 229 255
209 229 255
209 229 255
209 229 255
209 229 255
209 229 255
209 229 255
209 229 255
209 229 255
209 229 255
209 229 255
209 229 255
210 229 255
210 229 255
210 229 255
210 229 255
210 229 255
210 229 255
210 229 255
210 229 255
210 229 255
210 229 255
210 229 255
210 229 255
210 229 255
210 229 255
210 229 255
210 229 255
210 229 255
210 229 255
210 229 255
210 229 255
210 229 255
210 229 255
210 229 255
210 229 255
210 229 255
210 229 255
210 229 255
210 229 255
209 229 255
209 229 255
209 229 255
209 229 255
209 229 255
209 229 255
209 229 255
209 229 255
209 229 255
209 229 255
209 229 255
209 229 255
209 229 255
209 229 255
209 229 255
209 229 255
209 229 255
209 229 255
209 229 255
209 229 255
209 228 255
209 228 255
208 228 255
208 228 255
208 228 255
208 228 255
208 228 255
208 228 255
208 228 255
208 228 255
208 228 255
208 228 255
208 228 255
208 228 255
208 228 255
208 228 255
208 228 255
208 228 255
208 228 255
208 228 255
208 228 255
207 228 255
207 228 255
207 228 255
207 228 255
207 228 255
207 228 255
207 228 255
207 228 255
207 228 255
207 228 255
207 228 255
207 228 255
207 228 255
207 228 255
207 227 255
207 227 255
207 227 255
207 227 255
206 227 255
206 227 255
206 227 255
206 227 255
206 227 255
206 227 255
206 227 255
206 227 255
206 227 255
206 227 255
206 227 255
206 227 255
206 227 255
206 227 255
206 227 255
206 227 255
206 227 255
205 227 255
205 227 255
205 227 255
205 227 255
205 227 255
205 227 255
205 227 255
205 227 255
205 227 255
205 227 255
205 226 255
205 226 255
205 226 255
205 226 255
205 226 255
205 226 255
204 226 255
204 226 255
204 226 255
204 226 255
204 226 255
204 226 255
204 226 255
204 226 255
204 226 255
204 226 255
204 226 255
204 226 255
204 226 255
204 226 255
204 226 255
204 226 255
204 226 255
203 226 255
203 226 255
203 226 255
203 226 255
203 226 255
203 226 255
203 226 255
203 226 255
203 225 255
203 225 255
203 225 255
203 225 255
203 225 255
203 225 255
203 225 255
203 225 255
203 225 255
202 225 255
202 225 255
202 225 255
202 225 255
202 225 255
202 225 255
202 225 255
202 225 255
202 225 255
202 225 255
202 225 255
202 225 255
202 225 255
202 225 255
202 225 255
202 225 255
202 225 255
202 225 255
202 225 255
202 225 255
202 225 255
202 225 255
201 225 255
201 225 255
201 225 255
201 225 255
201 225 255
201 225 255
201 225 255
201 225 255
201 224 255
201 224 255
201 224 255
201 224 255
201 224 255
201 224 255
201 224 255
201 224 255
201 224 255
201 224 255
201 224 255
201 224 255
201 224 255
201 224 255
201 224 255
201 224 255
201 224 255
201 224 255
201 224 255
201 224 255
201 224 255
201 224 255
201 224 255
201 224 255
201 224 255
201 224 255
201 224 255
201 224 255
201 224 255
201 224 255
201 224 255
201 224 255
201 224 255
201 224 255
201 224 255
201 224 255
201 224 255
201 224 255
201 224 255
201 224 255
201 224 255
201 224 255
201 224 255
201 224 255
201 224 255
201 224 255
201 224 255
201 224 255
201 224 255
201 224 255
201 224 255
201 224 255
201 224 255
201 224 255
201 224 255
201 224 255
201 225 255
201 225 255
201 225 255
201 225 255
201 225 255
201 225 255
201 225 255
201 225 255
202 225 255
202 225 255
202 225 255
202 225 255
202 225 255
202 225 255
202 225 255
202 225 255
202 225 255
202 225 255
202 225 255
202 225 255
202 225 255
202 225 255
202 225 255
202 225 255
202 225 255
202 225 255
202 225 255
202 225 255
202 225 255
203 225 255
203 225 255
203 225 255
203 225 255
203 225 255
203 225 255
203 225 255
203 225 255
203 225 255
203 225 255
203 226 255
203 226 255
203 226 255
203 226 255
203 226 255
203 226 255
203 226 255
203 226 255
204 226 255
204 226 255
204 226 255
204 226 255
204 226 255
204 226 255
204 226 255
204 226 255
204 226 255
204 226 255
204 226 255
204 226 255
204 226 255
204 226 255
204 226 255
204 226 255
205 226 255
205 226 255
205 226 255
205 226 255
205 226 255
205 226 255
205 226 255
205 227 255
205 227 255
205 227 255
205 227 255
205 227 255
205 227 255
205 227 255
205 227 255
205 227 255
205 227 255
206 227 255
206 227 255
206 227 255
206 227 255
206 227 255
206 227 255
206 227 255
206 227 255
206 227 255
206 227 255
206 227 255
206 227 255
206 227 255
206 227 255
206 227 255
206 227 255
206 227 255
207 227 255
207 227 255
207 227 255
207 227 255
207 228 255
207 228 255
207 228 255
207 228 255
207 228 255
207 228 255
207 228 255
207 228 255
207 228 255
207 228 255
207 228 255
207 228 255
207 228 255
207 228 255
208 228 255
208 228 255
208 228 255
208 228 255
208 228 255
208 228 255
208 228 255
208 228 255
208 228 255
208 228 255
208 228 255
208 228 255
208 228 255
208 228 255
208 228 255
208 228 255
208 228 255
208 228 255
208 228 255
208 228 255
209 228 255
209 229 255
209 229 255
209 229 255
209 229 255
209 229 255
209 229 255
209 229 255
209 229 255
209 229 255
209 229 255
209 229 255
209 229 255
209 229 255
209 229 255
209 229 255
209 229 255
209 229 255
209 229 255
209 229 255
209 229 255
210 229 255
210 229 255
210 229 255
210 229 255
210 229 255
210 229 255
210 229 255
210 229 255
210 229 255
210 229 255
210 229 255
210 229 255
210 229 255
210 229 255
210 229 255
210 229 255
210 229 255
210 229 255
210 229 255
210 229 255
210 229 255
210 229 255
210 229 255
210 229 255
210 229 255
210 229 255
210 229 255
210 229 255
210 229 255
210 229 255
210 229 255
210 229 255
210 229 255
210 229 255
210 229 255
210 229 255
209 229 255
209 229 255
209 229 255
209 229 255
209 229 255
209 229 255
209 229 255
209 229 255
209 229 255
209 229 255
209 229 255
209 229 255
209 229 255
209 229 255
209 229 255
209 229 255
209 229 255
209 229 255
209 229 255
209 228 255
209 228 255
208 228 255
208 228 255
208 228 255
208 228 255
208 228 255
208 228 255
208 228 255
208 228 255
208 228 255
208 228 255
208 228 255
208 228 255
208 228 255
208 228 255
208 228 255
208 228 255
208 228 255
208 228 255
208 228 255
208 228 255
207 228 255
207 228 255
207 228 255
207 228 255
207 228 255
207 228 255
207 228 255
207 228 255
207 228 255
207 228 255
207 228 255
207 228 255
207 228 255
207 227 255
207 227 255
207 227 255
207 227 255
207 227 255
206 227 255
206 227 255
206 227 255
206 227 255
206 227 255
206 227 255
206 227 255
206 227 255
206 227 255
206 227 255
206 227 255
206 227 255
206 227 255
206 227 255
206 227 255
206 227 255
205 227 255
205 227 255
205 227 255
205 227 255
205 227 255
205 227 255
205 227 255
205 227 255
205 227 255
205 227 255
205 227 255
205 226 255
205 226 255
205 226 255
205 226 255
205 226 255
205 226 255
204 226 255
204 226 255
204 226 255
204 226 255
204 226 255
204 226 255
204 226 255
204 226 255
204 226 255
204 226 255
204 226 255
204 226 255
204 226 255
204 226 255
204 226 255
204 226 255
204 226 255
203 226 255
203 226 255
203 226 255
203 226 255
203 226 255
203 226 255
203 226 255
203 225 255
203 225 255
203 225 255
203 225 255
203 225 255
203 225 255
203 225 255
203 225 255
203 225 255
203 225 255
203 225 255
202 225 255
202 225 255
202 225 255
202 225 255
202 225 255
202 225 255
202 225 255
202 225 255
202 225 255
202 225 255
202 225 255
202 225 255
202 225 255
202 225 255
202 225 255
202 225 255
202 225 255
202 225 255
202 225 255
202 225 255
202 225 255
202 225 255
202 225 255
201 225 255
201 225 255
201 225 255
201 225 255
201 225 255
201 225 255
201 225 255
201 225 255
201 225 255
201 225 255
201 224 255
201 224 255
201 224 255
201 224 255
201 224 255
201 224 255
201 224 255
201 224 255
201 224 255
201 224 255
201 224 255
201 224 255
201 224 255
201 224 255
201 224 255
201 224 255
201 224 255
201 224 255
201 224 255
201 224 255
201 224 255
201 224 255
201 224 255
201 224 255
201 224 255
201 224 255
201 224 255
201 224 255
201 224 255
201 224 255
201 224 255
201 224 255
201 224 255
201 224 255
201 224 255
201 224 255
201 224 255
201 224 255
201 224 255
201 224 255
201 225 255
201 225 255
201 225 255
201 225 255
201 225 255
201 225 255
201 225 255
201 225 255
201 225 255
201 225 255
202 225 255
202 225 255
202 225 255
202 225 255
202 225 255
202 225 255
202 225 255
202 225 255
202 225 255
202 225 255
202 225 255
202 225 255
202 225 255
202 225 255
202 225 255
202 225 255
202 225 255
202 225 255
202 225 255
202 225 255
202 225 255
202 225 255
202 225 255
203 225 255
203 225 255
203 225 255
203 225 255
203 225 255
203 225 255
203 225 255
203 225 255
203 225 255
203 225 255
203 225 255
203 226 255
203 226 255
203 226 255
203 226 255
203 226 255
203 226 255
203 226 255
204 226 255
204 226 255
204 226 255
204 226 255
204 226 255
204 226 255
204 226 255
204 226 255
204 226 255
204 226 255
204 226 255
204 226 255
204 226 255
204 226 255
204 226 255
204 226 255
204 226 255
205 226 255
205 226 255
205 226 255
205 226 255
205 226 255
205 226 255
205 226 255
205 227 255
205 227 255
205 227 255
205 227 255
205 227 255
205 227 255
205 227 255
205 227 255
205 227 255
206 227 255
206 227 255
206 227 255
206 227 255
206 227 255
206 227 255
206 227 255
206 227 255
206 227 255
206 227 255
206 227 255
206 227 255
206 227 255
206 227 255
206 227 255
206 227 255
206 227 255
207 227 255
207 227 255
207 227 255
207 227 255
207 227 255
207 228 255
207 228 255
207 228 255
207 228 255
207 228 255
207 228 255
207 228 255
207 228 255
207 228 255
207 228 255
207 228 255
207 228 255
207 228 255
208 228 255
208 228 255
208 228 255
208 228 255
208 228 255
208 228 255
208 228 255
208 228 255
208 228 255
208 228 255
208 228 255
208 228 255
208 228 255
208 228 255
208 228 255
208 228 255
208 228 255
208 228 255
208 228 255
208 228 255
209 228 255
209 229 255
209 229 255
209 229 255
209 229 255
209 229 255
209 229 255
209 229 255
209 229 255
209 229 255
209 229 255
209 229 255
209 229 255
209 229 255
209 229 255
209 229 255
209 229 255
209 229 255
209 229 255
209 229 255
209 229 255
209 229 255
210 229 255
210 229 255
210 229 255
210 229 255
210 229 255
210 229 255
210 229 255
210 229 255
210 229 255
210 229 255
210 229 255
210 229 255
210 229 255
210 229 255
210 229 255
210 229 255
210 229 255
210 229 255
210 229 255
210 230 255
210 229 255
210 229 255
210 229 255
210 229 255
210 229 255
210 229 255
210 229 255
210 229 255
210 229 255
210 229 255
210 229 255
210 229 255
210 229 255
210 229 255
210 229 255
210 229 255
210 229 255
210 229 255
210 229 255
210 229 255
210 229 255
210 229 255
209 229 255
209 229 255
209 229 255
209 229 255
209 229 255
209 229 255
209 229 255
209 229 255
209 229 255
209 229 255
209 229 255
209 229 255
209 229 255
209 229 255
209 229 255
209 229 255
209 229 255
209 229 255
209 229 255
209 229 255
209 228 255
208 228 255
208 228 255
208 228 255
208 228 255
208 228 255
208 228 255
208 228 255
208 228 255
208 228 255
208 228 255
208 228 255
208 228 255
208 228 255
208 228 255
208 228 255
208 228 255
208 228 255
208 228 255
208 228 255
208 228 255
207 228 255
207 228 255
207 228 255
207 228 255
207 228 255
207 228 255
207 228 255
207 228 255
207 228 255
207 228 255
207 228 255
207 228 255
207 228 255
207 228 255
207 227 255
207 227 255
207 227 255
207 227 255
206 227 255
206 227 255
206 227 255
206 227 255
206 227 255
206 227 255
206 227 255
206 227 255
206 227 255
206 227 255
206 227 255
206 227 255
206 227 255
206 227 255
206 227 255
206 227 255
206 227 255
205 227 255
205 227 255
205 227 255
205 227 255
205 227 255
205 227 255
205 227 255
205 227 255
205 227 255
205 227 255
205 226 255
205 226 255
205 226 255
205 226 255
205 226 255
205 226 255
205 226 255
204 226 255
204 226 255
204 226 255
204 226 255
204 226 255
204 226 255
204 226 255
204 226 255
204 226 255
204 226 255
204 226 255
204 226 255
204 226 255
204 226 255
204 226 255
204 226 255
203 226 255
203 226 255
203 226 255
203 226 255
203 226 255
203 226 255
203 226 255
203 226 255
203 226 255
203 225 255
203 225 255
203 225 255
203 225 255
203 225 255
203 225 255
203 225 255
203 225 255
203 225 255
203 225 255
202 225 255
202 225 255
202 225 255
202 225 255
202 225 255
202 225 255
202 225 255
202 225 255
202 225 255
202 225 255
202 225 255
202 225 255
202 225 255
202 225 255
202 225 255
202 225 255
202 225 255
202 225 255
202 225 255
202 225 255
202 225 255
202 225 255
202 225 255
202 225 255
202 225 255
202 225 255
201 225 255
201 225 255
201 225 255
201 225 255
201 225 255
201 225 255
201 225 255
201 225 255
201 225 255
201 225 255
201 225 255
201 225 255
201 225 255
201 225 255
201 225 255
201 225 255
201 225 255
201 225 255
201 224 255
201 225 255
201 224 255
201 224 255
201 224 255
201 224 255
201 224 255
201 224 255
201 224 255
201 224 255
201 224 255
201 225 255
201 225 255
201 225 255
201 225 255
201 225 255
201 225 255
201 225 255
201 225 255
201 225 255
201 225 255
201 225 255
201 225 255
201 225 255
201 225 255
201 225 255
201 225 255
201 225 255
202 225 255
202 225 255
202 225 255
202 225 255
202 225 255
202 225 255
202 225 255
202 225 255
202 225 255
202 225 255
202 225 255
202 225 255
202 225 255
202 225 255
202 225 255
202 225 255
202 225 255
202 225 255
202 225 255
202 225 255
202 225 255
202 225 255
202 225 255
202 225 255
202 225 255
202 225 255
203 225 255
203 225 255
203 225 255
203 225 255
203 225 255
203 225 255
203 225 255
203 225 255
203 225 255
203 225 255
203 225 255
203 226 255
203 226 255
203 226 255
203 226 255
203 226 255
203 226 255
203 226 255
203 226 255
204 226 255
204 226 255
204 226 255
204 226 255
204 226 255
204 226 255
204 226 255
204 226 255
204 226 255
204 226 255
204 226 255
204 226 255
204 226 255
204 226 255
204 226 255
204 226 255
205 226 255
205 226 255
205 226 255
205 226 255
205 226 255
205 226 255
205 226 255
205 227 255
205 227 255
205 227 255
205 227 255
205 227 255
205 227 255
205 227 255
205 227 255
205 227 255
205 227 255
206 227 255
206 227 255
206 227 255
206 227 255
206 227 255
206 227 255
206 227 255
206 227 255
206 227 255
206 227 255
206 227 255
206 227 255
206 227 255
206 227 255
206 227 255
206 227 255
206 227 255
207 227 255
207 227 255
207 227 255
207 227 255
207 228 255
207 228 255
207 228 255
207 228 255
207 228 255
207 228 255
207 228 255
207 228 255
207 228 255
207 228 255
207 228 255
207 228 255
207 228 255
207 228 255
208 228 255
208 228 255
208 228 255
208 228 255
208 228 255
208 228 255
208 228 255
208 228 255
208 228 255
208 228 255
208 228 255
208 228 255
208 228 255
208 228 255
208 228 255
208 228 255
208 228 255
208 228 255
208 228 255
208 228 255
209 228 255
209 229 255
209 229 255
209 229 255
209 229 255
209 229 255
209 229 255
209 229 255
209 229 255
209 229 255
209 229 255
209 229 255
209 229 255
209 229 255
209 229 255
209 229 255
209 229 255
209 229 255
209 229 255
209 229 255
209 229 255
210 229 255
210 229 255
210 229 255
210 229 255
210 229 255
210 229 255
210 229 255
210 229 255
210 229 255
210 229 255
210 229 255
210 229 255
210 229 255
210 229 255
210 229 255
210 229 255
210 229 255
210 229 255
210 229 255
210 229 255
210 229 255
210 229 255
210 230 255
211 230 255
211 230 255
210 230 255
210 230 255
210 230 255
210 229 255
210 229 255
210 229 255
210 229 255
210 229 255
210 229 255
210 229 255
210 229 255
210 229 255
210 229 255
210 229 255
210 229 255
210 229 255
210 229 255
210 229 255
210 229 255
210 229 255
210 229 255
210 229 255
210 229 255
210 229 255
210 229 255
209 229 255
209 229 255
209 229 255
209 229 255
209 229 255
209 229 255
209 229 255
209 229 255
209 229 255
209 229 255
209 229 255
209 229 255
209 229 255
209 229 255
209 229 255
209 229 255
209 229 255
209 229 255
209 229 255
209 228 255
209 228 255
208 228 255
208 228 255
208 228 255
208 228 255
208 228 255
208 228 255
208 228 255
208 228 255
208 228 255
208 228 255
208 228 255
208 228 255
208 228 255
208 228 255
208 228 255
208 228 255
208 228 255
208 228 255
208 228 255
207 228 255
207 228 255
207 228 255
207 228 255
207 228 255
207 228 255
207 228 255
207 228 255
207 228 255
207 228 255
207 228 255
207 228 255
207 228 255
207 228 255
207 227 255
207 227 255
207 227 255
207 227 255
206 227 255
206 227 255
206 227 255
206 227 255
206 227 255
206 227 255
206 227 255
206 227 255
206 227 255
206 227 255
206 227 255
206 227 255
206 227 255
206 227 255
206 227 255
206 227 255
206 227 255
205 227 255
205 227 255
205 227 255
205 227 255
205 227 255
205 227 255
205 227 255
205 227 255
205 227 255
205 227 255
205 226 255
205 226 255
205 226 255
205 226 255
205 226 255
205 226 255
205 226 255
204 226 255
204 226 255
204 226 255
204 226 255
204 226 255
204 226 255
204 226 255
204 226 255
204 226 255
204 226 255
204 226 255
204 226 255
204 226 255
204 226 255
204 226 255
204 226 255
204 226 255
203 226 255
203 226 255
203 226 255
203 226 255
203 226 255
203 226 255
203 226 255
203 226 255
203 225 255
203 225 255
203 225 255
203 225 255
203 225 255
203 225 255
203 225 255
203 225 255
203 225 255
203 225 255
203 225 255
203 225 255
202 225 255
202 225 255
202 225 255
202 225 255
202 225 255
202 225 255
202 225 255
202 225 255
202 225 255
202 225 255
202 225 255
202 225 255
202 225 255
202 225 255
202 225 255
202 225 255
202 225 255
202 225 255
202 225 255
202 225 255
202 225 255
202 225 255
202 225 255
202 225 255
202 225 255
202 225 255
202 225 255
202 225 255
202 225 255
202 225 255
202 225 255
202 225 255
201 225 255
201 225 255
201 225 255
201 225 255
201 225 255
201 225 255
201 225 255
201 225 255
201 225 255
201 225 255
201 225 255
201 225 255
201 225 255
201 225 255
201 225 255
201 225 255
201 225 255
201 225 255
201 225 255
201 225 255
201 225 255
201 225 255
201 225 255
201 225 255
202 225 255
202 225 255
202 225 255
202 225 255
202 225 255
202 225 255
202 225 255
202 225 255
202 225 255
202 225 255
202 225 255
202 225 255
202 225 255
202 225 255
202 225 255
202 225 255
202 225 255
202 225 255
202 225 255
202 225 255
202 225 255
202 225 255
202 225 255
202 225 255
202 225 255
202 225 255
202 225 255
202 225 255
202 225 255
202 225 255
202 225 255
202 225 255
203 225 255
203 225 255
203 225 255
203 225 255
203 225 255
203 225 255
203 225 255
203 225 255
203 225 255
203 225 255
203 225 255
203 225 255
203 226 255
203 226 255
203 226 255
203 226 255
203 226 255
203 226 255
203 226 255
203 226 255
204 226 255
204 226 255
204 226 255
204 226 255
204 226 255
204 226 255
204 226 255
204 226 255
204 226 255
204 226 255
204 226 255
204 226 255
204 226 255
204 226 255
204 226 255
204 226 255
204 226 255
205 226 255
205 226 255
205 226 255
205 226 255
205 226 255
205 226 255
205 226 255
205 227 255
205 227 255
205 227 255
205 227 255
205 227 255
205 227 255
205 227 255
205 227 255
205 227 255
205 227 255
206 227 255
206 227 255
206 227 255
206 227 255
206 227 255
206 227 255
206 227 255
206 227 255
206 227 255
206 227 255
206 227 255
206 227 255
206 227 255
206 227 255
206 227 255
206 227 255
206 227 255
207 227 255
207 227 255
207 227 255
207 227 255
207 228 255
207 228 255
207 228 255
207 228 255
207 228 255
207 228 255
207 228 255
207 228 255
207 228 255
207 228 255
207 228 255
207 228 255
207 228 255
207 228 255
208 228 255
208 228 255
208 228 255
208 228 255
208 228 255
208 228 255
208 228 255
208 228 255
208 228 255
208 228 255
208 228 255
208 228 255
208 228 255
208 228 255
208 228 255
208 228 255
208 228 255
208 228 255
208 228 255
209 228 255
209 228 255
209 229 255
209 229 255
209 229 255
209 229 255
209 229 255
209 229 255
209 229 255
209 229 255
209 229 255
209 229 255
209 229 255
209 229 255
209 229 255
209 229 255
209 229 255
209 229 255
209 229 255
209 229 255
209 229 255
210 229 255
210 229 255
210 229 255
210 229 255
210 229 255
210 229 255
210 229 255
210 229 255
210 229 255
210 229 255
210 229 255
210 229 255
210 229 255
210 229 255
210 229 255
210 229 255
210 229 255
210 229 255
210 229 255
210 229 255
210 229 255
210 229 255
210 230 255
210 230 255
210 230 255
211 230 255
211 230 255
211 230 255
211 230 255
211 230 255
211 230 255
211 230 255
211 230 255
210 230 255
210 230 255
210 230 255
210 229 255
210 229 255
210 229 255
210 229 255
210 229 255
210 229 255
210 229 255
210 229 255
210 229 255
210 229 255
210 229 255
210 229 255
210 229 255
210 229 255
210 229 255
210 229 255
210 229 255
210 229 255
210 229 255
210 229 255
210 229 255
209 229 255
209 229 255
209 229 255
209 229 255
209 229 255
209 229 255
209 229 255
209 229 255
209 229 255
209 229 255
209 229 255
209 229 255
209 229 255
209 229 255
209 229 255
209 229 255
209 229 255
209 229 255
209 229 255
209 229 255
209 228 255
208 228 255
208 228 255
208 228 255
208 228 255
208 228 255
208 228 255
208 228 255
208 228 255
208 228 255
208 228 255
208 228 255
208 228 255
208 228 255
208 228 255
208 228 255
208 228 255
208 228 255
208 228 255
208 228 255
208 228 255
207 228 255
207 228 255
207 228 255
207 228 255
207 228 255
207 228 255
207 228 255
207 228 255
207 228 255
207 228 255
207 228 255
207 228 255
207 228 255
207 227 255
207 227 255
207 227 255
207 227 255
207 227 255
206 227 255
206 227 255
206 227 255
206 227 255
206 227 255
206 227 255
206 227 255
206 227 255
206 227 255
206 227 255
206 227 255
206 227 255
206 227 255
206 227 255
206 227 255
206 227 255
206 227 255
205 227 255
205 227 255
205 227 255
205 227 255
205 227 255
205 227 255
205 227 255
205 227 255
205 227 255
205 226 255
205 226 255
205 226 255
205 226 255
205 226 255
205 226 255
205 226 255
205 226 255
204 226 255
204 226 255
204 226 255
204 226 255
204 226 255
204 226 255
204 226 255
204 226 255
204 226 255
204 226 255
204 226 255
204 226 255
204 226 255
204 226 255
204 226 255
204 226 255
204 226 255
203 226 255
203 226 255
203 226 255
203 226 255
203 226 255
203 226 255
203 226 255
203 226 255
203 226 255
203 225 255
203 225 255
203 225 255
203 225 255
203 225 255
203 225 255
203 225 255
203 225 255
203 225 255
203 225 255
203 225 255
203 225 255
202 225 255
202 225 255
202 225 255
202 225 255
202 225 255
202 225 255
202 225 255
202 225 255
202 225 255
202 225 255
202 225 255
202 225 255
202 225 255
202 225 255
202 225 255
202 225 255
202 225 255
202 225 255
202 225 255
202 225 255
202 225 255
202 225 255
202 225 255
202 225 255
202 225 255
202 225 255
202 225 255
202 225 255
202 225 255
202 225 255
202 225 255
202 225 255
202 225 255
202 225 255
202 225 255
202 225 255
202 225 255
202 225 255
202 225 255
202 225 255
202 225 255
202 225 255
202 225 255
202 225 255
202 225 255
202 225 255
202 225 255
202 225 255
202 225 255
202 225 255
202 225 255
202 225 255
202 225 255
202 225 255
202 225 255
202 225 255
202 225 255
202 225 255
202 225 255
202 225 255
202 225 255
202 225 255
202 225 255
202 225 255
202 225 255
202 225 255
202 225 255
202 225 255
202 225 255
202 225 255
202 225 255
202 225 255
202 225 255
202 225 255
202 225 255
202 225 255
202 225 255
202 225 255
203 225 255
203 225 255
203 225 255
203 225 255
203 225 255
203 225 255
203 225 255
203 225 255
203 225 255
203 225 255
203 225 255
203 225 255
203 226 255
203 226 255
203 226 255
203 226 255
203 226 255
203 226 255
203 226 255
203 226 255
203 226 255
204 226 255
204 226 255
204 226 255
204 226 255
204 226 255
204 226 255
204 226 255
204 226 255
204 226 255
204 226 255
204 226 255
204 226 255
204 226 255
204 226 255
204 226 255
204 226 255
204 226 255
205 226 255
205 226 255
205 226 255
205 226 255
205 226 255
205 226 255
205 226 255
205 227 255
205 227 255
205 227 255
205 227 255
205 227 255
205 227 255
205 227 255
205 227 255
205 227 255
205 227 255
205 227 255
206 227 255
206 227 255
206 227 255
206 227 255
206 227 255
206 227 255
206 227 255
206 227 255
206 227 255
206 227 255
206 227 255
206 227 255
206 227 255
206 227 255
206 227 255
206 227 255
207 227 255
207 227 255
207 227 255
207 227 255
207 227 255
207 228 255
207 228 255
207 228 255
207 228 255
207 228 255
207 228 255
207 228 255
207 228 255
207 228 255
207 228 255
207 228 255
207 228 255
207 228 255
208 228 255
208 228 255
208 228 255
208 228 255
208 228 255
208 228 255
208 228 255
208 228 255
208 228 255
208 228 255
208 228 255
208 228 255
208 228 255
208 228 255
208 228 255
208 228 255
208 228 255
208 228 255
208 228 255
209 228 255
209 228 255
209 229 255
209 229 255
209 229 255
209 229 255
209 229 255
209 229 255
209 229 255
209 229 255
209 229 255
209 229 255
209 229 255
209 229 255
209 229 255
209 229 255
209 229 255
209 229 255
209 229 255
209 229 255
209 229 255
209 229 255
210 229 255
210 229 255
210 229 255
210 229 255
210 229 255
210 229 255
210 229 255
210 229 255
210 229 255
210 229 255
210 229 255
210 229 255
210 229 255
210 229 255
210 229 255
210 229 255
210 229 255
210 229 255
210 229 255
210 229 255
210 229 255
210 230 255
210 230 255
210 230 255
211 230 255
211 230 255
211 230 255
211 230 255
211 230 255
211 230 255
211 230 255
211 230 255
211 230 255
211 230 255
211 230 255
211 230 255
211 230 255
211 230 255
211 230 255
211 230 255
210 230 255
210 230 255
210 230 255
210 229 255
210 229 255
210 229 255
210 229 255
210 229 255
210 229 255
210 229 255
210 229 255
210 229 255
210 229 255
210 229 255
210 229 255
210 229 255
210 229 255
210 229 255
210 229 255
210 229 255
210 229 255
210 229 255
210 229 255
210 229 255
209 229 255
209 229 255
209 229 255
209 229 255
209 229 255
209 229 255
209 229 255
209 229 255
209 229 255
209 229 255
209 229 255
209 229 255
209 229 255
209 229 255
209 229 255
209 229 255
209 229 255
209 229 255
209 229 255
209 229 255
209 228 255
208 228 255
208 228 255
208 228 255
208 228 255
208 228 255
208 228 255
208 228 255
208 228 255
208 228 255
208 228 255
208 228 255
208 228 255
208 228 255
208 228 255
208 228 255
208 228 255
208 228 255
208 228 255
208 228 255
207 228 255
207 228 255
207 228 255
207 228 255
207 228 255
207 228 255
207 228 255
207 228 255
207 228 255
207 228 255
207 228 255
207 228 255
207 228 255
207 228 255
207 227 255
207 227 255
207 227 255
207 227 255
206 227 255
206 227 255
206 227 255
206 227 255
206 227 255
206 227 255
206 227 255
206 227 255
206 227 255
206 227 255
206 227 255
206 227 255
206 227 255
206 227 255
206 227 255
206 227 255
206 227 255
205 227 255
205 227 255
205 227 255
205 227 255
205 227 255
205 227 255
205 227 255
205 227 255
205 227 255
205 227 255
205 226 255
205 226 255
205 226 255
205 226 255
205 226 255
205 226 255
205 226 255
204 226 255
204 226 255
204 226 255
204 226 255
204 226 255
204 226 255
204 226 255
204 226 255
204 226 255
204 226 255
204 226 255
204 226 255
204 226 255
204 226 255
204 226 255
204 226 255
204 226 255
204 226 255
203 226 255
203 226 255
203 226 255
203 226 255
203 226 255
203 226 255
203 226 255
203 226 255
203 226 255
203 225 255
203 225 255
203 225 255
203 225 255
203 225 255
203 225 255
203 225 255
203 225 255
203 225 255
203 225 255
203 225 255
203 225 255
203 225 255
203 225 255
202 225 255
202 225 255
202 225 255
202 225 255
202 225 255
202 225 255
202 225 255
202 225 255
202 225 255
202 225 255
202 225 255
202 225 255
202 225 255
202 225 255
202 225 255
202 225 255
202 225 255
202 225 255
202 225 255
202 225 255
202 225 255
202 225 255
202 225 255
202 225 255
202 225 255
202 225 255
202 225 255
202 225 255
202 225 255
202 225 255
202 225 255
202 225 255
202 225 255
202 225 255
202 225 255
202 225 255
202 225 255
202 225 255
202 225 255
202 225 255
202 225 255
202 225 255
202 225 255
202 225 255
202 225 255
202 225 255
202 225 255
202 225 255
202 225 255
202 225 255
202 225 255
202 225 255
202 225 255
202 225 255
202 225 255
202 225 255
202 225 255
202 225 255
202 225 255
202 225 255
202 225 255
202 225 255
202 225 255
202 225 255
202 225 255
202 225 255
203 225 255
203 225 255
203 225 255
203 225 255
203 225 255
203 225 255
203 225 255
203 225 255
203 225 255
203 225 255
203 225 255
203 225 255
203 225 255
203 226 255
203 226 255
203 226 255
203 226 255
203 226 255
203 226 255
203 226 255
203 226 255
203 226 255
203 226 255
204 226 255
204 226 255
204 226 255
204 226 255
204 226 255
204 226 255
204 226 255
204 226 255
204 226 255
204 226 255
204 226 255
204 226 255
204 226 255
204 226 255
204 226 255
204 226 255
204 226 255
204 226 255
205 226 255
205 226 255
205 226 255
205 226 255
205 226 255
205 226 255
205 226 255
205 227 255
205 227 255
205 227 255
205 227 255
205 227 255
205 227 255
205 227 255
205 227 255
205 227 255
205 227 255
206 227 255
206 227 255
206 227 255
206 227 255
206 227 255
206 227 255
206 227 255
206 227 255
206 227 255
206 227 255
206 227 255
206 227 255
206 227 255
206 227 255
206 227 255
206 227 255
206 227 255
207 227 255
207 227 255
207 227 255
207 227 255
207 228 255
207 228 255
207 228 255
207 228 255
207 228 255
207 228 255
207 228 255
207 228 255
207 228 255
207 228 255
207 228 255
207 228 255
207 228 255
207 228 255
208 228 255
208 228 255
208 228 255
208 228 255
208 228 255
208 228 255
208 228 255
208 228 255
208 228 255
208 228 255
208 228 255
208 228 255
208 228 255
208 228 255
208 228 255
208 228 255
208 228 255
208 228 255
208 228 255
209 228 255
209 228 255
209 229 255
209 229 255
209 229 255
209 229 255
209 229 255
209 229 255
209 229 255
209 229 255
209 229 255
209 229 255
209 229 255
209 229 255
209 229 255
209 229 255
209 229 255
209 229 255
209 229 255
209 229 255
209 229 255
210 229 255
210 229 255
210 229 255
210 229 255
210 229 255
210 229 255
210 229 255
210 229 255
210 229 255
210 229 255
210 229 255
210 229 255
210 229 255
210 229 255
210 229 255
210 229 255
210 229 255
210 229 255
210 229 255
210 229 255
210 229 255
210 230 255
210 230 255
210 230 255
211 230 255
211 230 255
211 230 255
211 230 255
211 230 255
211 230 255
211 230 255
211 230 255
211 230 255
211 230 255
211 230 255
211 230 255
211 230 255
211 230 255
211 230 255
211 230 255
211 230 255
211 230 255
211 230 255
211 230 255
211 230 255
211 230 255
211 230 255
211 230 255
210 230 255
210 230 255
210 230 255
210 229 255
210 229 255
210 229 255
210 229 255
210 229 255
210 229 255
210 229 255
210 229 255
210 229 255
210 229 255
210 229 255
210 229 255
210 229 255
210 229 255
210 229 255
210 229 255
210 229 255
210 229 255
210 229 255
210 229 255
210 229 255
209 229 255
209 229 255
209 229 255
209 229 255
209 229 255
209 229 255
209 229 255
209 229 255
209 229 255
209 229 255
209 229 255
209 229 255
209 229 255
209 229 255
209 229 255
209 229 255
209 229 255
209 229 255
209 229 255
209 228 255
209 228 255
208 228 255
208 228 255
208 228 255
208 228 255
208 228 255
208 228 255
208 228 255
208 228 255
208 228 255
208 228 255
208 228 255
208 228 255
208 228 255
208 228 255
208 228 255
208 228 255
208 228 255
208 228 255
208 228 255
207 228 255
207 228 255
207 228 255
207 228 255
207 228 255
207 228 255
207 228 255
207 228 255
207 228 255
207 228 255
207 228 255
207 228 255
207 228 255
207 227 255
207 227 255
207 227 255
207 227 255
207 227 255
206 227 255
206 227 255
206 227 255
206 227 255
206 227 255
206 227 255
206 227 255
206 227 255
206 227 255
206 227 255
206 227 255
206 227 255
206 227 255
206 227 255
206 227 255
206 227 255
205 227 255
205 227 255
205 227 255
205 227 255
205 227 255
205 227 255
205 227 255
205 227 255
205 227 255
205 227 255
205 227 255
205 226 255
205 226 255
205 226 255
205 226 255
205 226 255
205 226 255
205 226 255
204 226 255
204 226 255
204 226 255
204 226 255
204 226 255
204 226 255
204 226 255
204 226 255
204 226 255
204 226 255
204 226 255
204 226 255
204 226 255
204 226 255
204 226 255
204 226 255
204 226 255
204 226 255
204 226 255
203 226 255
203 226 255
203 226 255
203 226 255
203 226 255
203 226 255
203 226 255
203 226 255
203 226 255
203 226 255
203 225 255
203 225 255
203 225 255
203 225 255
203 225 255
203 225 255
203 225 255
203 225 255
203 225 255
203 225 255
203 225 255
203 225 255
203 225 255
203 225 255
203 225 255
202 225 255
202 225 255
202 225 255
202 225 255
202 225 255
202 225 255
202 225 255
202 225 255
202 225 255
202 225 255
202 225 255
202 225 255
202 225 255
202 225 255
202 225 255
202 225 255
202 225 255
202 225 255
202 225 255
202 225 255
202 225 255
202 225 255
202 225 255
202 225 255
202 225 255
202 225 255
202 225 255
202 225 255
202 225 255
202 225 255
202 225 255
202 225 255
202 225 255
202 225 255
202 225 255
202 225 255
202 225 255
202 225 255
202 225 255
202 225 255
202 225 255
202 225 255
202 225 255
202 225 255
202 225 255
202 225 255
202 225 255
202 225 255
202 225 255
202 225 255
202 225 255
202 225 255
203 225 255
203 225 255
203 225 255
203 225 255
203 225 255
203 225 255
203 225 255
203 225 255
203 225 255
203 225 255
203 225 255
203 225 255
203 225 255
203 225 255
203 225 255
203 226 255
203 226 255
203 226 255
203 226 255
203 226 255
203 226 255
203 226 255
203 226 255
203 226 255
203 226 255
204 226 255
204 226 255
204 226 255
204 226 255
204 226 255
204 226 255
204 226 255
204 226 255
204 226 255
204 226 255
204 226 255
204 226 255
204 226 255
204 226 255
204 226 255
204 226 255
204 226 255
204 226 255
204 226 255
205 226 255
205 226 255
205 226 255
205 226 255
205 226 255
205 226 255
205 226 255
205 227 255
205 227 255
205 227 255
205 227 255
205 227 255
205 227 255
205 227 255
205 227 255
205 227 255
205 227 255
206 227 255
206 227 255
206 227 255
206 227 255
206 227 255
206 227 255
206 227 255
206 227 255
206 227 255
206 227 255
206 227 255
206 227 255
206 227 255
206 227 255
206 227 255
206 227 255
206 227 255
207 227 255
207 227 255
207 227 255
207 227 255
207 227 255
207 228 255
207 228 255
207 228 255
207 228 255
207 228 255
207 228 255
207 228 255
207 228 255
207 228 255
207 228 255
207 228 255
207 228 255
207 228 255
208 228 255
208 228 255
208 228 255
208 228 255
208 228 255
208 228 255
208 228 255
208 228 255
208 228 255
208 228 255
208 228 255
208 228 255
208 228 255
208 228 255
208 228 255
208 228 255
208 228 255
208 228 255
208 228 255
209 228 255
209 228 255
209 229 255
209 229 255
209 229 255
209 229 255
209 229 255
209 229 255
209 229 255
209 229 255
209 229 255
209 229 255
209 229 255
209 229 255
209 229 255
209 229 255
209 229 255
209 229 255
209 229 255
209 229 255
209 229 255
210 229 255
210 229 255
210 229 255
210 229 255
210 229 255
210 229 255
210 229 255
210 229 255
210 229 255
210 229 255
210 229 255
210 229 255
210 229 255
210 229 255
210 229 255
210 229 255
210 229 255
210 229 255
210 229 255
210 229 255
210 229 255
210 230 255
210 230 255
210 230 255
211 230 255
211 230 255
211 230 255
211 230 255
211 230 255
211 230 255
211 230 255
211 230 255
211 230 255
211 230 255
211 230 255
211 230 255
211 230 255
211 230 255
211 230 255
211 230 255
211 230 255
211 230 255
211 230 255
211 230 255
211 230 255
211 230 255
211 230 255
211 230 255
211 230 255
211 230 255
211 230 255
211 230 255
211 230 255
211 230 255
211 230 255
211 230 255
210 230 255
210 230 255
210 230 255
210 229 255
210 229 255
210 229 255
210 229 255
210 229 255
210 229 255
210 229 255
210 229 255
210 229 255
210 229 255
210 229 255
210 229 255
210 229 255
210 229 255
210 229 255
210 229 255
210 229 255
210 229 255
210 229 255
210 229 255
209 229 255
209 229 255
209 229 255
209 229 255
209 229 255
209 229 255
209 229 255
209 229 255
209 229 255
209 229 255
209 229 255
209 229 255
209 229 255
209 229 255
209 229 255
209 229 255
209 229 255
209 229 255
209 229 255
209 229 255
209 228 255
208 228 255
208 228 255
208 228 255
208 228 255
208 228 255
208 228 255
208 228 255
208 228 255
208 228 255
208 228 255
208 228 255
208 228 255
208 228 255
208 228 255
208 228 255
208 228 255
208 228 255
208 228 255
208 228 255
207 228 255
207 228 255
207 228 255
207 228 255
207 228 255
207 228 255
207 228 255
207 228 255
207 228 255
207 228 255
207 228 255
207 228 255
207 228 255
207 228 255
207 227 255
207 227 255
207 227 255
207 227 255
206 227 255
206 227 255
206 227 255
206 227 255
206 227 255
206 227 255
206 227 255
206 227 255
206 227 255
206 227 255
206 227 255
206 227 255
206 227 255
206 227 255
206 227 255
206 227 255
206 227 255
205 227 255
205 227 255
205 227 255
205 227 255
205 227 255
205 227 255
205 227 255
205 227 255
205 227 255
205 227 255
205 227 255
205 226 255
205 226 255
205 226 255
205 226 255
205 226 255
205 226 255
205 226 255
204 226 255
204 226 255
204 226 255
204 226 255
204 226 255
204 226 255
204 226 255
204 226 255
204 226 255
204 226 255
204 226 255
204 226 255
204 226 255
204 226 255
204 226 255
204 226 255
204 226 255
204 226 255
204 226 255
204 226 255
203 226 255
203 226 255
203 226 255
203 226 255
203 226 255
203 226 255
203 226 255
203 226 255
203 226 255
203 226 255
203 225 255
203 225 255
203 225 255
203 225 255
203 225 255
203 225 255
203 225 255
203 225 255
203 225 255
203 225 255
203 225 255
203 225 255
203 225 255
203 225 255
203 225 255
203 225 255
203 225 255
203 225 255
203 225 255
202 225 255
202 225 255
202 225 255
202 225 255
202 225 255
202 225 255
202 225 255
202 225 255
202 225 255
202 225 255
202 225 255
202 225 255
202 225 255
202 225 255
202 225 255
202 225 255
202 225 255
202 225 255
202 225 255
202 225 255
202 225 255
202 225 255
202 225 255
202 225 255
202 225 255
202 225 255
202 225 255
202 225 255
202 225 255
202 225 255
202 225 255
202 225 255
202 225 255
203 225 255
203 225 255
203 225 255
203 225 255
203 225 255
203 225 255
203 225 255
203 225 255
203 225 255
203 225 255
203 225 255
203 225 255
203 225 255
203 225 255
203 225 255
203 225 255
203 225 255
203 225 255
203 225 255
203 225 255
203 226 255
203 226 255
203 226 255
203 226 255
203 226 255
203 226 255
203 226 255
203 226 255
203 226 255
203 226 255
204 226 255
204 226 255
204 226 255
204 226 255
204 226 255
204 226 255
204 226 255
204 226 255
204 226 255
204 226 255
204 226 255
204 226 255
204 226 255
204 226 255
204 226 255
204 226 255
204 226 255
204 226 255
204 226 255
204 226 255
205 226 255
205 226 255
205 226 255
205 226 255
205 226 255
205 226 255
205 226 255
205 227 255
205 227 255
205 227 255
205 227 255
205 227 255
205 227 255
205 227 255
205 227 255
205 227 255
205 227 255
205 227 255
206 227 255
206 227 255
206 227 255
206 227 255
206 227 255
206 227 255
206 227 255
206 227 255
206 227 255
206 227 255
206 227 255
206 227 255
206 227 255
206 227 255
206 227 255
206 227 255
206 227 255
207 227 255
207 227 255
207 227 255
207 227 255
207 228 255
207 228 255
207 228 255
207 228 255
207 228 255
207 228 255
207 228 255
207 228 255
207 228 255
207 228 255
207 228 255
207 228 255
207 228 255
207 228 255
208 228 255
208 228 255
208 228 255
208 228 255
208 228 255
208 228 255
208 228 255
208 228 255
208 228 255
208 228 255
208 228 255
208 228 255
208 228 255
208 228 255
208 228 255
208 228 255
208 228 255
208 228 255
209 228 255
209 228 255
209 229 255
209 229 255
209 229 255
209 229 255
209 229 255
209 229 255
209 229 255
209 229 255
209 229 255
209 229 255
209 229 255
209 229 255
209 229 255
209 229 255
209 229 255
209 229 255
209 229 255
209 229 255
209 229 255
210 229 255
210 229 255
210 229 255
210 229 255
210 229 255
210 229 255
210 229 255
210 229 255
210 229 255
210 229 255
210 229 255
210 229 255
210 229 255
210 229 255
210 229 255
210 229 255
210 229 255
210 229 255
210 229 255
210 229 255
210 229 255
210 230 255
210 230 255
210 230 255
211 230 255
211 230 255
211 230 255
211 230 255
211 230 255
211 230 255
211 230 255
211 230 255
211 230 255
211 230 255
211 230 255
211 230 255
211 230 255
211 230 255
211 230 255
211 230 255
211 230 255
211 230 255
211 230 255
211 230 255
211 230 255
211 230 255
211 230 255
211 230 255
211 230 255
211 230 255
211 230 255
211 230 255
211 230 255
211 230 255
211 230 255
211 230 255
211 230 255
211 230 255
211 230 255
211 230 255
211 230 255
211 230 255
211 230 255
211 230 255
210 230 255
210 230 255
210 230 255
210 229 255
210 229 255
210 229 255
210 229 255
210 229 255
210 229 255
210 229 255
210 229 255
210 229 255
210 229 255
210 229 255
210 229 255
210 229 255
210 229 255
210 229 255
210 229 255
210 229 255
210 229 255
210 229 255
210 229 255
209 229 255
209 229 255
209 229 255
209 229 255
209 229 255
209 229 255
209 229 255
209 229 255
209 229 255
209 229 255
209 229 255
209 229 255
209 229 255
209 229 255
209 229 255
209 229 255
209 229 255
209 229 255
209 229 255
209 228 255
209 228 255
208 228 255
208 228 255
208 228 255
208 228 255
208 228 255
208 228 255
208 228 255
208 228 255
208 228 255
208 228 255
208 228 255
208 228 255
208 228 255
208 228 255
208 228 255
208 228 255
208 228 255
208 228 255
208 228 255
207 228 255
207 228 255
207 228 255
207 228 255
207 228 255
207 228 255
207 228 255
207 228 255
207 228 255
207 228 255
207 228 255
207 228 255
207 228 255
207 228 255
207 227 255
207 227 255
207 227 255
207 227 255
206 227 255
206 227 255
206 227 255
206 227 255
206 227 255
206 227 255
206 227 255
206 227 255
206 227 255
206 227 255
206 227 255
206 227 255
206 227 255
206 227 255
206 227 255
206 227 255
206 227 255
205 227 255
205 227 255
205 227 255
205 227 255
205 227 255
205 227 255
205 227 255
205 227 255
205 227 255
205 227 255
205 227 255
205 226 255
205 226 255
205 226 255
205 226 255
205 226 255
205 226 255
205 226 255
204 226 255
204 226 255
204 226 255
204 226 255
204 226 255
204 226 255
204 226 255
204 226 255
204 226 255
204 226 255
204 226 255
204 226 255
204 226 255
204 226 255
204 226 255
204 226 255
204 226 255
204 226 255
204 226 255
204 226 255
204 226 255
203 226 255
203 226 255
203 226 255
203 226 255
203 226 255
203 226 255
203 226 255
203 226 255
203 226 255
203 226 255
203 226 255
203 226 255
203 225 255
203 225 255
203 225 255
203 225 255
203 225 255
203 225 255
203 225 255
203 225 255
203 225 255
203 225 255
203 225 255
203 225 255
203 225 255
203 225 255
203 225 255
203 225 255
203 225 255
203 225 255
203 225 255
203 225 255
203 225 255
203 225 255
203 225 255
203 225 255
203 225 255
203 225 255
203 225 255
203 225 255
203 225 255
203 225 255
203 225 255
203 225 255
203 225 255
203 225 255
203 225 255
203 225 255
203 225 255
203 225 255
203 225 255
203 225 255
203 225 255
203 225 255
203 225 255
203 225 255
203 225 255
203 225 255
203 225 255
203 225 255
203 225 255
203 225 255
203 225 255
203 225 255
203 225 255
203 225 255
203 225 255
203 225 255
203 225 255
203 225 255
203 226 255
203 226 255
203 226 255
203 226 255
203 226 255
203 226 255
203 226 255
203 226 255
203 226 255
203 226 255
203 226 255
203 226 255
204 226 255
204 226 255
204 226 255
204 226 255
204 226 255
204 226 255
204 226 255
204 226 255
204 226 255
204 226 255
204 226 255
204 226 255
204 226 255
204 226 255
204 226 255
204 226 255
204 226 255
204 226 255
204 226 255
204 226 255
204 226 255
205 226 255
205 226 255
205 226 255
205 226 255
205 226 255
205 226 255
205 226 255
205 227 255
205 227 255
205 227 255
205 227 255
205 227 255
205 227 255
205 227 255
205 227 255
205 227 255
205 227 255
205 227 255
206 227 255
206 227 255
206 227 255
206 227 255
206 227 255
206 227 255
206 227 255
206 227 255
206 227 255
206 227 255
206 227 255
206 227 255
206 227 255
206 227 255
206 227 255
206 227 255
206 227 255
207 227 255
207 227 255
207 227 255
207 227 255
207 228 255
207 228 255
207 228 255
207 228 255
207 228 255
207 228 255
207 228 255
207 228 255
207 228 255
207 228 255
207 228 255
207 228 255
207 228 255
207 228 255
208 228 255
208 228 255
208 228 255
208 228 255
208 228 255
208 228 255
208 228 255
208 228 255
208 228 255
208 228 255
208 228 255
208 228 255
208 228 255
208 228 255
208 228 255
208 228 255
208 228 255
208 228 255
208 228 255
209 228 255
209 228 255
209 229 255
209 229 255
209 229 255
209 229 255
209 229 255
209 229 255
209 229 255
209 229 255
209 229 255
209 229 255
209 229 255
209 229 255
209 229 255
209 229 255
209 229 255
209 229 255
209 229 255
209 229 255
209 229 255
210 229 255
210 229 255
210 229 255
210 229 255
210 229 255
210 229 255
210 229 255
210 229 255
210 229 255
210 229 255
210 229 255
210 229 255
210 229 255
210 229 255
210 229 255
210 229 255
210 229 255
210 229 255
210 229 255
210 229 255
210 230 255
210 230 255
210 230 255
211 230 255
211 230 255
211 230 255
211 230 255
211 230 255
211 230 255
211 230 255
211 230 255
211 230 255
211 230 255
211 230 255
211 230 255
211 230 255
211 230 255
211 230 255
211 230 255
211 230 255
211 230 255
211 230 255
211 230 255
211 230 255
211 230 255
211 230 255
211 230 255
211 230 255
211 230 255
211 230 255
211 230 255
211 230 255
211 230 255
211 230 255
211 230 255
211 230 255
211 230 255
211 230 255
211 230 255
211 230 255
211 230 255
211 230 255
211 230 255
211 230 255
211 230 255
211 230 255
211 230 255
211 230 255
211 230 255
211 230 255
211 230 255
210 230 255
210 230 255
210 230 255
210 229 255
210 229 255
210 229 255
210 229 255
210 229 255
210 229 255
210 229 255
210 229 255
210 229 255
210 229 255
210 229 255
210 229 255
210 229 255
210 229 255
210 229 255
210 229 255
210 229 255
210 229 255
210 229 255
210 229 255
209 229 255
209 229 255
209 229 255
209 229 255
209 229 255
209 229 255
209 229 255
209 229 255
209 229 255
209 229 255
209 229 255
209 229 255
209 229 255
209 229 255
209 229 255
209 229 255
209 229 255
209 229 255
209 229 255
209 228 255
209 228 255
208 228 255
208 228 255
208 228 255
208 228 255
208 228 255
208 228 255
208 228 255
208 228 255
208 228 255
208 228 255
208 228 255
208 228 255
208 228 255
208 228 255
208 228 255
208 228 255
208 228 255
208 228 255
208 228 255
207 228 255
207 228 255
207 228 255
207 228 255
207 228 255
207 228 255
207 228 255
207 228 255
207 228 255
207 228 255
207 228 255
207 228 255
207 228 255
207 227 255
207 227 255
207 227 255
207 227 255
207 227 255
206 227 255
206 227 255
206 227 255
206 227 255
206 227 255
206 227 255
206 227 255
206 227 255
206 227 255
206 227 255
206 227 255
206 227 255
206 227 255
206 227 255
206 227 255
206 227 255
206 227 255
205 227 255
205 227 255
205 227 255
205 227 255
205 227 255
205 227 255
205 227 255
205 227 255
205 227 255
205 227 255
205 227 255
205 226 255
205 226 255
205 226 255
205 226 255
205 226 255
205 226 255
205 226 255
205 226 255
204 226 255
204 226 255
204 226 255
204 226 255
204 226 255
204 226 255
204 226 255
204 226 255
204 226 255
204 226 255
204 226 255
204 226 255
204 226 255
204 226 255
204 226 255
204 226 255
204 226 255
204 226 255
204 226 255
204 226 255
204 226 255
204 226 255
203 226 255
203 226 255
203 226 255
203 226 255
203 226 255
203 226 255
203 226 255
203 226 255
203 226 255
203 226 255
203 226 255
203 226 255
203 226 255
203 226 255
203 226 255
203 225 255
203 225 255
203 225 255
203 225 255
203 225 255
203 225 255
203 225 255
203 225 255
203 225 255
203 225 255
203 225 255
203 225 255
203 225 255
203 225 255
203 225 255
203 225 255
203 225 255
203 225 255
203 225 255
203 225 255
203 225 255
203 225 255
203 225 255
203 225 255
203 225 255
203 225 255
203 225 255
203 225 255
203 225 255
203 225 255
203 225 255
203 225 255
203 225 255
203 225 255
203 225 255
203 225 255
203 225 255
203 225 255
203 225 255
203 225 255
203 226 255
203 226 255
203 226 255
203 226 255
203 226 255
203 226 255
203 226 255
203 226 255
203 226 255
203 226 255
203 226 255
203 226 255
203 226 255
203 226 255
203 226 255
204 226 255
204 226 255
204 226 255
204 226 255
204 226 255
204 226 255
204 226 255
204 226 255
204 226 255
204 226 255
204 226 255
204 226 255
204 226 255
204 226 255
204 226 255
204 226 255
204 226 255
204 226 255
204 226 255
204 226 255
204 226 255
204 226 255
205 226 255
205 226 255
205 226 255
205 226 255
205 226 255
205 226 255
205 226 255
205 226 255
205 227 255
205 227 255
205 227 255
205 227 255
205 227 255
205 227 255
205 227 255
205 227 255
205 227 255
205 227 255
205 227 255
206 227 255
206 227 255
206 227 255
206 227 255
206 227 255
206 227 255
206 227 255
206 227 255
206 227 255
206 227 255
206 227 255
206 227 255
206 227 255
206 227 255
206 227 255
206 227 255
206 227 255
206 227 255
207 227 255
207 227 255
207 227 255
207 227 255
207 228 255
207 228 255
207 228 255
207 228 255
207 228 255
207 228 255
207 228 255
207 228 255
207 228 255
207 228 255
207 228 255
207 228 255
207 228 255
207 228 255
208 228 255
208 228 255
208 228 255
208 228 255
208 228 255
208 228 255
208 228 255
208 228 255
208 228 255
208 228 255
208 228 255
208 228 255
208 228 255
208 228 255
208 228 255
208 228 255
208 228 255
208 228 255
209 228 255
209 228 255
209 229 255
209 229 255
209 229 255
209 229 255
209 229 255
209 229 255
209 229 255
209 229 255
209 229 255
209 229 255
209 229 255
209 229 255
209 229 255
209 229 255
209 229 255
209 229 255
209 229 255
209 229 255
209 229 255
210 229 255
210 229 255
210 229 255
210 229 255
210 229 255
210 229 255
210 229 255
210 229 255
210 229 255
210 229 255
210 229 255
210 229 255
210 229 255
210 229 255
210 229 255
210 229 255
210 229 255
210 229 255
210 229 255
210 229 255
210 230 255
210 230 255
210 230 255
211 230 255
211 230 255
211 230 255
211 230 255
211 230 255
211 230 255
211 230 255
211 230 255
211 230 255
211 230 255
211 230 255
211 230 255
211 230 255
211 230 255
211 230 255
211 230 255
211 230 255
211 230 255
211 230 255
211 230 255
211 230 255
211 230 255
211 230 255
211 230 255
211 230 255
211 230 255
212 230 255
212 230 255
212 230 255
212 230 255
211 230 255
211 230 255
211 230 255
211 230 255
211 230 255
211 230 255
211 230 255
211 230 255
211 230 255
211 230 255
211 230 255
211 230 255
211 230 255
211 230 255
211 230 255
211 230 255
211 230 255
211 230 255
211 230 255
211 230 255
211 230 255
211 230 255
211 230 255
211 230 255
211 230 255
211 230 255
210 230 255
210 230 255
210 230 255
210 229 255
210 229 255
210 229 255
210 229 255
210 229 255
210 229 255
210 229 255
210 229 255
210 229 255
210 229 255
210 229 255
210 229 255
210 229 255
210 229 255
210 229 255
210 229 255
210 229 255
210 229 255
210 229 255
210 229 255
209 229 255
209 229 255
209 229 255
209 229 255
209 229 255
209 229 255
209 229 255
209 229 255
209 229 255
209 229 255
209 229 255
209 229 255
209 229 255
209 229 255
209 229 255
209 229 255
209 229 255
209 229 255
209 229 255
209 228 255
208 228 255
208 228 255
208 228 255
208 228 255
208 228 255
208 228 255
208 228 255
208 228 255
208 228 255
208 228 255
208 228 255
208 228 255
208 228 255
208 228 255
208 228 255
208 228 255
208 228 255
208 228 255
208 228 255
207 228 255
207 228 255
207 228 255
207 228 255
207 228 255
207 228 255
207 228 255
207 228 255
207 228 255
207 228 255
207 228 255
207 228 255
207 228 255
207 228 255
207 227 255
207 227 255
207 227 255
207 227 255
206 227 255
206 227 255
206 227 255
206 227 255
206 227 255
206 227 255
206 227 255
206 227 255
206 227 255
206 227 255
206 227 255
206 227 255
206 227 255
206 227 255
206 227 255
206 227 255
206 227 255
206 227 255
205 227 255
205 227 255
205 227 255
205 227 255
205 227 255
205 227 255
205 227 255
205 227 255
205 227 255
205 227 255
205 227 255
205 226 255
205 226 255
205 226 255
205 226 255
205 226 255
205 226 255
205 226 255
205 226 255
205 226 255
204 226 255
204 226 255
204 226 255
204 226 255
204 226 255
204 226 255
204 226 255
204 226 255
204 226 255
204 226 255
204 226 255
204 226 255
204 226 255
204 226 255
204 226 255
204 226 255
204 226 255
204 226 255
204 226 255
204 226 255
204 226 255
204 226 255
204 226 255
204 226 255
203 226 255
203 226 255
203 226 255
203 226 255
203 226 255
203 226 255
203 226 255
203 226 255
203 226 255
203 226 255
203 226 255
203 226 255
203 226 255
203 226 255
203 226 255
203 226 255
203 226 255
203 226 255
203 226 255
203 226 255
203 226 255
203 226 255
203 226 255
203 226 255
203 226 255
203 226 255
203 226 255
203 226 255
203 226 255
203 226 255
203 226 255
203 226 255
203 226 255
203 226 255
203 226 255
203 226 255
203 226 255
203 226 255
203 226 255
203 226 255
203 226 255
203 226 255
203 226 255
203 226 255
203 226 255
203 226 255
203 226 255
203 226 255
203 226 255
203 226 255
203 226 255
203 226 255
203 226 255
203 226 255
203 226 255
204 226 255
204 226 255
204 226 255
204 226 255
204 226 255
204 226 255
204 226 255
204 226 255
204 226 255
204 226 255
204 226 255
204 226 255
204 226 255
204 226 255
204 226 255
204 226 255
204 226 255
204 226 255
204 226 255
204 226 255
204 226 255
204 226 255
204 226 255
204 226 255
204 226 255
204 226 255
205 226 255
205 226 255
205 226 255
205 226 255
205 226 255
205 226 255
205 226 255
205 226 255
205 227 255
205 227 255
205 227 255
205 227 255
205 227 255
205 227 255
205 227 255
205 227 255
205 227 255
205 227 255
205 227 255
206 227 255
206 227 255
206 227 255
206 227 255
206 227 255
206 227 255
206 227 255
206 227 255
206 227 255
206 227 255
206 227 255
206 227 255
206 227 255
206 227 255
206 227 255
206 227 255
206 227 255
206 227 255
207 227 255
207 227 255
207 227 255
207 227 255
207 228 255
207 228 255
207 228 255
207 228 255
207 228 255
207 228 255
207 228 255
207 228 255
207 228 255
207 228 255
207 228 255
207 228 255
207 228 255
207 228 255
208 228 255
208 228 255
208 228 255
208 228 255
208 228 255
208 228 255
208 228 255
208 228 255
208 228 255
208 228 255
208 228 255
208 228 255
208 228 255
208 228 255
208 228 255
208 228 255
208 228 255
208 228 255
208 228 255
209 228 255
209 229 255
209 229 255
209 229 255
209 229 255
209 229 255
209 229 255
209 229 255
209 229 255
209 229 255
209 229 255
209 229 255
209 229 255
209 229 255
209 229 255
209 229 255
209 229 255
209 229 255
209 229 255
209 229 255
210 229 255
210 229 255
210 229 255
210 229 255
210 229 255
210 229 255
210 229 255
210 229 255
210 229 255
210 229 255
210 229 255
210 229 255
210 229 255
210 229 255
210 229 255
210 229 255
210 229 255
210 229 255
210 229 255
210 229 255
210 230 255
210 230 255
210 230 255
211 230 255
211 230 255
211 230 255
211 230 255
211 230 255
211 230 255
211 230 255
211 230 255
211 230 255
211 230 255
211 230 255
211 230 255
211 230 255
211 230 255
211 230 255
211 230 255
211 230 255
211 230 255
211 230 255
211 230 255
211 230 255
211 230 255
211 230 255
211 230 255
211 230 255
211 230 255
212 230 255
212 230 255
212 230 255
212 230 255
212 230 255
212 230 255
212 230 255
212 230 255
212 230 255
212 230 255
212 230 255
212 230 255
211 230 255
211 230 255
211 230 255
211 230 255
211 230 255
211 230 255
211 230 255
211 230 255
211 230 255
211 230 255
211 230 255
211 230 255
211 230 255
211 230 255
211 230 255
211 230 255
211 230 255
211 230 255
211 230 255
211 230 255
211 230 255
211 230 255
211 230 255
211 230 255
211 230 255
211 230 255
210 230 255
210 230 255
210 230 255
210 229 255
210 229 255
210 229 255
210 229 255
210 229 255
210 229 255
210 229 255
210 229 255
210 229 255
210 229 255
210 229 255
210 229 255
210 229 255
210 229 255
210 229 255
210 229 255
210 229 255
210 229 255
210 229 255
210 229 255
209 229 255
209 229 255
209 229 255
209 229 255
209 229 255
209 229 255
209 229 255
209 229 255
209 229 255
209 229 255
209 229 255
209 229 255
209 229 255
209 229 255
209 229 255
209 229 255
209 229 255
209 229 255
209 229 255
209 228 255
208 228 255
208 228 255
208 228 255
208 228 255
208 228 255
208 228 255
208 228 255
208 228 255
208 228 255
208 228 255
208 228 255
208 228 255
208 228 255
208 228 255
208 228 255
208 228 255
208 228 255
208 228 255
208 228 255
207 228 255
207 228 255
207 228 255
207 228 255
207 228 255
207 228 255
207 228 255
207 228 255
207 228 255
207 228 255
207 228 255
207 228 255
207 228 255
207 228 255
207 227 255
207 227 255
207 227 255
207 227 255
206 227 255
206 227 255
206 227 255
206 227 255
206 227 255
206 227 255
206 227 255
206 227 255
206 227 255
206 227 255
206 227 255
206 227 255
206 227 255
206 227 255
206 227 255
206 227 255
206 227 255
206 227 255
205 227 255
205 227 255
205 227 255
205 227 255
205 227 255
205 227 255
205 227 255
205 227 255
205 227 255
205 227 255
205 227 255
205 227 255
205 226 255
205 226 255
205 226 255
205 226 255
205 226 255
205 226 255
205 226 255
205 226 255
205 226 255
204 226 255
204 226 255
204 226 255
204 226 255
204 226 255
204 226 255
204 226 255
204 226 255
204 226 255
204 226 255
204 226 255
204 226 255
204 226 255
204 226 255
204 226 255
204 226 255
204 226 255
204 226 255
204 226 255
204 226 255
204 226 255
204 226 255
204 226 255
204 226 255
204 226 255
204 226 255
204 226 255
204 226 255
204 226 255
203 226 255
203 226 255
203 226 255
203 226 255
203 226 255
203 226 255
203 226 255
203 226 255
203 226 255
203 226 255
203 226 255
203 226 255
203 226 255
203 226 255
203 226 255
203 226 255
203 226 255
203 226 255
203 226 255
203 226 255
203 226 255
203 226 255
203 226 255
203 226 255
203 226 255
203 226 255
203 226 255
203 226 255
203 226 255
203 226 255
203 226 255
203 226 255
203 226 255
203 226 255
203 226 255
203 226 255
204 226 255
204 226 255
204 226 255
204 226 255
204 226 255
204 226 255
204 226 255
204 226 255
204 226 255
204 226 255
204 226 255
204 226 255
204 226 255
204 226 255
204 226 255
204 226 255
204 226 255
204 226 255
204 226 255
204 226 255
204 226 255
204 226 255
204 226 255
204 226 255
204 226 255
204 226 255
204 226 255
204 226 255
204 226 255
204 226 255
205 226 255
205 226 255
205 226 255
205 226 255
205 226 255
205 226 255
205 226 255
205 226 255
205 227 255
205 227 255
205 227 255
205 227 255
205 227 255
205 227 255
205 227 255
205 227 255
205 227 255
205 227 255
205 227 255
205 227 255
206 227 255
206 227 255
206 227 255
206 227 255
206 227 255
206 227 255
206 227 255
206 227 255
206 227 255
206 227 255
206 227 255
206 227 255
206 227 255
206 227 255
206 227 255
206 227 255
206 227 255
206 227 255
207 227 255
207 227 255
207 227 255
207 227 255
207 228 255
207 228 255
207 228 255
207 228 255
207 228 255
207 228 255
207 228 255
207 228 255
207 228 255
207 228 255
207 228 255
207 228 255
207 228 255
207 228 255
208 228 255
208 228 255
208 228 255
208 228 255
208 228 255
208 228 255
208 228 255
208 228 255
208 228 255
208 228 255
208 228 255
208 228 255
208 228 255
208 228 255
208 228 255
208 228 255
208 228 255
208 228 255
208 228 255
209 228 255
209 229 255
209 229 255
209 229 255
209 229 255
209 229 255
209 229 255
209 229 255
209 229 255
209 229 255
209 229 255
209 229 255
209 229 255
209 229 255
209 229 255
209 229 255
209 229 255
209 229 255
209 229 255
209 229 255
210 229 255
210 229 255
210 229 255
210 229 255
210 229 255
210 229 255
210 229 255
210 229 255
210 229 255
210 229 255
210 229 255
210 229 255
210 229 255
210 229 255
210 229 255
210 229 255
210 229 255
210 229 255
210 229 255
210 229 255
210 230 255
210 230 255
211 230 255
211 230 255
211 230 255
211 230 255
211 230 255
211 230 255
211 230 255
211 230 255
211 230 255
211 230 255
211 230 255
211 230 255
211 230 255
211 230 255
211 230 255
211 230 255
211 230 255
211 230 255
211 230 255
211 230 255
211 230 255
211 230 255
211 230 255
211 230 255
211 230 255
211 230 255
211 230 255
212 230 255
212 230 255
212 230 255
212 230 255
212 230 255
212 230 255
212 230 255
212 230 255
212 230 255
212 230 255
212 230 255
212 230 255
212 230 255
212 230 255
212 230 255
212 230 255
212 230 255
212 230 255
212 230 255
212 230 255
212 230 255
211 230 255
211 230 255
211 230 255
211 230 255
211 230 255
211 230 255
211 230 255
211 230 255
211 230 255
211 230 255
211 230 255
211 230 255
211 230 255
211 230 255
211 230 255
211 230 255
211 230 255
211 230 255
211 230 255
211 230 255
211 230 255
211 230 255
211 230 255
211 230 255
211 230 255
210 230 255
210 230 255
210 230 255
210 229 255
210 229 255
210 229 255
210 229 255
210 229 255
210 229 255
210 229 255
210 229 255
210 229 255
210 229 255
210 229 255
210 229 255
210 229 255
210 229 255
210 229 255
210 229 255
210 229 255
210 229 255
210 229 255
210 229 255
209 229 255
209 229 255
209 229 255
209 229 255
209 229 255
209 229 255
209 229 255
209 229 255
209 229 255
209 229 255
209 229 255
209 229 255
209 229 255
209 229 255
209 229 255
209 229 255
209 229 255
209 229 255
209 229 255
209 228 255
208 228 255
208 228 255
208 228 255
208 228 255
208 228 255
208 228 255
208 228 255
208 228 255
208 228 255
208 228 255
208 228 255
208 228 255
208 228 255
208 228 255
208 228 255
208 228 255
208 228 255
208 228 255
208 228 255
207 228 255
207 228 255
207 228 255
207 228 255
207 228 255
207 228 255
207 228 255
207 228 255
207 228 255
207 228 255
207 228 255
207 228 255
207 228 255
207 228 255
207 227 255
207 227 255
207 227 255
207 227 255
206 227 255
206 227 255
206 227 255
206 227 255
206 227 255
206 227 255
206 227 255
206 227 255
206 227 255
206 227 255
206 227 255
206 227 255
206 227 255
206 227 255
206 227 255
206 227 255
206 227 255
206 227 255
206 227 255
205 227 255
205 227 255
205 227 255
205 227 255
205 227 255
205 227 255
205 227 255
205 227 255
205 227 255
205 227 255
205 227 255
205 227 255
205 226 255
205 226 255
205 226 255
205 226 255
205 226 255
205 226 255
205 226 255
205 226 255
205 226 255
204 226 255
204 226 255
204 226 255
204 226 255
204 226 255
204 226 255
204 226 255
204 226 255
204 226 255
204 226 255
204 226 255
204 226 255
204 226 255
204 226 255
204 226 255
204 226 255
204 226 255
204 226 255
204 226 255
204 226 255
204 226 255
204 226 255
204 226 255
204 226 255
204 226 255
204 226 255
204 226 255
204 226 255
204 226 255
204 226 255
204 226 255
204 226 255
204 226 255
204 226 255
204 226 255
204 226 255
204 226 255
204 226 255
204 226 255
204 226 255
204 226 255
204 226 255
204 226 255
204 226 255
204 226 255
204 226 255
204 226 255
204 226 255
204 226 255
204 226 255
204 226 255
204 226 255
204 226 255
204 226 255
204 226 255
204 226 255
204 226 255
204 226 255
204 226 255
204 226 255
204 226 255
204 226 255
204 226 255
204 226 255
204 226 255
204 226 255
204 226 255
204 226 255
204 226 255
204 226 255
204 226 255
204 226 255
204 226 255
204 226 255
204 226 255
204 226 255
204 226 255
204 226 255
204 226 255
204 226 255
204 226 255
204 226 255
204 226 255
204 226 255
205 226 255
205 226 255
205 226 255
205 226 255
205 226 255
205 226 255
205 226 255
205 226 255
205 226 255
205 227 255
205 227 255
205 227 255
205 227 255
205 227 255
205 227 255
205 227 255
205 227 255
205 227 255
205 227 255
205 227 255
205 227 255
206 227 255
206 227 255
206 227 255
206 227 255
206 227 255
206 227 255
206 227 255
206 227 255
206 227 255
206 227 255
206 227 255
206 227 255
206 227 255
206 227 255
206 227 255
206 227 255
206 227 255
206 227 255
206 227 255
207 227 255
207 227 255
207 227 255
207 227 255
207 228 255
207 228 255
207 228 255
207 228 255
207 228 255
207 228 255
207 228 255
207 228 255
207 228 255
207 228 255
207 228 255
207 228 255
207 228 255
207 228 255
208 228 255
208 228 255
208 228 255
208 228 255
208 228 255
208 228 255
208 228 255
208 228 255
208 228 255
208 228 255
208 228 255
208 228 255
208 228 255
208 228 255
208 228 255
208 228 255
208 228 255
208 228 255
208 228 255
209 228 255
209 229 255
209 229 255
209 229 255
209 229 255
209 229 255
209 229 255
209 229 255
209 229 255
209 229 255
209 229 255
209 229 255
209 229 255
209 229 255
209 229 255
209 229 255
209 229 255
209 229 255
209 229 255
209 229 255
210 229 255
210 229 255
210 229 255
210 229 255
210 229 255
210 229 255
210 229 255
210 229 255
210 229 255
210 229 255
210 229 255
210 229 255
210 229 255
210 229 255
210 229 255
210 229 255
210 229 255
210 229 255
210 229 255
210 229 255
210 230 255
210 230 255
210 230 255
211 230 255
211 230 255
211 230 255
211 230 255
211 230 255
211 230 255
211 230 255
211 230 255
211 230 255
211 230 255
211 230 255
211 230 255
211 230 255
211 230 255
211 230 255
211 230 255
211 230 255
211 230 255
211 230 255
211 230 255
211 230 255
211 230 255
211 230 255
211 230 255
211 230 255
212 230 255
212 230 255
212 230 255
212 230 255
212 230 255
212 230 255
212 230 255
212 230 255
212 230 255
212 230 255
212 230 255
212 230 255
212 230 255
212 230 255
212 230 255
212 230 255
212 230 255
212 230 255
212 230 255
212 230 255
212 230 255
212 230 255
212 230 255
212 230 255
212 230 255
212 230 255
212 230 255
212 230 255
212 230 255
212 230 255
211 230 255
211 230 255
211 230 255
211 230 255
211 230 255
211 230 255
211 230 255
211 230 255
211 230 255
211 230 255
211 230 255
211 230 255
211 230 255
211 230 255
211 230 255
211 230 255
211 230 255
211 230 255
211 230 255
211 230 255
211 230 255
211 230 255
211 230 255
211 230 255
211 230 255
211 230 255
210 230 255
210 230 255
210 229 255
210 229 255
210 229 255
210 229 255
210 229 255
210 229 255
210 229 255
210 229 255
210 229 255
210 229 255
210 229 255
210 229 255
210 229 255
210 229 255
210 229 255
210 229 255
210 229 255
210 229 255
210 229 255
210 229 255
209 229 255
209 229 255
209 229 255
209 229 255
209 229 255
209 229 255
209 229 255
209 229 255
209 229 255
209 229 255
209 229 255
209 229 255
209 229 255
209 229 255
209 229 255
209 229 255
209 229 255
209 229 255
209 228 255
209 228 255
208 228 255
208 228 255
208 228 255
208 228 255
208 228 255
208 228 255
208 228 255
208 228 255
208 228 255
208 228 255
208 228 255
208 228 255
208 228 255
208 228 255
208 228 255
208 228 255
208 228 255
208 228 255
208 228 255
207 228 255
207 228 255
207 228 255
207 228 255
207 228 255
207 228 255
207 228 255
207 228 255
207 228 255
207 228 255
207 228 255
207 228 255
207 228 255
207 228 255
207 227 255
207 227 255
207 227 255
207 227 255
206 227 255
206 227 255
206 227 255
206 227 255
206 227 255
206 227 255
206 227 255
206 227 255
206 227 255
206 227 255
206 227 255
206 227 255
206 227 255
206 227 255
206 227 255
206 227 255
206 227 255
206 227 255
206 227 255
205 227 255
205 227 255
205 227 255
205 227 255
205 227 255
205 227 255
205 227 255
205 227 255
205 227 255
205 227 255
205 227 255
205 227 255
205 227 255
205 226 255
205 226 255
205 226 255
205 226 255
205 226 255
205 226 255
205 226 255
205 226 255
205 226 255
205 226 255
204 226 255
204 226 255
204 226 255
204 226 255
204 226 255
204 226 255
204 226 255
204 226 255
204 226 255
204 226 255
204 226 255
204 226 255
204 226 255
204 226 255
204 226 255
204 226 255
204 226 255
204 226 255
204 226 255
204 226 255
204 226 255
204 226 255
204 226 255
204 226 255
204 226 255
204 226 255
204 226 255
204 226 255
204 226 255
204 226 255
204 226 255
204 226 255
204 226 255
204 226 255
204 226 255
204 226 255
204 226 255
204 226 255
204 226 255
204 226 255
204 226 255
204 226 255
204 226 255
204 226 255
204 226 255
204 226 255
204 226 255
204 226 255
204 226 255
204 226 255
204 226 255
204 226 255
204 226 255
204 226 255
204 226 255
204 226 255
204 226 255
204 226 255
204 226 255
204 226 255
204 226 255
204 226 255
204 226 255
204 226 255
204 226 255
204 226 255
204 226 255
204 226 255
204 226 255
204 226 255
204 226 255
204 226 255
205 226 255
205 226 255
205 226 255
205 226 255
205 226 255
205 226 255
205 226 255
205 226 255
205 226 255
205 226 255
205 227 255
205 227 255
205 227 255
205 227 255
205 227 255
205 227 255
205 227 255
205 227 255
205 227 255
205 227 255
205 227 255
205 227 255
205 227 255
206 227 255
206 227 255
206 227 255
206 227 255
206 227 255
206 227 255
206 227 255
206 227 255
206 227 255
206 227 255
206 227 255
206 227 255
206 227 255
206 227 255
206 227 255
206 227 255
206 227 255
206 227 255
206 227 255
207 227 255
207 227 255
207 227 255
207 227 255
207 228 255
207 228 255
207 228 255
207 228 255
207 228 255
207 228 255
207 228 255
207 228 255
207 228 255
207 228 255
207 228 255
207 228 255
207 228 255
207 228 255
208 228 255
208 228 255
208 228 255
208 228 255
208 228 255
208 228 255
208 228 255
208 228 255
208 228 255
208 228 255
208 228 255
208 228 255
208 228 255
208 228 255
208 228 255
208 228 255
208 228 255
208 228 255
208 228 255
209 228 255
209 229 255
209 229 255
209 229 255
209 229 255
209 229 255
209 229 255
209 229 255
209 229 255
209 229 255
209 229 255
209 229 255
209 229 255
209 229 255
209 229 255
209 229 255
209 229 255
209 229 255
209 229 255
209 229 255
210 229 255
210 229 255
210 229 255
210 229 255
210 229 255
210 229 255
210 229 255
210 229 255
210 229 255
210 229 255
210 229 255
210 229 255
210 229 255
210 229 255
210 229 255
210 229 255
210 229 255
210 229 255
210 229 255
210 229 255
210 230 255
210 230 255
211 230 255
211 230 255
211 230 255
211 230 255
211 230 255
211 230 255
211 230 255
211 230 255
211 230 255
211 230 255
211 230 255
211 230 255
211 230 255
211 230 255
211 230 255
211 230 255
211 230 255
211 230 255
211 230 255
211 230 255
211 230 255
211 230 255
211 230 255
211 230 255
211 230 255
211 230 255
212 230 255
212 230 255
212 230 255
212 230 255
212 230 255
212 230 255
212 230 255
212 230 255
212 230 255
212 230 255
212 230 255
212 230 255
212 230 255
212 230 255
212 230 255
212 230 255
212 230 255
212 231 255
212 231 255
212 230 255
212 230 255
212 230 255
212 230 255
212 230 255
212 230 255
212 230 255
212 230 255
212 230 255
212 230 255
212 230 255
212 230 255
212 230 255
212 230 255
212 230 255
212 230 255
212 230 255
212 230 255
212 230 255
212 230 255
211 230 255
211 230 255
211 230 255
211 230 255
211 230 255
211 230 255
211 230 255
211 230 255
211 230 255
211 230 255
211 230 255
211 230 255
211 230 255
211 230 255
211 230 255
211 230 255
211 230 255
211 230 255
211 230 255
211 230 255
211 230 255
211 230 255
211 230 255
211 230 255
211 230 255
210 230 255
210 230 255
210 229 255
210 229 255
210 229 255
210 229 255
210 229 255
210 229 255
210 229 255
210 229 255
210 229 255
210 229 255
210 229 255
210 229 255
210 229 255
210 229 255
210 229 255
210 229 255
210 229 255
210 229 255
210 229 255
210 229 255
209 229 255
209 229 255
209 229 255
209 229 255
209 229 255
209 229 255
209 229 255
209 229 255
209 229 255
209 229 255
209 229 255
209 229 255
209 229 255
209 229 255
209 229 255
209 229 255
209 229 255
209 229 255
209 229 255
209 228 255
208 228 255
208 228 255
208 228 255
208 228 255
208 228 255
208 228 255
208 228 255
208 228 255
208 228 255
208 228 255
208 228 255
208 228 255
208 228 255
208 228 255
208 228 255
208 228 255
208 228 255
208 228 255
208 228 255
207 228 255
207 228 255
207 228 255
207 228 255
207 228 255
207 228 255
207 228 255
207 228 255
207 228 255
207 228 255
207 228 255
207 228 255
207 228 255
207 228 255
207 227 255
207 227 255
207 227 255
207 227 255
206 227 255
206 227 255
206 227 255
206 227 255
206 227 255
206 227 255
206 227 255
206 227 255
206 227 255
206 227 255
206 227 255
206 227 255
206 227 255
206 227 255
206 227 255
206 227 255
206 227 255
206 227 255
206 227 255
206 227 255
206 227 255
205 227 255
205 227 255
205 227 255
205 227 255
205 227 255
205 227 255
205 227 255
205 227 255
205 227 255
205 227 255
205 227 255
205 227 255
205 227 255
205 226 255
205 226 255
205 226 255
205 226 255
205 226 255
205 226 255
205 226 255
205 226 255
205 226 255
205 226 255
205 226 255
205 226 255
204 226 255
204 226 255
204 226 255
204 226 255
204 226 255
204 226 255
204 226 255
204 226 255
204 226 255
204 226 255
204 226 255
204 226 255
204 226 255
204 226 255
204 226 255
204 226 255
204 226 255
204 226 255
204 226 255
204 226 255
204 226 255
204 226 255
204 226 255
204 226 255
204 226 255
204 226 255
204 226 255
204 226 255
204 226 255
204 226 255
204 226 255
204 226 255
204 226 255
204 226 255
204 226 255
204 226 255
204 226 255
204 226 255
204 226 255
204 226 255
204 226 255
204 226 255
204 226 255
204 226 255
204 226 255
204 226 255
204 226 255
204 226 255
204 226 255
204 226 255
204 226 255
204 226 255
204 226 255
204 226 255
204 226 255
204 226 255
205 226 255
205 226 255
205 226 255
205 226 255
205 226 255
205 226 255
205 226 255
205 226 255
205 226 255
205 226 255
205 226 255
205 226 255
205 227 255
205 227 255
205 227 255
205 227 255
205 227 255
205 227 255
205 227 255
205 227 255
205 227 255
205 227 255
205 227 255
205 227 255
205 227 255
205 227 255
206 227 255
206 227 255
206 227 255
206 227 255
206 227 255
206 227 255
206 227 255
206 227 255
206 227 255
206 227 255
206 227 255
206 227 255
206 227 255
206 227 255
206 227 255
206 227 255
206 227 255
206 227 255
206 227 255
206 227 255
207 227 255
207 227 255
207 227 255
207 227 255
207 228 255
207 228 255
207 228 255
207 228 255
207 228 255
207 228 255
207 228 255
207 228 255
207 228 255
207 228 255
207 228 255
207 228 255
207 228 255
207 228 255
208 228 255
208 228 255
208 228 255
208 228 255
208 228 255
208 228 255
208 228 255
208 228 255
208 228 255
208 228 255
208 228 255
208 228 255
208 228 255
208 228 255
208 228 255
208 228 255
208 228 255
208 228 255
208 228 255
209 228 255
209 228 255
209 229 255
209 229 255
209 229 255
209 229 255
209 229 255
209 229 255
209 229 255
209 229 255
209 229 255
209 229 255
209 229 255
209 229 255
209 229 255
209 229 255
209 229 255
209 229 255
209 229 255
209 229 255
210 229 255
210 229 255
210 229 255
210 229 255
210 229 255
210 229 255
210 229 255
210 229 255
210 229 255
210 229 255
210 229 255
210 229 255
210 229 255
210 229 255
210 229 255
210 229 255
210 229 255
210 229 255
210 229 255
210 229 255
210 230 255
210 230 255
211 230 255
211 230 255
211 230 255
211 230 255
211 230 255
211 230 255
211 230 255
211 230 255
211 230 255
211 230 255
211 230 255
211 230 255
211 230 255
211 230 255
211 230 255
211 230 255
211 230 255
211 230 255
211 230 255
211 230 255
211 230 255
211 230 255
211 230 255
211 230 255
211 230 255
212 230 255
212 230 255
212 230 255
212 230 255
212 230 255
212 230 255
212 230 255
212 230 255
212 230 255
212 230 255
212 230 255
212 230 255
212 230 255
212 230 255
212 230 255
212 230 255
212 230 255
212 230 255
212 230 255
212 230 255
212 231 255
212 231 255
212 231 255
212 231 255
212 231 255
212 231 255
212 231 255
212 231 255
212 230 255
212 230 255
212 230 255
212 230 255
212 230 255
212 230 255
212 230 255
212 230 255
212 230 255
212 230 255
212 230 255
212 230 255
212 230 255
212 230 255
212 230 255
212 230 255
212 230 255
212 230 255
212 230 255
212 230 255
211 230 255
211 230 255
211 230 255
211 230 255
211 230 255
211 230 255
211 230 255
211 230 255
211 230 255
211 230 255
211 230 255
211 230 255
211 230 255
211 230 255
211 230 255
211 230 255
211 230 255
211 230 255
211 230 255
211 230 255
211 230 255
211 230 255
211 230 255
211 230 255
211 230 255
210 230 255
210 230 255
210 229 255
210 229 255
210 229 255
210 229 255
210 229 255
210 229 255
210 229 255
210 229 255
210 229 255
210 229 255
210 229 255
210 229 255
210 229 255
210 229 255
210 229 255
210 229 255
210 229 255
210 229 255
210 229 255
210 229 255
209 229 255
209 229 255
209 229 255
209 229 255
209 229 255
209 229 255
209 229 255
209 229 255
209 229 255
209 229 255
209 229 255
209 229 255
209 229 255
209 229 255
209 229 255
209 229 255
209 229 255
209 229 255
209 229 255
209 228 255
208 228 255
208 228 255
208 228 255
208 228 255
208 228 255
208 228 255
208 228 255
208 228 255
208 228 255
208 228 255
208 228 255
208 228 255
208 228 255
208 228 255
208 228 255
208 228 255
208 228 255
208 228 255
208 228 255
207 228 255
207 228 255
207 228 255
207 228 255
207 228 255
207 228 255
207 228 255
207 228 255
207 228 255
207 228 255
207 228 255
207 228 255
207 228 255
207 228 255
207 227 255
207 227 255
207 227 255
207 227 255
207 227 255
206 227 255
206 227 255
206 227 255
206 227 255
206 227 255
206 227 255
206 227 255
206 227 255
206 227 255
206 227 255
206 227 255
206 227 255
206 227 255
206 227 255
206 227 255
206 227 255
206 227 255
206 227 255
206 227 255
206 227 255
206 227 255
205 227 255
205 227 255
205 227 255
205 227 255
205 227 255
205 227 255
205 227 255
205 227 255
205 227 255
205 227 255
205 227 255
205 227 255
205 227 255
205 227 255
205 227 255
205 226 255
205 226 255
205 226 255
205 226 255
205 226 255
205 226 255
205 226 255
205 226 255
205 226 255
205 226 255
205 226 255
205 226 255
205 226 255
205 226 255
205 226 255
205 226 255
204 226 255
204 226 255
204 226 255
204 226 255
204 226 255
204 226 255
204 226 255
204 226 255
204 226 255
204 226 255
204 226 255
204 226 255
204 226 255
204 226 255
204 226 255
204 226 255
204 226 255
204 226 255
204 226 255
204 226 255
204 226 255
204 226 255
204 226 255
204 226 255
204 226 255
204 226 255
204 226 255
204 226 255
204 226 255
204 226 255
204 226 255
204 226 255
204 226 255
204 226 255
204 226 255
205 226 255
205 226 255
205 226 255
205 226 255
205 226 255
205 226 255
205 226 255
205 226 255
205 226 255
205 226 255
205 226 255
205 226 255
205 226 255
205 226 255
205 226 255
205 227 255
205 227 255
205 227 255
205 227 255
205 227 255
205 227 255
205 227 255
205 227 255
205 227 255
205 227 255
205 227 255
205 227 255
205 227 255
205 227 255
205 227 255
206 227 255
206 227 255
206 227 255
206 227 255
206 227 255
206 227 255
206 227 255
206 227 255
206 227 255
206 227 255
206 227 255
206 227 255
206 227 255
206 227 255
206 227 255
206 227 255
206 227 255
206 227 255
206 227 255
206 227 255
206 227 255
207 227 255
207 227 255
207 227 255
207 227 255
207 227 255
207 228 255
207 228 255
207 228 255
207 228 255
207 228 255
207 228 255
207 228 255
207 228 255
207 228 255
207 228 255
207 228 255
207 228 255
207 228 255
207 228 255
208 228 255
208 228 255
208 228 255
208 228 255
208 228 255
208 228 255
208 228 255
208 228 255
208 228 255
208 228 255
208 228 255
208 228 255
208 228 255
208 228 255
208 228 255
208 228 255
208 228 255
208 228 255
208 228 255
209 228 255
209 229 255
209 229 255
209 229 255
209 229 255
209 229 255
209 229 255
209 229 255
209 229 255
209 229 255
209 229 255
209 229 255
209 229 255
209 229 255
209 229 255
209 229 255
209 229 255
209 229 255
209 229 255
209 229 255
210 229 255
210 229 255
210 229 255
210 229 255
210 229 255
210 229 255
210 229 255
210 229 255
210 229 255
210 229 255
210 229 255
210 229 255
210 229 255
210 229 255
210 229 255
210 229 255
210 229 255
210 229 255
210 229 255
210 230 255
210 230 255
210 230 255
211 230 255
211 230 255
211 230 255
211 230 255
211 230 255
211 230 255
211 230 255
211 230 255
211 230 255
211 230 255
211 230 255
211 230 255
211 230 255
211 230 255
211 230 255
211 230 255
211 230 255
211 230 255
211 230 255
211 230 255
211 230 255
211 230 255
211 230 255
211 230 255
211 230 255
212 230 255
212 230 255
212 230 255
212 230 255
212 230 255
212 230 255
212 230 255
212 230 255
212 230 255
212 230 255
212 230 255
212 230 255
212 230 255
212 230 255
212 230 255
212 230 255
212 230 255
212 230 255
212 230 255
212 230 255
212 231 255
212 231 255
212 231 255
212 231 255
212 231 255
212 231 255
213 231 255
213 231 255
212 231 255
212 231 255
212 231 255
212 231 255
212 231 255
212 231 255
212 231 255
212 231 255
212 231 255
212 230 255
212 230 255
212 230 255
212 230 255
212 230 255
212 230 255
212 230 255
212 230 255
212 230 255
212 230 255
212 230 255
212 230 255
212 230 255
212 230 255
212 230 255
212 230 255
212 230 255
212 230 255
212 230 255
212 230 255
211 230 255
211 230 255
211 230 255
211 230 255
211 230 255
211 230 255
211 230 255
211 230 255
211 230 255
211 230 255
211 230 255
211 230 255
211 230 255
211 230 255
211 230 255
211 230 255
211 230 255
211 230 255
211 230 255
211 230 255
211 230 255
211 230 255
211 230 255
211 230 255
210 230 255
210 230 255
210 230 255
210 229 255
210 229 255
210 229 255
210 229 255
210 229 255
210 229 255
210 229 255
210 229 255
210 229 255
210 229 255
210 229 255
210 229 255
210 229 255
210 229 255
210 229 255
210 229 255
210 229 255
210 229 255
210 229 255
209 229 255
209 229 255
209 229 255
209 229 255
209 229 255
209 229 255
209 229 255
209 229 255
209 229 255
209 229 255
209 229 255
209 229 255
209 229 255
209 229 255
209 229 255
209 229 255
209 229 255
209 229 255
209 229 255
209 228 255
208 228 255
208 228 255
208 228 255
208 228 255
208 228 255
208 228 255
208 228 255
208 228 255
208 228 255
208 228 255
208 228 255
208 228 255
208 228 255
208 228 255
208 228 255
208 228 255
208 228 255
208 228 255
208 228 255
207 228 255
207 228 255
207 228 255
207 228 255
207 228 255
207 228 255
207 228 255
207 228 255
207 228 255
207 228 255
207 228 255
207 228 255
207 228 255
207 228 255
207 228 255
207 227 255
207 227 255
207 227 255
207 227 255
207 227 255
206 227 255
206 227 255
206 227 255
206 227 255
206 227 255
206 227 255
206 227 255
206 227 255
206 227 255
206 227 255
206 227 255
206 227 255
206 227 255
206 227 255
206 227 255
206 227 255
206 227 255
206 227 255
206 227 255
206 227 255
206 227 255
206 227 255
205 227 255
205 227 255
205 227 255
205 227 255
205 227 255
205 227 255
205 227 255
205 227 255
205 227 255
205 227 255
205 227 255
205 227 255
205 227 255
205 227 255
205 227 255
205 227 255
205 227 255
205 227 255
205 226 255
205 226 255
205 226 255
205 226 255
205 226 255
205 226 255
205 226 255
205 226 255
205 226 255
205 226 255
205 226 255
205 226 255
205 226 255
205 226 255
205 226 255
205 226 255
205 226 255
205 226 255
205 226 255
205 226 255
205 226 255
205 226 255
205 226 255
205 226 255
205 226 255
205 226 255
205 226 255
205 226 255
205 226 255
205 226 255
205 226 255
205 226 255
205 226 255
205 226 255
205 226 255
205 226 255
205 226 255
205 226 255
205 226 255
205 226 255
205 226 255
205 226 255
205 226 255
205 226 255
205 226 255
205 226 255
205 226 255
205 226 255
205 227 255
205 227 255
205 227 255
205 227 255
205 227 255
205 227 255
205 227 255
205 227 255
205 227 255
205 227 255
205 227 255
205 227 255
205 227 255
205 227 255
205 227 255
205 227 255
205 227 255
205 227 255
206 227 255
206 227 255
206 227 255
206 227 255
206 227 255
206 227 255
206 227 255
206 227 255
206 227 255
206 227 255
206 227 255
206 227 255
206 227 255
206 227 255
206 227 255
206 227 255
206 227 255
206 227 255
206 227 255
206 227 255
206 227 255
206 227 255
207 227 255
207 227 255
207 227 255
207 227 255
207 227 255
207 228 255
207 228 255
207 228 255
207 228 255
207 228 255
207 228 255
207 228 255
207 228 255
207 228 255
207 228 255
207 228 255
207 228 255
207 228 255
207 228 255
207 228 255
208 228 255
208 228 255
208 228 255
208 228 255
208 228 255
208 228 255
208 228 255
208 228 255
208 228 255
208 228 255
208 228 255
208 228 255
208 228 255
208 228 255
208 228 255
208 228 255
208 228 255
208 228 255
208 228 255
209 228 255
209 229 255
209 229 255
209 229 255
209 229 255
209 229 255
209 229 255
209 229 255
209 229 255
209 229 255
209 229 255
209 229 255
209 229 255
209 229 255
209 229 255
209 229 255
209 229 255
209 229 255
209 229 255
209 229 255
210 229 255
210 229 255
210 229 255
210 229 255
210 229 255
210 229 255
210 229 255
210 229 255
210 229 255
210 229 255
210 229 255
210 229 255
210 229 255
210 229 255
210 229 255
210 229 255
210 229 255
210 229 255
210 229 255
210 230 255
210 230 255
210 230 255
211 230 255
211 230 255
211 230 255
211 230 255
211 230 255
211 230 255
211 230 255
211 230 255
211 230 255
211 230 255
211 230 255
211 230 255
211 230 255
211 230 255
211 230 255
211 230 255
211 230 255
211 230 255
211 230 255
211 230 255
211 230 255
211 230 255
211 230 255
211 230 255
212 230 255
212 230 255
212 230 255
212 230 255
212 230 255
212 230 255
212 230 255
212 230 255
212 230 255
212 230 255
212 230 255
212 230 255
212 230 255
212 230 255
212 230 255
212 230 255
212 230 255
212 230 255
212 230 255
212 230 255
212 231 255
212 231 255
212 231 255
212 231 255
212 231 255
212 231 255
212 231 255
212 231 255
212 231 255
213 231 255
213 231 255
213 231 255
213 231 255
213 231 255
213 231 255
213 231 255
213 231 255
213 231 255
212 231 255
212 231 255
212 231 255
212 231 255
212 231 255
212 231 255
212 231 255
212 231 255
212 231 255
212 230 255
212 230 255
212 230 255
212 230 255
212 230 255
212 230 255
212 230 255
212 230 255
212 230 255
212 230 255
212 230 255
212 230 255
212 230 255
212 230 255
212 230 255
212 230 255
212 230 255
212 230 255
212 230 255
211 230 255
211 230 255
211 230 255
211 230 255
211 230 255
211 230 255
211 230 255
211 230 255
211 230 255
211 230 255
211 230 255
211 230 255
211 230 255
211 230 255
211 230 255
211 230 255
211 230 255
211 230 255
211 230 255
211 230 255
211 230 255
211 230 255
211 230 255
211 230 255
210 230 255
210 230 255
210 230 255
210 229 255
210 229 255
210 229 255
210 229 255
210 229 255
210 229 255
210 229 255
210 229 255
210 229 255
210 229 255
210 229 255
210 229 255
210 229 255
210 229 255
210 229 255
210 229 255
210 229 255
210 229 255
210 229 255
209 229 255
209 229 255
209 229 255
209 229 255
209 229 255
209 229 255
209 229 255
209 229 255
209 229 255
209 229 255
209 229 255
209 229 255
209 229 255
209 229 255
209 229 255
209 229 255
209 229 255
209 229 255
209 229 255
209 228 255
209 228 255
208 228 255
208 228 255
208 228 255
208 228 255
208 228 255
208 228 255
208 228 255
208 228 255
208 228 255
208 228 255
208 228 255
208 228 255
208 228 255
208 228 255
208 228 255
208 228 255
208 228 255
208 228 255
208 228 255
207 228 255
207 228 255
207 228 255
207 228 255
207 228 255
207 228 255
207 228 255
207 228 255
207 228 255
207 228 255
207 228 255
207 228 255
207 228 255
207 228 255
207 228 255
207 227 255
207 227 255
207 227 255
207 227 255
207 227 255
206 227 255
206 227 255
206 227 255
206 227 255
206 227 255
206 227 255
206 227 255
206 227 255
206 227 255
206 227 255
206 227 255
206 227 255
206 227 255
206 227 255
206 227 255
206 227 255
206 227 255
206 227 255
206 227 255
206 227 255
206 227 255
206 227 255
206 227 255
205 227 255
205 227 255
205 227 255
205 227 255
205 227 255
205 227 255
205 227 255
205 227 255
205 227 255
205 227 255
205 227 255
205 227 255
205 227 255
205 227 255
205 227 255
205 227 255
205 227 255
205 227 255
205 227 255
205 227 255
205 227 255
205 227 255
205 227 255
205 227 255
205 227 255
205 226 255
205 227 255
205 226 255
205 226 255
205 226 255
205 226 255
205 226 255
205 226 255
205 226 255
205 226 255
205 226 255
205 226 255
205 226 255
205 226 255
205 226 255
205 226 255
205 226 255
205 226 255
205 226 255
205 226 255
205 227 255
205 227 255
205 227 255
205 227 255
205 227 255
205 227 255
205 227 255
205 227 255
205 227 255
205 227 255
205 227 255
205 227 255
205 227 255
205 227 255
205 227 255
205 227 255
205 227 255
205 227 255
205 227 255
205 227 255
205 227 255
205 227 255
205 227 255
205 227 255
205 227 255
205 227 255
206 227 255
206 227 255
206 227 255
206 227 255
206 227 255
206 227 255
206 227 255
206 227 255
206 227 255
206 227 255
206 227 255
206 227 255
206 227 255
206 227 255
206 227 255
206 227 255
206 227 255
206 227 255
206 227 255
206 227 255
206 227 255
206 227 255
206 227 255
206 227 255
207 227 255
207 227 255
207 227 255
207 227 255
207 227 255
207 228 255
207 228 255
207 228 255
207 228 255
207 228 255
207 228 255
207 228 255
207 228 255
207 228 255
207 228 255
207 228 255
207 228 255
207 228 255
207 228 255
207 228 255
207 228 255
208 228 255
208 228 255
208 228 255
208 228 255
208 228 255
208 228 255
208 228 255
208 228 255
208 228 255
208 228 255
208 228 255
208 228 255
208 228 255
208 228 255
208 228 255
208 228 255
208 228 255
208 228 255
208 228 255
209 228 255
209 229 255
209 229 255
209 229 255
209 229 255
209 229 255
209 229 255
209 229 255
209 229 255
209 229 255
209 229 255
209 229 255
209 229 255
209 229 255
209 229 255
209 229 255
209 229 255
209 229 255
209 229 255
209 229 255
210 229 255
210 229 255
210 229 255
210 229 255
210 229 255
210 229 255
210 229 255
210 229 255
210 229 255
210 229 255
210 229 255
210 229 255
210 229 255
210 229 255
210 229 255
210 229 255
210 229 255
210 229 255
210 229 255
210 230 255
210 230 255
211 230 255
211 230 255
211 230 255
211 230 255
211 230 255
211 230 255
211 230 255
211 230 255
211 230 255
211 230 255
211 230 255
211 230 255
211 230 255
211 230 255
211 230 255
211 230 255
211 230 255
211 230 255
211 230 255
211 230 255
211 230 255
211 230 255
211 230 255
211 230 255
211 230 255
212 230 255
212 230 255
212 230 255
212 230 255
212 230 255
212 230 255
212 230 255
212 230 255
212 230 255
212 230 255
212 230 255
212 230 255
212 230 255
212 230 255
212 230 255
212 230 255
212 230 255
212 230 255
212 230 255
212 231 255
212 231 255
212 231 255
212 231 255
212 231 255
212 231 255
212 231 255
212 231 255
212 231 255
213 231 255
213 231 255
213 231 255
213 231 255
213 231 255
213 231 255
213 231 255
213 231 255
213 231 255
213 231 255
213 231 255
213 231 255
213 231 255
213 231 255
213 231 255
213 231 255
213 231 255
213 231 255
213 231 255
212 231 255
212 231 255
212 231 255
212 231 255
212 231 255
212 231 255
212 231 255
212 231 255
212 231 255
212 230 255
212 230 255
212 230 255
212 230 255
212 230 255
212 230 255
212 230 255
212 230 255
212 230 255
212 230 255
212 230 255
212 230 255
212 230 255
212 230 255
212 230 255
212 230 255
212 230 255
212 230 255
212 230 255
211 230 255
211 230 255
211 230 255
211 230 255
211 230 255
211 230 255
211 230 255
211 230 255
211 230 255
211 230 255
211 230 255
211 230 255
211 230 255
211 230 255
211 230 255
211 230 255
211 230 255
211 230 255
211 230 255
211 230 255
211 230 255
211 230 255
211 230 255
211 230 255
210 230 255
210 230 255
210 230 255
210 229 255
210 229 255
210 229 255
210 229 255
210 229 255
210 229 255
210 229 255
210 229 255
210 229 255
210 229 255
210 229 255
210 229 255
210 229 255
210 229 255
210 229 255
210 229 255
210 229 255
210 229 255
210 229 255
209 229 255
209 229 255
209 229 255
209 229 255
209 229 255
209 229 255
209 229 255
209 229 255
209 229 255
209 229 255
209 229 255
209 229 255
209 229 255
209 229 255
209 229 255
209 229 255
209 229 255
209 229 255
209 228 255
209 228 255
208 228 255
208 228 255
208 228 255
208 228 255
208 228 255
208 228 255
208 228 255
208 228 255
208 228 255
208 228 255
208 228 255
208 228 255
208 228 255
208 228 255
208 228 255
208 228 255
208 228 255
208 228 255
208 228 255
208 228 255
207 228 255
207 228 255
207 228 255
207 228 255
207 228 255
207 228 255
207 228 255
207 228 255
207 228 255
207 228 255
207 228 255
207 228 255
207 228 255
207 228 255
207 228 255
207 227 255
207 227 255
207 227 255
207 227 255
207 227 255
206 227 255
206 227 255
206 227 255
206 227 255
206 227 255
206 227 255
206 227 255
206 227 255
206 227 255
206 227 255
206 227 255
206 227 255
206 227 255
206 227 255
206 227 255
206 227 255
206 227 255
206 227 255
206 227 255
206 227 255
206 227 255
206 227 255
206 227 255
206 227 255
206 227 255
206 227 255
206 227 255
205 227 255
205 227 255
205 227 255
205 227 255
205 227 255
205 227 255
205 227 255
205 227 255
205 227 255
205 227 255
205 227 255
205 227 255
205 227 255
205 227 255
205 227 255
205 227 255
205 227 255
205 227 255
205 227 255
205 227 255
205 227 255
205 227 255
205 227 255
205 227 255
205 227 255
205 227 255
205 227 255
205 227 255
205 227 255
205 227 255
205 227 255
205 227 255
205 227 255
205 227 255
205 227 255
205 227 255
205 227 255
205 227 255
205 227 255
205 227 255
205 227 255
205 227 255
205 227 255
205 227 255
205 227 255
205 227 255
205 227 255
205 227 255
205 227 255
205 227 255
205 227 255
205 227 255
205 227 255
205 227 255
206 227 255
206 227 255
206 227 255
206 227 255
206 227 255
206 227 255
206 227 255
206 227 255
206 227 255
206 227 255
206 227 255
206 227 255
206 227 255
206 227 255
206 227 255
206 227 255
206 227 255
206 227 255
206 227 255
206 227 255
206 227 255
206 227 255
206 227 255
206 227 255
206 227 255
206 227 255
206 227 255
207 227 255
207 227 255
207 227 255
207 227 255
207 227 255
207 228 255
207 228 255
207 228 255
207 228 255
207 228 255
207 228 255
207 228 255
207 228 255
207 228 255
207 228 255
207 228 255
207 228 255
207 228 255
207 228 255
207 228 255
207 228 255
208 228 255
208 228 255
208 228 255
208 228 255
208 228 255
208 228 255
208 228 255
208 228 255
208 228 255
208 228 255
208 228 255
208 228 255
208 228 255
208 228 255
208 228 255
208 228 255
208 228 255
208 228 255
208 228 255
209 228 255
209 228 255
209 229 255
209 229 255
209 229 255
209 229 255
209 229 255
209 229 255
209 229 255
209 229 255
209 229 255
209 229 255
209 229 255
209 229 255
209 229 255
209 229 255
209 229 255
209 229 255
209 229 255
209 229 255
210 229 255
210 229 255
210 229 255
210 229 255
210 229 255
210 229 255
210 229 255
210 229 255
210 229 255
210 229 255
210 229 255
210 229 255
210 229 255
210 229 255
210 229 255
210 229 255
210 229 255
210 229 255
210 229 255
210 230 255
210 230 255
210 230 255
211 230 255
211 230 255
211 230 255
211 230 255
211 230 255
211 230 255
211 230 255
211 230 255
211 230 255
211 230 255
211 230 255
211 230 255
211 230 255
211 230 255
211 230 255
211 230 255
211 230 255
211 230 255
211 230 255
211 230 255
211 230 255
211 230 255
211 230 255
211 230 255
212 230 255
212 230 255
212 230 255
212 230 255
212 230 255
212 230 255
212 230 255
212 230 255
212 230 255
212 230 255
212 230 255
212 230 255
212 230 255
212 230 255
212 230 255
212 230 255
212 230 255
212 230 255
212 230 255
212 231 255
212 231 255
212 231 255
212 231 255
212 231 255
212 231 255
212 231 255
212 231 255
212 231 255
213 231 255
213 231 255
213 231 255
213 231 255
213 231 255
213 231 255
213 231 255
213 231 255
213 231 255
213 231 255
213 231 255
213 231 255
213 231 255
213 231 255
213 231 255
213 231 255
213 231 255
213 231 255
213 231 255
213 231 255
213 231 255
213 231 255
213 231 255
213 231 255
213 231 255
213 231 255
213 231 255
213 231 255
213 231 255
212 231 255
212 231 255
212 231 255
212 231 255
212 231 255
212 231 255
212 231 255
212 231 255
212 231 255
212 230 255
212 230 255
212 230 255
212 230 255
212 230 255
212 230 255
212 230 255
212 230 255
212 230 255
212 230 255
212 230 255
212 230 255
212 230 255
212 230 255
212 230 255
212 230 255
212 230 255
212 230 255
211 230 255
211 230 255
211 230 255
211 230 255
211 230 255
211 230 255
211 230 255
211 230 255
211 230 255
211 230 255
211 230 255
211 230 255
211 230 255
211 230 255
211 230 255
211 230 255
211 230 255
211 230 255
211 230 255
211 230 255
211 230 255
211 230 255
211 230 255
211 230 255
211 230 255
210 230 255
210 230 255
210 229 255
210 229 255
210 229 255
210 229 255
210 229 255
210 229 255
210 229 255
210 229 255
210 229 255
210 229 255
210 229 255
210 229 255
210 229 255
210 229 255
210 229 255
210 229 255
210 229 255
210 229 255
210 229 255
209 229 255
209 229 255
209 229 255
209 229 255
209 229 255
209 229 255
209 229 255
209 229 255
209 229 255
209 229 255
209 229 255
209 229 255
209 229 255
209 229 255
209 229 255
209 229 255
209 229 255
209 229 255
209 229 255
209 228 255
208 228 255
208 228 255
208 228 255
208 228 255
208 228 255
208 228 255
208 228 255
208 228 255
208 228 255
208 228 255
208 228 255
208 228 255
208 228 255
208 228 255
208 228 255
208 228 255
208 228 255
208 228 255
208 228 255
208 228 255
207 228 255
207 228 255
207 228 255
207 228 255
207 228 255
207 228 255
207 228 255
207 228 255
207 228 255
207 228 255
207 228 255
207 228 255
207 228 255
207 228 255
207 228 255
207 228 255
207 227 255
207 227 255
207 227 255
207 227 255
207 227 255
207 227 255
206 227 255
206 227 255
206 227 255
206 227 255
206 227 255
206 227 255
206 227 255
206 227 255
206 227 255
206 227 255
206 227 255
206 227 255
206 227 255
206 227 255
206 227 255
206 227 255
206 227 255
206 227 255
206 227 255
206 227 255
206 227 255
206 227 255
206 227 255
206 227 255
206 227 255
206 227 255
206 227 255
206 227 255
206 227 255
206 227 255
206 227 255
206 227 255
206 227 255
205 227 255
205 227 255
205 227 255
205 227 255
205 227 255
205 227 255
205 227 255
205 227 255
205 227 255
205 227 255
205 227 255
205 227 255
205 227 255
205 227 255
205 227 255
205 227 255
205 227 255
205 227 255
205 227 255
205 227 255
205 227 255
205 227 255
205 227 255
205 227 255
205 227 255
205 227 255
205 227 255
205 227 255
205 227 255
205 227 255
206 227 255
206 227 255
206 227 255
206 227 255
206 227 255
206 227 255
206 227 255
206 227 255
206 227 255
206 227 255
206 227 255
206 227 255
206 227 255
206 227 255
206 227 255
206 227 255
206 227 255
206 227 255
206 227 255
206 227 255
206 227 255
206 227 255
206 227 255
206 227 255
206 227 255
206 227 255
206 227 255
206 227 255
206 227 255
206 227 255
206 227 255
206 227 255
206 227 255
207 227 255
207 227 255
207 227 255
207 227 255
207 227 255
207 227 255
207 228 255
207 228 255
207 228 255
207 228 255
207 228 255
207 228 255
207 228 255
207 228 255
207 228 255
207 228 255
207 228 255
207 228 255
207 228 255
207 228 255
207 228 255
207 228 255
208 228 255
208 228 255
208 228 255
208 228 255
208 228 255
208 228 255
208 228 255
208 228 255
208 228 255
208 228 255
208 228 255
208 228 255
208 228 255
208 228 255
208 228 255
208 228 255
208 228 255
208 228 255
208 228 255
208 228 255
209 228 255
209 228 255
209 229 255
209 229 255
209 229 255
209 229 255
209 229 255
209 229 255
209 229 255
209 229 255
209 229 255
209 229 255
209 229 255
209 229 255
209 229 255
209 229 255
209 229 255
209 229 255
209 229 255
209 229 255
210 229 255
210 229 255
210 229 255
210 229 255
210 229 255
210 229 255
210 229 255
210 229 255
210 229 255
210 229 255
210 229 255
210 229 255
210 229 255
210 229 255
210 229 255
210 229 255
210 229 255
210 229 255
210 229 255
210 230 255
210 230 255
210 230 255
211 230 255
211 230 255
211 230 255
211 230 255
211 230 255
211 230 255
211 230 255
211 230 255
211 230 255
211 230 255
211 230 255
211 230 255
211 230 255
211 230 255
211 230 255
211 230 255
211 230 255
211 230 255
211 230 255
211 230 255
211 230 255
211 230 255
211 230 255
211 230 255
212 230 255
212 230 255
212 230 255
212 230 255
212 230 255
212 230 255
212 230 255
212 230 255
212 230 255
212 230 255
212 230 255
212 230 255
212 230 255
212 230 255
212 230 255
212 230 255
212 230 255
212 230 255
212 230 255
212 231 255
212 231 255
212 231 255
212 231 255
212 231 255
212 231 255
212 231 255
212 231 255
213 231 255
213 231 255
213 231 255
213 231 255
213 231 255
213 231 255
213 231 255
213 231 255
213 231 255
213 231 255
213 231 255
213 231 255
213 231 255
213 231 255
213 231 255
213 231 255
213 231 255
213 231 255
213 231 255
213 231 255
213 231 255
213 231 255
213 231 255
213 231 255
213 231 255
213 231 255
213 231 255
213 231 255
213 231 255
213 231 255
213 231 255
213 231 255
213 231 255
213 231 255
213 231 255
213 231 255
213 231 255
213 231 255
213 231 255
212 231 255
212 231 255
212 231 255
212 231 255
212 231 255
212 231 255
212 231 255
212 231 255
212 230 255
212 230 255
212 230 255
212 230 255
212 230 255
212 230 255
212 230 255
212 230 255
212 230 255
212 230 255
212 230 255
212 230 255
212 230 255
212 230 255
212 230 255
212 230 255
212 230 255
212 230 255
212 230 255
211 230 255
211 230 255
211 230 255
211 230 255
211 230 255
211 230 255
211 230 255
211 230 255
211 230 255
211 230 255
211 230 255
211 230 255
211 230 255
211 230 255
211 230 255
211 230 255
211 230 255
211 230 255
211 230 255
211 230 255
211 230 255
211 230 255
211 230 255
211 230 255
210 230 255
210 230 255
210 229 255
210 229 255
210 229 255
210 229 255
210 229 255
210 229 255
210 229 255
210 229 255
210 229 255
210 229 255
210 229 255
210 229 255
210 229 255
210 229 255
210 229 255
210 229 255
210 229 255
210 229 255
210 229 255
210 229 255
209 229 255
209 229 255
209 229 255
209 229 255
209 229 255
209 229 255
209 229 255
209 229 255
209 229 255
209 229 255
209 229 255
209 229 255
209 229 255
209 229 255
209 229 255
209 229 255
209 229 255
209 229 255
209 228 255
209 228 255
208 228 255
208 228 255
208 228 255
208 228 255
208 228 255
208 228 255
208 228 255
208 228 255
208 228 255
208 228 255
208 228 255
208 228 255
208 228 255
208 228 255
208 228 255
208 228 255
208 228 255
208 228 255
208 228 255
208 228 255
207 228 255
207 228 255
207 228 255
207 228 255
207 228 255
207 228 255
207 228 255
207 228 255
207 228 255
207 228 255
207 228 255
207 228 255
207 228 255
207 228 255
207 228 255
207 228 255
207 228 255
207 227 255
207 227 255
207 227 255
207 227 255
207 227 255
207 227 255
206 227 255
206 227 255
206 227 255
206 227 255
206 227 255
206 227 255
206 227 255
206 227 255
206 227 255
206 227 255
206 227 255
206 227 255
206 227 255
206 227 255
206 227 255
206 227 255
206 227 255
206 227 255
206 227 255
206 227 255
206 227 255
206 227 255
206 227 255
206 227 255
206 227 255
206 227 255
206 227 255
206 227 255
206 227 255
206 227 255
206 227 255
206 227 255
206 227 255
206 227 255
206 227 255
206 227 255
206 227 255
206 227 255
206 227 255
206 227 255
206 227 255
206 227 255
206 227 255
206 227 255
206 227 255
206 227 255
206 227 255
206 227 255
206 227 255
206 227 255
206 227 255
206 227 255
206 227 255
206 227 255
206 227 255
206 227 255
206 227 255
206 227 255
206 227 255
206 227 255
206 227 255
206 227 255
206 227 255
206 227 255
206 227 255
206 227 255
206 227 255
206 227 255
206 227 255
206 227 255
206 227 255
206 227 255
206 227 255
206 227 255
206 227 255
206 227 255
206 227 255
206 227 255
206 227 255
206 227 255
206 227 255
206 227 255
206 227 255
206 227 255
207 227 255
207 227 255
207 227 255
207 227 255
207 227 255
207 227 255
207 228 255
207 228 255
207 228 255
207 228 255
207 228 255
207 228 255
207 228 255
207 228 255
207 228 255
207 228 255
207 228 255
207 228 255
207 228 255
207 228 255
207 228 255
207 228 255
207 228 255
208 228 255
208 228 255
208 228 255
208 228 255
208 228 255
208 228 255
208 228 255
208 228 255
208 228 255
208 228 255
208 228 255
208 228 255
208 228 255
208 228 255
208 228 255
208 228 255
208 228 255
208 228 255
208 228 255
208 228 255
209 228 255
209 228 255
209 229 255
209 229 255
209 229 255
209 229 255
209 229 255
209 229 255
209 229 255
209 229 255
209 229 255
209 229 255
209 229 255
209 229 255
209 229 255
209 229 255
209 229 255
209 229 255
209 229 255
209 229 255
210 229 255
210 229 255
210 229 255
210 229 255
210 229 255
210 229 255
210 229 255
210 229 255
210 229 255
210 229 255
210 229 255
210 229 255
210 229 255
210 229 255
210 229 255
210 229 255
210 229 255
210 229 255
210 229 255
210 229 255
210 230 255
210 230 255
211 230 255
211 230 255
211 230 255
211 230 255
211 230 255
211 230 255
211 230 255
211 230 255
211 230 255
211 230 255
211 230 255
211 230 255
211 230 255
211 230 255
211 230 255
211 230 255
211 230 255
211 230 255
211 230 255
211 230 255
211 230 255
211 230 255
211 230 255
211 230 255
212 230 255
212 230 255
212 230 255
212 230 255
212 230 255
212 230 255
212 230 255
212 230 255
212 230 255
212 230 255
212 230 255
212 230 255
212 230 255
212 230 255
212 230 255
212 230 255
212 230 255
212 230 255
212 230 255
212 231 255
212 231 255
212 231 255
212 231 255
212 231 255
212 231 255
212 231 255
212 231 255
213 231 255
213 231 255
213 231 255
213 231 255
213 231 255
213 231 255
213 231 255
213 231 255
213 231 255
213 231 255
213 231 255
213 231 255
213 231 255
213 231 255
213 231 255
213 231 255
213 231 255
213 231 255
213 231 255
213 231 255
213 231 255
213 231 255
213 231 255
213 231 255
213 231 255
213 231 255
213 231 255
213 231 255
213 231 255
213 231 255
213 231 255
213 231 255
213 231 255
213 231 255
213 231 255
213 231 255
213 231 255
213 231 255
213 231 255
213 231 255
213 231 255
213 231 255
213 231 255
213 231 255
213 231 255
213 231 255
213 231 255
213 231 255
213 231 255
212 231 255
212 231 255
212 231 255
212 231 255
212 231 255
212 231 255
212 231 255
212 231 255
212 230 255
212 230 255
212 230 255
212 230 255
212 230 255
212 230 255
212 230 255
212 230 255
212 230 255
212 230 255
212 230 255
212 230 255
212 230 255
212 230 255
212 230 255
212 230 255
212 230 255
212 230 255
212 230 255
211 230 255
211 230 255
211 230 255
211 230 255
211 230 255
211 230 255
211 230 255
211 230 255
211 230 255
211 230 255
211 230 255
211 230 255
211 230 255
211 230 255
211 230 255
211 230 255
211 230 255
211 230 255
211 230 255
211 230 255
211 230 255
211 230 255
211 230 255
210 230 255
210 230 255
210 230 255
210 229 255
210 229 255
210 229 255
210 229 255
210 229 255
210 229 255
210 229 255
210 229 255
210 229 255
210 229 255
210 229 255
210 229 255
210 229 255
210 229 255
210 229 255
210 229 255
210 229 255
210 229 255
210 229 255
209 229 255
209 229 255
209 229 255
209 229 255
209 229 255
209 229 255
209 229 255
209 229 255
209 229 255
209 229 255
209 229 255
209 229 255
209 229 255
209 229 255
209 229 255
209 229 255
209 229 255
209 229 255
209 229 255
209 228 255
209 228 255
208 228 255
208 228 255
208 228 255
208 228 255
208 228 255
208 228 255
208 228 255
208 228 255
208 228 255
208 228 255
208 228 255
208 228 255
208 228 255
208 228 255
208 228 255
208 228 255
208 228 255
208 228 255
208 228 255
208 228 255
208 228 255
207 228 255
207 228 255
207 228 255
207 228 255
207 228 255
207 228 255
207 228 255
207 228 255
207 228 255
207 228 255
207 228 255
207 228 255
207 228 255
207 228 255
207 228 255
207 228 255
207 228 255
207 228 255
207 227 255
207 227 255
207 227 255
207 227 255
207 227 255
207 227 255
207 227 255
206 227 255
206 227 255
206 227 255
206 227 255
206 227 255
206 227 255
206 227 255
206 227 255
206 227 255
206 227 255
206 227 255
206 227 255
206 227 255
206 227 255
206 227 255
206 227 255
206 227 255
206 227 255
206 227 255
206 227 255
206 227 255
206 227 255
206 227 255
206 227 255
206 227 255
206 227 255
206 227 255
206 227 255
206 227 255
206 227 255
206 227 255
206 227 255
206 227 255
206 227 255
206 227 255
206 227 255
206 227 255
206 227 255
206 227 255
206 227 255
206 227 255
206 227 255
206 227 255
206 227 255
206 227 255
206 227 255
206 227 255
206 227 255
206 227 255
206 227 255
206 227 255
206 227 255
206 227 255
206 227 255
206 227 255
206 227 255
206 227 255
206 227 255
206 227 255
206 227 255
206 227 255
206 227 255
206 227 255
206 227 255
206 227 255
206 227 255
206 227 255
206 227 255
206 227 255
207 227 255
207 227 255
207 227 255
207 227 255
207 227 255
207 227 255
207 228 255
207 228 255
207 228 255
207 228 255
207 228 255
207 228 255
207 228 255
207 228 255
207 228 255
207 228 255
207 228 255
207 228 255
207 228 255
207 228 255
207 228 255
207 228 255
207 228 255
207 228 255
208 228 255
208 228 255
208 228 255
208 228 255
208 228 255
208 228 255
208 228 255
208 228 255
208 228 255
208 228 255
208 228 255
208 228 255
208 228 255
208 228 255
208 228 255
208 228 255
208 228 255
208 228 255
208 228 255
208 228 255
208 228 255
209 228 255
209 228 255
209 229 255
209 229 255
209 229 255
209 229 255
209 229 255
209 229 255
209 229 255
209 229 255
209 229 255
209 229 255
209 229 255
209 229 255
209 229 255
209 229 255
209 229 255
209 229 255
209 229 255
209 229 255
209 229 255
210 229 255
210 229 255
210 229 255
210 229 255
210 229 255
210 229 255
210 229 255
210 229 255
210 229 255
210 229 255
210 229 255
210 229 255
210 229 255
210 229 255
210 229 255
210 229 255
210 229 255
210 229 255
210 229 255
210 230 255
210 230 255
210 230 255
211 230 255
211 230 255
211 230 255
211 230 255
211 230 255
211 230 255
211 230 255
211 230 255
211 230 255
211 230 255
211 230 255
211 230 255
211 230 255
211 230 255
211 230 255
211 230 255
211 230 255
211 230 255
211 230 255
211 230 255
211 230 255
211 230 255
211 230 255
212 230 255
212 230 255
212 230 255
212 230 255
212 230 255
212 230 255
212 230 255
212 230 255
212 230 255
212 230 255
212 230 255
212 230 255
212 230 255
212 230 255
212 230 255
212 230 255
212 230 255
212 230 255
212 230 255
212 231 255
212 231 255
212 231 255
212 231 255
212 231 255
212 231 255
212 231 255
212 231 255
213 231 255
213 231 255
213 231 255
213 231 255
213 231 255
213 231 255
213 231 255
213 231 255
213 231 255
213 231 255
213 231 255
213 231 255
213 231 255
213 231 255
213 231 255
213 231 255
213 231 255
213 231 255
213 231 255
213 231 255
213 231 255
213 231 255
213 231 255
213 231 255
213 231 255
213 231 255
213 231 255
213 231 255
213 231 255
213 231 255
213 231 255
213 231 255
213 231 255
213 231 255
213 231 255
213 231 255
213 231 255
213 231 255
213 231 255
213 231 255
213 231 255
213 231 255
213 231 255
213 231 255
213 231 255
213 231 255
213 231 255
213 231 255
213 231 255
213 231 255
213 231 255
213 231 255
213 231 255
213 231 255
213 231 255
213 231 255
213 231 255
213 231 255
213 231 255
212 231 255
212 231 255
212 231 255
212 231 255
212 231 255
212 231 255
212 231 255
212 231 255
212 230 255
212 230 255
212 230 255
212 230 255
212 230 255
212 230 255
212 230 255
212 230 255
212 230 255
212 230 255
212 230 255
212 230 255
212 230 255
212 230 255
212 230 255
212 230 255
212 230 255
212 230 255
211 230 255
211 230 255
211 230 255
211 230 255
211 230 255
211 230 255
211 230 255
211 230 255
211 230 255
211 230 255
211 230 255
211 230 255
211 230 255
211 230 255
211 230 255
211 230 255
211 230 255
211 230 255
211 230 255
211 230 255
211 230 255
211 230 255
211 230 255
211 230 255
210 230 255
210 230 255
210 230 255
210 229 255
210 229 255
210 229 255
210 229 255
210 229 255
210 229 255
210 229 255
210 229 255
210 229 255
210 229 255
210 229 255
210 229 255
210 229 255
210 229 255
210 229 255
210 229 255
210 229 255
210 229 255
210 229 255
209 229 255
209 229 255
209 229 255
209 229 255
209 229 255
209 229 255
209 229 255
209 229 255
209 229 255
209 229 255
209 229 255
209 229 255
209 229 255
209 229 255
209 229 255
209 229 255
209 229 255
209 229 255
209 229 255
209 228 255
209 228 255
208 228 255
208 228 255
208 228 255
208 228 255
208 228 255
208 228 255
208 228 255
208 228 255
208 228 255
208 228 255
208 228 255
208 228 255
208 228 255
208 228 255
208 228 255
208 228 255
208 228 255
208 228 255
208 228 255
208 228 255
208 228 255
208 228 255
207 228 255
207 228 255
207 228 255
207 228 255
207 228 255
207 228 255
207 228 255
207 228 255
207 228 255
207 228 255
207 228 255
207 228 255
207 228 255
207 228 255
207 228 255
207 228 255
207 228 255
207 228 255
207 228 255
207 227 255
207 227 255
207 227 255
207 227 255
207 227 255
207 227 255
207 227 255
207 227 255
207 227 255
206 227 255
206 227 255
206 227 255
206 227 255
206 227 255
206 227 255
206 227 255
206 227 255
206 227 255
206 227 255
206 227 255
206 227 255
206 227 255
206 227 255
206 227 255
206 227 255
206 227 255
206 227 255
206 227 255
206 227 255
206 227 255
206 227 255
206 227 255
206 227 255
206 227 255
206 227 255
206 227 255
206 227 255
206 227 255
206 227 255
206 227 255
206 227 255
206 227 255
206 227 255
206 227 255
206 227 255
206 227 255
206 227 255
206 227 255
206 227 255
206 227 255
206 227 255
206 227 255
206 227 255
206 227 255
206 227 255
206 227 255
206 227 255
206 227 255
206 227 255
207 227 255
207 227 255
207 227 255
207 227 255
207 227 255
207 227 255
207 227 255
207 227 255
207 228 255
207 228 255
207 228 255
207 228 255
207 228 255
207 228 255
207 228 255
207 228 255
207 228 255
207 228 255
207 228 255
207 228 255
207 228 255
207 228 255
207 228 255
207 228 255
207 228 255
207 228 255
207 228 255
207 228 255
208 228 255
208 228 255
208 228 255
208 228 255
208 228 255
208 228 255
208 228 255
208 228 255
208 228 255
208 228 255
208 228 255
208 228 255
208 228 255
208 228 255
208 228 255
208 228 255
208 228 255
208 228 255
208 228 255
208 228 255
208 228 255
208 228 255
208 228 255
209 228 255
209 229 255
209 229 255
209 229 255
209 229 255
209 229 255
209 229 255
209 229 255
209 229 255
209 229 255
209 229 255
209 229 255
209 229 255
209 229 255
209 229 255
209 229 255
209 229 255
209 229 255
209 229 255
209 229 255
210 229 255
210 229 255
210 229 255
210 229 255
210 229 255
210 229 255
210 229 255
210 229 255
210 229 255
210 229 255
210 229 255
210 229 255
210 229 255
210 229 255
210 229 255
210 229 255
210 229 255
210 229 255
210 229 255
210 230 255
210 230 255
210 230 255
211 230 255
211 230 255
211 230 255
211 230 255
211 230 255
211 230 255
211 230 255
211 230 255
211 230 255
211 230 255
211 230 255
211 230 255
211 230 255
211 230 255
211 230 255
211 230 255
211 230 255
211 230 255
211 230 255
211 230 255
211 230 255
211 230 255
211 230 255
212 230 255
212 230 255
212 230 255
212 230 255
212 230 255
212 230 255
212 230 255
212 230 255
212 230 255
212 230 255
212 230 255
212 230 255
212 230 255
212 230 255
212 230 255
212 230 255
212 230 255
212 230 255
212 230 255
212 231 255
212 231 255
212 231 255
212 231 255
212 231 255
212 231 255
212 231 255
212 231 255
213 231 255
213 231 255
213 231 255
213 231 255
213 231 255
213 231 255
213 231 255
213 231 255
213 231 255
213 231 255
213 231 255
213 231 255
213 231 255
213 231 255
213 231 255
213 231 255
213 231 255
213 231 255
213 231 255
213 231 255
213 231 255
213 231 255
213 231 255
213 231 255
213 231 255
213 231 255
213 231 255
213 231 255
213 231 255
213 231 255
213 231 255
213 231 255
214 231 255
214 231 255
214 231 255
214 231 255
214 231 255
214 231 255
213 231 255
213 231 255
213 231 255
213 231 255
213 231 255
213 231 255
213 231 255
213 231 255
213 231 255
213 231 255
213 231 255
213 231 255
213 231 255
213 231 255
213 231 255
213 231 255
213 231 255
213 231 255
213 231 255
213 231 255
213 231 255
213 231 255
213 231 255
213 231 255
213 231 255
213 231 255
213 231 255
213 231 255
213 231 255
213 231 255
213 231 255
212 231 255
212 231 255
212 231 255
212 231 255
212 231 255
212 231 255
212 231 255
212 231 255
212 230 255
212 230 255
212 230 255
212 230 255
212 230 255
212 230 255
212 230 255
212 230 255
212 230 255
212 230 255
212 230 255
212 230 255
212 230 255
212 230 255
212 230 255
212 230 255
212 230 255
212 230 255
212 230 255
211 230 255
211 230 255
211 230 255
211 230 255
211 230 255
211 230 255
211 230 255
211 230 255
211 230 255
211 230 255
211 230 255
211 230 255
211 230 255
211 230 255
211 230 255
211 230 255
211 230 255
211 230 255
211 230 255
211 230 255
211 230 255
211 230 255
211 230 255
210 230 255
210 230 255
210 229 255
210 229 255
210 229 255
210 229 255
210 229 255
210 229 255
210 229 255
210 229 255
210 229 255
210 229 255
210 229 255
210 229 255
210 229 255
210 229 255
210 229 255
210 229 255
210 229 255
210 229 255
210 229 255
209 229 255
209 229 255
209 229 255
209 229 255
209 229 255
209 229 255
209 229 255
209 229 255
209 229 255
209 229 255
209 229 255
209 229 255
209 229 255
209 229 255
209 229 255
209 229 255
209 229 255
209 229 255
209 229 255
209 229 255
209 228 255
208 228 255
208 228 255
208 228 255
208 228 255
208 228 255
208 228 255
208 228 255
208 228 255
208 228 255
208 228 255
208 228 255
208 228 255
208 228 255
208 228 255
208 228 255
208 228 255
208 228 255
208 228 255
208 228 255
208 228 255
208 228 255
208 228 255
208 228 255
207 228 255
207 228 255
207 228 255
207 228 255
207 228 255
207 228 255
207 228 255
207 228 255
207 228 255
207 228 255
207 228 255
207 228 255
207 228 255
207 228 255
207 228 255
207 228 255
207 228 255
207 228 255
207 228 255
207 228 255
207 228 255
207 228 255
207 228 255
207 228 255
207 228 255
207 227 255
207 227 255
207 227 255
207 227 255
207 227 255
207 227 255
207 227 255
207 227 255
207 227 255
207 227 255
207 227 255
207 227 255
207 227 255
207 227 255
206 227 255
206 227 255
206 227 255
206 227 255
206 227 255
206 227 255
206 227 255
206 227 255
206 227 255
206 227 255
206 227 255
206 227 255
206 227 255
206 227 255
206 227 255
207 227 255
207 227 255
206 227 255
207 227 255
207 227 255
207 227 255
207 227 255
207 227 255
207 227 255
207 227 255
207 227 255
207 227 255
207 227 255
207 227 255
207 227 255
207 227 255
207 227 255
207 228 255
207 228 255
207 228 255
207 228 255
207 228 255
207 228 255
207 228 255
207 228 255
207 228 255
207 228 255
207 228 255
207 228 255
207 228 255
207 228 255
207 228 255
207 228 255
207 228 255
207 228 255
207 228 255
207 228 255
207 228 255
207 228 255
207 228 255
207 228 255
208 228 255
208 228 255
208 228 255
208 228 255
208 228 255
208 228 255
208 228 255
208 228 255
208 228 255
208 228 255
208 228 255
208 228 255
208 228 255
208 228 255
208 228 255
208 228 255
208 228 255
208 228 255
208 228 255
208 228 255
208 228 255
208 228 255
208 228 255
209 228 255
209 228 255
209 229 255
209 229 255
209 229 255
209 229 255
209 229 255
209 229 255
209 229 255
209 229 255
209 229 255
209 229 255
209 229 255
209 229 255
209 229 255
209 229 255
209 229 255
209 229 255
209 229 255
209 229 255
209 229 255
209 229 255
210 229 255
210 229 255
210 229 255
210 229 255
210 229 255
210 229 255
210 229 255
210 229 255
210 229 255
210 229 255
210 229 255
210 229 255
210 229 255
210 229 255
210 229 255
210 229 255
210 229 255
210 229 255
210 229 255
210 230 255
210 230 255
211 230 255
211 230 255
211 230 255
211 230 255
211 230 255
211 230 255
211 230 255
211 230 255
211 230 255
211 230 255
211 230 255
211 230 255
211 230 255
211 230 255
211 230 255
211 230 255
211 230 255
211 230 255
211 230 255
211 230 255
211 230 255
211 230 255
211 230 255
212 230 255
212 230 255
212 230 255
212 230 255
212 230 255
212 230 255
212 230 255
212 230 255
212 230 255
212 230 255
212 230 255
212 230 255
212 230 255
212 230 255
212 230 255
212 230 255
212 230 255
212 230 255
212 230 255
212 231 255
212 231 255
212 231 255
212 231 255
212 231 255
212 231 255
212 231 255
212 231 255
213 231 255
213 231 255
213 231 255
213 231 255
213 231 255
213 231 255
213 231 255
213 231 255
213 231 255
213 231 255
213 231 255
213 231 255
213 231 255
213 231 255
213 231 255
213 231 255
213 231 255
213 231 255
213 231 255
213 231 255
213 231 255
213 231 255
213 231 255
213 231 255
213 231 255
213 231 255
213 231 255
213 231 255
213 231 255
213 231 255
213 231 255
214 231 255
214 231 255
214 231 255
214 231 255
214 231 255
214 231 255
214 231 255
214 231 255
214 231 255
214 231 255
214 231 255
214 231 255
214 231 255
214 231 255
214 231 255
214 231 255
214 231 255
213 231 255
213 231 255
213 231 255
213 231 255
213 231 255
213 231 255
213 231 255
213 231 255
213 231 255
213 231 255
213 231 255
213 231 255
213 231 255
213 231 255
213 231 255
213 231 255
213 231 255
213 231 255
213 231 255
213 231 255
213 231 255
213 231 255
213 231 255
213 231 255
213 231 255
213 231 255
213 231 255
213 231 255
213 231 255
213 231 255
213 231 255
212 231 255
212 231 255
212 231 255
212 231 255
212 231 255
212 231 255
212 231 255
212 231 255
212 231 255
212 230 255
212 230 255
212 230 255
212 230 255
212 230 255
212 230 255
212 230 255
212 230 255
212 230 255
212 230 255
212 230 255
212 230 255
212 230 255
212 230 255
212 230 255
212 230 255
212 230 255
212 230 255
211 230 255
211 230 255
211 230 255
211 230 255
211 230 255
211 230 255
211 230 255
211 230 255
211 230 255
211 230 255
211 230 255
211 230 255
211 230 255
211 230 255
211 230 255
211 230 255
211 230 255
211 230 255
211 230 255
211 230 255
211 230 255
211 230 255
211 230 255
210 230 255
210 230 255
210 229 255
210 229 255
210 229 255
210 229 255
210 229 255
210 229 255
210 229 255
210 229 255
210 229 255
210 229 255
210 229 255
210 229 255
210 229 255
210 229 255
210 229 255
210 229 255
210 229 255
210 229 255
210 229 255
209 229 255
209 229 255
209 229 255
209 229 255
209 229 255
209 229 255
209 229 255
209 229 255
209 229 255
209 229 255
209 229 255
209 229 255
209 229 255
209 229 255
209 229 255
209 229 255
209 229 255
209 229 255
209 229 255
209 229 255
209 228 255
209 228 255
208 228 255
208 228 255
208 228 255
208 228 255
208 228 255
208 228 255
208 228 255
208 228 255
208 228 255
208 228 255
208 228 255
208 228 255
208 228 255
208 228 255
208 228 255
208 228 255
208 228 255
208 228 255
208 228 255
208 228 255
208 228 255
208 228 255
208 228 255
208 228 255
208 228 255
207 228 255
207 228 255
207 228 255
207 228 255
207 228 255
207 228 255
207 228 255
207 228 255
207 228 255
207 228 255
207 228 255
207 228 255
207 228 255
207 228 255
207 228 255
207 228 255
207 228 255
207 228 255
207 228 255
207 228 255
207 228 255
207 228 255
207 228 255
207 228 255
207 228 255
207 228 255
207 228 255
207 228 255
207 228 255
207 228 255
207 228 255
207 228 255
207 228 255
207 228 255
207 228 255
207 228 255
207 228 255
207 228 255
207 228 255
207 227 255
207 228 255
207 228 255
207 228 255
207 228 255
207 228 255
207 228 255
207 228 255
207 228 255
207 228 255
207 228 255
207 228 255
207 228 255
207 228 255
207 228 255
207 228 255
207 228 255
207 228 255
207 228 255
207 228 255
207 228 255
207 228 255
207 228 255
207 228 255
207 228 255
207 228 255
207 228 255
207 228 255
207 228 255
207 228 255
207 228 255
207 228 255
207 228 255
207 228 255
207 228 255
207 228 255
207 228 255
207 228 255
207 228 255
207 228 255
207 228 255
208 228 255
208 228 255
208 228 255
208 228 255
208 228 255
208 228 255
208 228 255
208 228 255
208 228 255
208 228 255
208 228 255
208 228 255
208 228 255
208 228 255
208 228 255
208 228 255
208 228 255
208 228 255
208 228 255
208 228 255
208 228 255
208 228 255
208 228 255
208 228 255
208 228 255
209 228 255
209 228 255
209 229 255
209 229 255
209 229 255
209 229 255
209 229 255
209 229 255
209 229 255
209 229 255
209 229 255
209 229 255
209 229 255
209 229 255
209 229 255
209 229 255
209 229 255
209 229 255
209 229 255
209 229 255
209 229 255
209 229 255
210 229 255
210 229 255
210 229 255
210 229 255
210 229 255
210 229 255
210 229 255
210 229 255
210 229 255
210 229 255
210 229 255
210 229 255
210 229 255
210 229 255
210 229 255
210 229 255
210 229 255
210 229 255
210 229 255
210 230 255
210 230 255
211 230 255
211 230 255
211 230 255
211 230 255
211 230 255
211 230 255
211 230 255
211 230 255
211 230 255
211 230 255
211 230 255
211 230 255
211 230 255
211 230 255
211 230 255
211 230 255
211 230 255
211 230 255
211 230 255
211 230 255
211 230 255
211 230 255
211 230 255
211 230 255
212 230 255
212 230 255
212 230 255
212 230 255
212 230 255
212 230 255
212 230 255
212 230 255
212 230 255
212 230 255
212 230 255
212 230 255
212 230 255
212 230 255
212 230 255
212 230 255
212 230 255
212 231 255
212 231 255
212 231 255
212 231 255
212 231 255
212 231 255
212 231 255
212 231 255
212 231 255
213 231 255
213 231 255
213 231 255
213 231 255
213 231 255
213 231 255
213 231 255
213 231 255
213 231 255
213 231 255
213 231 255
213 231 255
213 231 255
213 231 255
213 231 255
213 231 255
213 231 255
213 231 255
213 231 255
213 231 255
213 231 255
213 231 255
213 231 255
213 231 255
213 231 255
213 231 255
213 231 255
213 231 255
213 231 255
213 231 255
213 231 255
214 231 255
214 231 255
214 231 255
214 231 255
214 231 255
214 231 255
214 231 255
214 231 255
214 231 255
214 231 255
214 231 255
214 231 255
214 231 255
214 231 255
214 231 255
214 231 255
214 231 255
214 231 255
214 231 255
214 231 255
214 231 255
214 231 255
214 231 255
214 231 255
214 231 255
214 231 255
214 231 255
214 231 255
213 231 255
213 231 255
213 231 255
213 231 255
213 231 255
213 231 255
213 231 255
213 231 255
213 231 255
213 231 255
213 231 255
213 231 255
213 231 255
213 231 255
213 231 255
213 231 255
213 231 255
213 231 255
213 231 255
213 231 255
213 231 255
213 231 255
213 231 255
213 231 255
213 231 255
213 231 255
213 231 255
213 231 255
213 231 255
213 231 255
213 231 255
212 231 255
212 231 255
212 231 255
212 231 255
212 231 255
212 231 255
212 231 255
212 231 255
212 230 255
212 230 255
212 230 255
212 230 255
212 230 255
212 230 255
212 230 255
212 230 255
212 230 255
212 230 255
212 230 255
212 230 255
212 230 255
212 230 255
212 230 255
212 230 255
212 230 255
211 230 255
211 230 255
211 230 255
211 230 255
211 230 255
211 230 255
211 230 255
211 230 255
211 230 255
211 230 255
211 230 255
211 230 255
211 230 255
211 230 255
211 230 255
211 230 255
211 230 255
211 230 255
211 230 255
211 230 255
211 230 255
211 230 255
211 230 255
211 230 255
210 230 255
210 230 255
210 229 255
210 229 255
210 229 255
210 229 255
210 229 255
210 229 255
210 229 255
210 229 255
210 229 255
210 229 255
210 229 255
210 229 255
210 229 255
210 229 255
210 229 255
210 229 255
210 229 255
210 229 255
210 229 255
210 229 255
209 229 255
209 229 255
209 229 255
209 229 255
209 229 255
209 229 255
209 229 255
209 229 255
209 229 255
209 229 255
209 229 255
209 229 255
209 229 255
209 229 255
209 229 255
209 229 255
209 229 255
209 229 255
209 229 255
209 229 255
209 228 255
209 228 255
208 228 255
208 228 255
208 228 255
208 228 255
208 228 255
208 228 255
208 228 255
208 228 255
208 228 255
208 228 255
207 227 254
209 228 254
206 226 252
207 227 253
206 227 254
206 226 253
206 227 254
206 227 255
206 226 253
208 228 255
207 227 254
206 227 255
207 228 255
208 228 255
208 228 255
208 228 255
208 228 255
207 228 255
207 228 255
207 228 255
207 228 255
207 228 255
207 228 255
207 228 255
207 228 255
207 228 255
207 228 255
207 228 255
207 228 255
207 228 255
207 228 255
207 228 255
207 228 255
207 228 255
207 228 255
207 228 255
207 228 255
207 228 255
207 228 255
207 228 255
207 228 255
207 228 255
207 228 255
207 228 255
207 228 255
207 228 255
207 228 255
207 228 255
207 228 255
207 228 255
207 228 255
207 228 255
207 228 255
207 228 255
207 228 255
207 228 255
207 228 255
207 228 255
207 228 255
207 228 255
207 228 255
207 228 255
207 228 255
207 228 255
207 228 255
207 228 255
207 228 255
207 228 255
207 228 255
207 228 255
207 228 255
207 228 255
207 228 255
207 228 255
207 228 255
207 228 255
207 228 255
207 228 255
207 228 255
207 228 255
207 228 255
208 228 255
208 228 255
208 228 255
208 228 255
208 228 255
208 228 255
208 228 255
208 228 255
208 228 255
208 228 255
208 228 255
208 228 255
208 228 255
208 228 255
208 228 255
208 228 255
208 228 255
208 228 255
208 228 255
208 228 255
208 228 255
208 228 255
208 228 255
208 228 255
208 228 255
208 228 255
208 228 255
209 228 255
209 228 255
209 229 255
209 229 255
209 229 255
209 229 255
209 229 255
209 229 255
209 229 255
209 229 255
209 229 255
209 229 255
209 229 255
209 229 255
209 229 255
209 229 255
209 229 255
209 229 255
209 229 255
209 229 255
209 229 255
209 229 255
210 229 255
210 229 255
210 229 255
210 229 255
210 229 255
210 229 255
210 229 255
210 229 255
210 229 255
210 229 255
210 229 255
210 229 255
210 229 255
210 229 255
210 229 255
210 229 255
210 229 255
210 229 255
210 229 255
210 229 255
210 230 255
210 230 255
211 230 255
211 230 255
211 230 255
211 230 255
211 230 255
211 230 255
211 230 255
211 230 255
211 230 255
211 230 255
211 230 255
211 230 255
211 230 255
211 230 255
211 230 255
211 230 255
211 230 255
211 230 255
211 230 255
211 230 255
211 230 255
211 230 255
211 230 255
211 230 255
212 230 255
212 230 255
212 230 255
212 230 255
212 230 255
212 230 255
212 230 255
212 230 255
212 230 255
212 230 255
212 230 255
212 230 255
212 230 255
212 230 255
212 230 255
212 230 255
212 230 255
212 231 255
212 231 255
212 231 255
212 231 255
212 231 255
212 231 255
212 231 255
212 231 255
212 231 255
213 231 255
213 231 255
213 231 255
213 231 255
213 231 255
213 231 255
213 231 255
213 231 255
213 231 255
213 231 255
213 231 255
213 231 255
213 231 255
213 231 255
213 231 255
213 231 255
213 231 255
213 231 255
213 231 255
213 231 255
213 231 255
213 231 255
213 231 255
213 231 255
213 231 255
213 231 255
213 231 255
213 231 255
213 231 255
213 231 255
214 231 255
214 231 255
214 231 255
214 231 255
214 231 255
214 231 255
214 231 255
214 231 255
214 231 255
214 231 255
214 231 255
214 231 255
214 231 255
214 231 255
214 231 255
214 231 255
214 231 255
214 232 255
214 232 255
214 232 255
214 232 255
214 231 255
214 231 255
214 231 255
214 231 255
214 231 255
214 231 255
214 231 255
214 231 255
214 231 255
214 231 255
214 231 255
214 231 255
214 231 255
214 231 255
214 231 255
214 231 255
214 231 255
214 231 255
213 231 255
213 231 255
213 231 255
213 231 255
213 231 255
213 231 255
213 231 255
213 231 255
213 231 255
213 231 255
213 231 255
213 231 255
213 231 255
213 231 255
213 231 255
213 231 255
213 231 255
213 231 255
213 231 255
213 231 255
213 231 255
213 231 255
213 231 255
213 231 255
213 231 255
213 231 255
213 231 255
213 231 255
213 231 255
213 231 255
213 231 255
212 231 255
212 231 255
212 231 255
212 231 255
212 231 255
212 231 255
212 231 255
212 230 255
212 230 255
212 230 255
212 230 255
212 230 255
212 230 255
212 230 255
212 230 255
212 230 255
212 230 255
212 230 255
212 230 255
212 230 255
212 230 255
212 230 255
212 230 255
212 230 255
212 230 255
211 230 255
211 230 255
211 230 255
211 230 255
211 230 255
211 230 255
211 230 255
211 230 255
211 230 255
211 230 255
211 230 255
211 230 255
211 230 255
211 230 255
211 230 255
211 230 255
211 230 255
211 230 255
211 230 255
211 230 255
211 230 255
211 230 255
211 230 255
211 230 255
210 230 255
210 230 255
210 229 255
210 229 255
210 229 255
210 229 255
210 229 255
210 229 255
210 229 255
210 229 255
210 229 255
210 229 255
210 229 255
210 229 255
210 229 255
210 229 255
210 229 255
210 229 255
210 229 255
210 229 255
210 229 255
210 229 255
209 229 255
209 229 255
209 229 255
209 229 255
209 229 255
209 229 255
209 229 255
209 229 255
209 229 255
209 229 255
209 229 255
209 229 255
209 229 255
209 229 255
209 229 255
209 229 255
209 229 255
209 229 255
209 229 255
209 229 255
209 229 255
208 228 255
206 226 252
207 227 253
209 228 254
202 223 250
204 225 252
206 227 254
204 225 253
203 225 252
203 224 252
201 223 252
205 226 255
200 222 250
202 224 252
202 224 252
203 225 252
205 226 254
204 225 253
203 223 249
203 224 250
204 225 252
207 227 254
208 228 255
208 228 255
208 228 255
208 228 255
208 228 255
208 228 255
208 228 255
208 228 255
208 228 255
208 228 255
208 228 255
208 228 255
208 228 255
208 228 255
207 228 255
207 228 255
207 228 255
207 228 255
207 228 255
207 228 255
207 228 255
207 228 255
207 228 255
207 228 255
207 228 255
207 228 255
207 228 255
207 228 255
207 228 255
207 228 255
207 228 255
207 228 255
207 228 255
207 228 255
207 228 255
207 228 255
207 228 255
207 228 255
207 228 255
207 228 255
207 228 255
207 228 255
207 228 255
207 228 255
207 228 255
207 228 255
207 228 255
207 228 255
207 228 255
207 228 255
207 228 255
207 228 255
207 228 255
208 228 255
208 228 255
208 228 255
208 228 255
208 228 255
208 228 255
208 228 255
208 228 255
208 228 255
208 228 255
208 228 255
208 228 255
208 228 255
208 228 255
208 228 255
208 228 255
208 228 255
208 228 255
208 228 255
208 228 255
208 228 255
208 228 255
208 228 255
208 228 255
208 228 255
208 228 255
208 228 255
208 228 255
208 228 255
208 228 255
208 228 255
208 228 255
208 228 255
209 228 255
209 229 255
209 229 255
209 229 255
209 229 255
209 229 255
209 229 255
209 229 255
209 229 255
209 229 255
209 229 255
209 229 255
209 229 255
209 229 255
209 229 255
209 229 255
209 229 255
209 229 255
209 229 255
209 229 255
209 229 255
209 229 255
209 229 255
210 229 255
210 229 255
210 229 255
210 229 255
210 229 255
210 229 255
210 229 255
210 229 255
210 229 255
210 229 255
210 229 255
210 229 255
210 229 255
210 229 255
210 229 255
210 229 255
210 229 255
210 229 255
210 229 255
210 229 255
210 230 255
210 230 255
211 230 255
211 230 255
211 230 255
211 230 255
211 230 255
211 230 255
211 230 255
211 230 255
211 230 255
211 230 255
211 230 255
211 230 255
211 230 255
211 230 255
211 230 255
211 230 255
211 230 255
211 230 255
211 230 255
211 230 255
211 230 255
211 230 255
211 230 255
212 230 255
212 230 255
212 230 255
212 230 255
212 230 255
212 230 255
212 230 255
212 230 255
212 230 255
212 230 255
212 230 255
212 230 255
212 230 255
212 230 255
212 230 255
212 230 255
212 230 255
212 230 255
212 231 255
212 231 255
212 231 255
212 231 255
212 231 255
212 231 255
212 231 255
212 231 255
212 231 255
213 231 255
213 231 255
213 231 255
213 231 255
213 231 255
213 231 255
213 231 255
213 231 255
213 231 255
213 231 255
213 231 255
213 231 255
213 231 255
213 231 255
213 231 255
213 231 255
213 231 255
213 231 255
213 231 255
213 231 255
213 231 255
213 231 255
213 231 255
213 231 255
213 231 255
213 231 255
213 231 255
213 231 255
213 231 255
213 231 255
214 231 255
214 231 255
214 231 255
214 231 255
214 231 255
214 231 255
214 231 255
214 231 255
214 231 255
214 231 255
214 231 255
214 231 255
214 231 255
214 231 255
214 231 255
214 231 255
214 231 255
214 232 255
214 232 255
214 232 255
214 232 255
214 232 255
214 232 255
214 232 255
214 232 255
214 232 255
214 232 255
214 232 255
214 232 255
214 232 255
214 232 255
214 232 255
214 232 255
214 231 255
214 231 255
214 231 255
214 231 255
214 231 255
214 231 255
214 231 255
214 231 255
214 231 255
214 231 255
214 231 255
214 231 255
214 231 255
214 231 255
214 231 255
214 231 255
214 231 255
213 231 255
213 231 255
213 231 255
213 231 255
213 231 255
213 231 255
213 231 255
213 231 255
213 231 255
213 231 255
213 231 255
213 231 255
213 231 255
213 231 255
213 231 255
213 231 255
213 231 255
213 231 255
213 231 255
213 231 255
213 231 255
213 231 255
213 231 255
213 231 255
213 231 255
213 231 255
213 231 255
213 231 255
213 231 255
213 231 255
212 231 255
212 231 255
212 231 255
212 231 255
212 231 255
212 231 255
212 231 255
212 231 255
212 230 255
212 230 255
212 230 255
212 230 255
212 230 255
212 230 255
212 230 255
212 230 255
212 230 255
212 230 255
212 230 255
212 230 255
212 230 255
212 230 255
212 230 255
212 230 255
212 230 255
212 230 255
211 230 255
211 230 255
211 230 255
211 230 255
211 230 255
211 230 255
211 230 255
211 230 255
211 230 255
211 230 255
211 230 255
211 230 255
211 230 255
211 230 255
211 230 255
211 230 255
211 230 255
211 230 255
211 230 255
211 230 255
211 230 255
211 230 255
211 230 255
210 230 255
210 230 255
210 229 255
210 229 255
210 229 255
210 229 255
210 229 255
210 229 255
210 229 255
210 229 255
210 229 255
210 229 255
210 229 255
210 229 255
210 229 255
210 229 255
210 229 255
210 229 255
210 229 255
210 229 255
210 229 255
210 229 255
210 229 255
209 229 255
209 229 255
209 229 255
209 229 255
209 229 255
209 229 255
209 229 255
209 229 255
209 229 255
209 229 255
209 229 255
208 227 253
207 227 253
205 226 252
207 227 253
203 225 252
204 225 253
203 225 253
203 225 253
204 226 255
203 225 254
203 225 255
204 226 255
202 225 255
202 225 255
203 225 255
202 225 255
203 226 255
200 224 255
202 225 255
202 225 255
200 223 254
202 225 254
201 224 254
202 225 254
203 226 255
201 223 252
203 225 253
204 225 252
205 225 252
205 226 253
209 229 255
208 228 255
208 228 255
208 228 255
208 228 255
208 228 255
208 228 255
208 228 255
208 228 255
208 228 255
208 228 255
208 228 255
208 228 255
208 228 255
208 228 255
208 228 255
208 228 255
208 228 255
208 228 255
208 228 255
208 228 255
208 228 255
208 228 255
208 228 255
208 228 255
208 228 255
208 228 255
208 228 255
208 228 255
208 228 255
208 228 255
208 228 255
208 228 255
208 228 255
208 228 255
208 228 255
208 228 255
208 228 255
208 228 255
208 228 255
208 228 255
208 228 255
208 228 255
208 228 255
208 228 255
208 228 255
208 228 255
208 228 255
208 228 255
208 228 255
208 228 255
208 228 255
208 228 255
208 228 255
208 228 255
208 228 255
208 228 255
208 228 255
208 228 255
208 228 255
208 228 255
208 228 255
208 228 255
208 228 255
208 228 255
208 228 255
208 228 255
208 228 255
208 228 255
208 228 255
208 228 255
208 228 255
208 228 255
208 228 255
208 228 255
209 228 255
209 229 255
209 229 255
209 229 255
209 229 255
209 229 255
209 229 255
209 229 255
209 229 255
209 229 255
209 229 255
209 229 255
209 229 255
209 229 255
209 229 255
209 229 255
209 229 255
209 229 255
209 229 255
209 229 255
209 229 255
209 229 255
209 229 255
209 229 255
210 229 255
210 229 255
210 229 255
210 229 255
210 229 255
210 229 255
210 229 255
210 229 255
210 229 255
210 229 255
210 229 255
210 229 255
210 229 255
210 229 255
210 229 255
210 229 255
210 229 255
210 229 255
210 229 255
210 229 255
210 230 255
210 230 255
210 230 255
211 230 255
211 230 255
211 230 255
211 230 255
211 230 255
211 230 255
211 230 255
211 230 255
211 230 255
211 230 255
211 230 255
211 230 255
211 230 255
211 230 255
211 230 255
211 230 255
211 230 255
211 230 255
211 230 255
211 230 255
211 230 255
211 230 255
211 230 255
212 230 255
212 230 255
212 230 255
212 230 255
212 230 255
212 230 255
212 230 255
212 230 255
212 230 255
212 230 255
212 230 255
212 230 255
212 230 255
212 230 255
212 230 255
212 230 255
212 230 255
212 230 255
212 231 255
212 231 255
212 231 255
212 231 255
212 231 255
212 231 255
212 231 255
212 231 255
213 231 255
213 231 255
213 231 255
213 231 255
213 231 255
213 231 255
213 231 255
213 231 255
213 231 255
213 231 255
213 231 255
213 231 255
213 231 255
213 231 255
213 231 255
213 231 255
213 231 255
213 231 255
213 231 255
213 231 255
213 231 255
213 231 255
213 231 255
213 231 255
213 231 255
213 231 255
213 231 255
213 231 255
213 231 255
213 231 255
214 231 255
214 231 255
214 231 255
214 231 255
214 231 255
214 231 255
214 231 255
214 231 255
214 231 255
214 231 255
214 231 255
214 231 255
214 231 255
214 231 255
214 231 255
214 231 255
214 231 255
214 231 255
214 232 255
214 232 255
214 232 255
214 232 255
214 232 255
214 232 255
214 232 255
214 232 255
214 232 255
214 232 255
214 232 255
214 232 255
214 232 255
214 232 255
214 232 255
214 232 255
214 232 255
214 232 255
214 232 255
214 232 255
214 232 255
214 232 255
214 232 255
214 232 255
214 232 255
214 232 255
214 231 255
214 231 255
214 231 255
214 231 255
214 231 255
214 231 255
214 231 255
214 231 255
214 231 255
214 231 255
214 231 255
214 231 255
214 231 255
214 231 255
214 231 255
214 231 255
214 231 255
214 231 255
213 231 255
213 231 255
213 231 255
213 231 255
213 231 255
213 231 255
213 231 255
213 231 255
213 231 255
213 231 255
213 231 255
213 231 255
213 231 255
213 231 255
213 231 255
213 231 255
213 231 255
213 231 255
213 231 255
213 231 255
213 231 255
213 231 255
213 231 255
213 231 255
213 231 255
213 231 255
213 231 255
213 231 255
213 231 255
212 231 255
212 231 255
212 231 255
212 231 255
212 231 255
212 231 255
212 231 255
212 231 255
212 230 255
212 230 255
212 230 255
212 230 255
212 230 255
212 230 255
212 230 255
212 230 255
212 230 255
212 230 255
212 230 255
212 230 255
212 230 255
212 230 255
212 230 255
212 230 255
212 230 255
212 230 255
211 230 255
211 230 255
211 230 255
211 230 255
211 230 255
211 230 255
211 230 255
211 230 255
211 230 255
211 230 255
211 230 255
211 230 255
211 230 255
211 230 255
211 230 255
211 230 255
211 230 255
211 230 255
211 230 255
211 230 255
211 230 255
211 230 255
211 230 255
211 230 255
210 230 255
210 230 255
210 229 255
210 229 255
210 229 255
210 229 255
210 229 255
210 229 255
210 229 255
210 229 255
210 229 255
210 229 255
210 229 255
210 229 255
210 229 255
210 229 255
210 229 255
210 229 255
210 229 255
210 229 255
210 229 255
210 229 255
210 229 255
209 229 255
209 229 255
209 229 255
208 228 254
206 226 252
200 222 248
206 226 254
205 226 254
205 226 255
204 226 255
203 226 255
202 225 255
202 225 255
200 224 255
199 223 255
200 224 255
199 223 255
200 224 255
199 223 255
198 222 254
198 223 255
196 222 254
198 222 254
198 223 255
198 223 255
199 223 255
199 223 255
199 223 255
201 224 255
200 224 255
201 225 255
203 226 255
202 225 255
202 225 254
204 226 254
206 227 254
203 225 252
207 227 253
208 228 255
208 228 255
208 228 255
208 228 255
208 228 255
208 228 255
208 228 255
208 228 255
208 228 255
208 228 255
208 228 255
208 228 255
208 228 255
208 228 255
208 228 255
208 228 255
208 228 255
208 228 255
208 228 255
208 228 255
208 228 255
208 228 255
208 228 255
208 228 255
208 228 255
208 228 255
208 228 255
208 228 255
208 228 255
208 228 255
208 228 255
208 228 255
208 228 255
208 228 255
208 228 255
208 228 255
208 228 255
208 228 255
208 228 255
208 228 255
208 228 255
208 228 255
208 228 255
208 228 255
208 228 255
208 228 255
208 228 255
208 228 255
208 228 255
208 228 255
208 228 255
208 228 255
208 228 255
208 228 255
208 228 255
208 228 255
208 228 255
208 228 255
208 228 255
208 228 255
208 228 255
208 228 255
208 228 255
209 228 255
209 228 255
209 228 255
209 229 255
209 229 255
209 229 255
209 229 255
209 229 255
209 229 255
209 229 255
209 229 255
209 229 255
209 229 255
209 229 255
209 229 255
209 229 255
209 229 255
209 229 255
209 229 255
209 229 255
209 229 255
209 229 255
209 229 255
209 229 255
209 229 255
209 229 255
209 229 255
210 229 255
210 229 255
210 229 255
210 229 255
210 229 255
210 229 255
210 229 255
210 229 255
210 229 255
210 229 255
210 229 255
210 229 255
210 229 255
210 229 255
210 229 255
210 229 255
210 229 255
210 229 255
210 229 255
210 229 255
210 229 255
210 230 255
210 230 255
210 230 255
211 230 255
211 230 255
211 230 255
211 230 255
211 230 255
211 230 255
211 230 255
211 230 255
211 230 255
211 230 255
211 230 255
211 230 255
211 230 255
211 230 255
211 230 255
211 230 255
211 230 255
211 230 255
211 230 255
211 230 255
211 230 255
211 230 255
211 230 255
212 230 255
212 230 255
212 230 255
212 230 255
212 230 255
212 230 255
212 230 255
212 230 255
212 230 255
212 230 255
212 230 255
212 230 255
212 230 255
212 230 255
212 230 255
212 230 255
212 230 255
212 230 255
212 231 255
212 231 255
212 231 255
212 231 255
212 231 255
212 231 255
212 231 255
212 231 255
213 231 255
213 231 255
213 231 255
213 231 255
213 231 255
213 231 255
213 231 255
213 231 255
213 231 255
213 231 255
213 231 255
213 231 255
213 231 255
213 231 255
213 231 255
213 231 255
213 231 255
213 231 255
213 231 255
213 231 255
213 231 255
213 231 255
213 231 255
213 231 255
213 231 255
213 231 255
213 231 255
213 231 255
213 231 255
214 231 255
214 231 255
214 231 255
214 231 255
214 231 255
214 231 255
214 231 255
214 231 255
214 231 255
214 231 255
214 231 255
214 231 255
214 231 255
214 231 255
214 231 255
214 231 255
214 231 255
214 232 255
214 232 255
214 232 255
214 232 255
214 232 255
214 232 255
214 232 255
214 232 255
214 232 255
214 232 255
214 232 255
214 232 255
214 232 255
214 232 255
214 232 255
214 232 255
214 232 255
215 232 255
215 232 255
215 232 255
215 232 255
214 232 255
214 232 255
214 232 255
214 232 255
214 232 255
214 232 255
214 232 255
214 232 255
214 232 255
214 232 255
214 232 255
214 232 255
214 232 255
214 232 255
214 232 255
214 232 255
214 232 255
214 232 255
214 231 255
214 231 255
214 231 255
214 231 255
214 231 255
214 231 255
214 231 255
214 231 255
214 231 255
214 231 255
214 231 255
214 231 255
214 231 255
214 231 255
214 231 255
214 231 255
214 231 255
214 231 255
213 231 255
213 231 255
213 231 255
213 231 255
213 231 255
213 231 255
213 231 255
213 231 255
213 231 255
213 231 255
213 231 255
213 231 255
213 231 255
213 231 255
213 231 255
213 231 255
213 231 255
213 231 255
213 231 255
213 231 255
213 231 255
213 231 255
213 231 255
213 231 255
213 231 255
213 231 255
213 231 255
213 231 255
213 231 255
212 231 255
212 231 255
212 231 255
212 231 255
212 231 255
212 231 255
212 231 255
212 231 255
212 230 255
212 230 255
212 230 255
212 230 255
212 230 255
212 230 255
212 230 255
212 230 255
212 230 255
212 230 255
212 230 255
212 230 255
212 230 255
212 230 255
212 230 255
212 230 255
212 230 255
211 230 255
211 230 255
211 230 255
211 230 255
211 230 255
211 230 255
211 230 255
211 230 255
211 230 255
211 230 255
211 230 255
211 230 255
211 230 255
211 230 255
211 230 255
211 230 255
211 230 255
211 230 255
211 230 255
211 230 255
211 230 255
211 230 255
211 230 255
211 230 255
210 230 255
210 230 255
210 230 255
210 229 255
210 229 255
210 229 255
210 229 255
210 229 255
210 229 255
210 229 255
210 229 255
210 229 255
210 229 255
210 229 255
210 229 255
210 229 255
210 229 255
210 229 255
210 229 255
206 226 252
209 228 255
204 225 252
205 226 254
206 227 255
205 226 255
202 225 255
203 225 255
201 224 255
201 224 255
199 223 255
199 223 255
197 222 255
196 222 254
197 222 255
196 222 255
196 222 255
195 221 255
195 221 254
195 221 255
195 221 255
196 222 255
195 221 255
196 222 255
196 222 255
195 221 255
195 221 254
196 222 255
197 222 255
197 222 255
199 223 255
200 224 255
201 224 255
201 225 255
203 225 255
202 224 253
201 223 252
206 226 254
208 228 255
208 228 254
208 228 255
208 228 255
208 228 255
208 228 255
208 228 255
208 228 255
208 228 255
208 228 255
208 228 255
208 228 255
208 228 255
208 228 255
208 228 255
208 228 255
208 228 255
208 228 255
208 228 255
208 228 255
208 228 255
208 228 255
208 228 255
208 228 255
208 228 255
208 228 255
208 228 255
208 228 255
208 228 255
208 228 255
208 228 255
208 228 255
208 228 255
208 228 255
208 228 255
208 228 255
208 228 255
208 228 255
208 228 255
208 228 255
208 228 255
208 228 255
208 228 255
208 228 255
208 228 255
208 228 255
208 228 255
208 228 255
208 228 255
208 228 255
208 228 255
208 228 255
209 228 255
209 228 255
209 228 255
209 229 255
209 229 255
209 229 255
209 229 255
209 229 255
209 229 255
209 229 255
209 229 255
209 229 255
209 229 255
209 229 255
209 229 255
209 229 255
209 229 255
209 229 255
209 229 255
209 229 255
209 229 255
209 229 255
209 229 255
209 229 255
209 229 255
209 229 255
209 229 255
209 229 255
209 229 255
209 229 255
209 229 255
210 229 255
210 229 255
210 229 255
210 229 255
210 229 255
210 229 255
210 229 255
210 229 255
210 229 255
210 229 255
210 229 255
210 229 255
210 229 255
210 229 255
210 229 255
210 229 255
210 229 255
210 229 255
210 229 255
210 229 255
210 229 255
210 229 255
210 230 255
210 230 255
211 230 255
211 230 255
211 230 255
211 230 255
211 230 255
211 230 255
211 230 255
211 230 255
211 230 255
211 230 255
211 230 255
211 230 255
211 230 255
211 230 255
211 230 255
211 230 255
211 230 255
211 230 255
211 230 255
211 230 255
211 230 255
211 230 255
211 230 255
211 230 255
212 230 255
212 230 255
212 230 255
212 230 255
212 230 255
212 230 255
212 230 255
212 230 255
212 230 255
212 230 255
212 230 255
212 230 255
212 230 255
212 230 255
212 230 255
212 230 255
212 230 255
212 231 255
212 231 255
212 231 255
212 231 255
212 231 255
212 231 255
212 231 255
212 231 255
213 231 255
213 231 255
213 231 255
213 231 255
213 231 255
213 231 255
213 231 255
213 231 255
213 231 255
213 231 255
213 231 255
213 231 255
213 231 255
213 231 255
213 231 255
213 231 255
213 231 255
213 231 255
213 231 255
213 231 255
213 231 255
213 231 255
213 231 255
213 231 255
213 231 255
213 231 255
213 231 255
213 231 255
213 231 255
214 231 255
214 231 255
214 231 255
214 231 255
214 231 255
214 231 255
214 231 255
214 231 255
214 231 255
214 231 255
214 231 255
214 231 255
214 231 255
214 231 255
214 231 255
214 231 255
214 231 255
214 231 255
214 232 255
214 232 255
214 232 255
214 232 255
214 232 255
214 232 255
214 232 255
214 232 255
214 232 255
214 232 255
214 232 255
214 232 255
214 232 255
214 232 255
214 232 255
214 232 255
214 232 255
214 232 255
215 232 255
215 232 255
215 232 255
215 232 255
215 232 255
215 232 255
215 232 255
215 232 255
215 232 255
215 232 255
215 232 255
215 232 255
215 232 255
215 232 255
215 232 255
214 232 255
214 232 255
214 232 255
214 232 255
214 232 255
214 232 255
214 232 255
214 232 255
214 232 255
214 232 255
214 232 255
214 232 255
214 232 255
214 232 255
214 232 255
214 232 255
214 232 255
214 231 255
214 231 255
214 231 255
214 231 255
214 231 255
214 231 255
214 231 255
214 231 255
214 231 255
214 231 255
214 231 255
214 231 255
214 231 255
214 231 255
214 231 255
214 231 255
214 231 255
213 231 255
213 231 255
213 231 255
213 231 255
213 231 255
213 231 255
213 231 255
213 231 255
213 231 255
213 231 255
213 231 255
213 231 255
213 231 255
213 231 255
213 231 255
213 231 255
213 231 255
213 231 255
213 231 255
213 231 255
213 231 255
213 231 255
213 231 255
213 231 255
213 231 255
213 231 255
213 231 255
213 231 255
213 231 255
213 231 255
212 231 255
212 231 255
212 231 255
212 231 255
212 231 255
212 231 255
212 231 255
212 230 255
212 230 255
212 230 255
212 230 255
212 230 255
212 230 255
212 230 255
212 230 255
212 230 255
212 230 255
212 230 255
212 230 255
212 230 255
212 230 255
212 230 255
212 230 255
212 230 255
212 230 255
211 230 255
211 230 255
211 230 255
211 230 255
211 230 255
211 230 255
211 230 255
211 230 255
211 230 255
211 230 255
211 230 255
211 230 255
211 230 255
211 230 255
211 230 255
211 230 255
211 230 255
211 230 255
211 230 255
211 230 255
211 230 255
211 230 255
211 230 255
211 230 255
210 230 255
210 230 255
210 229 255
210 229 255
210 229 255
210 229 255
210 229 255
210 229 255
210 229 255
210 229 255
207 227 252
210 229 255
205 225 252
205 226 254
205 226 254
204 226 255
205 226 255
202 225 255
201 224 254
201 224 255
199 223 255
199 223 255
198 223 255
197 222 255
196 222 255
194 221 255
195 221 255
193 220 255
194 221 255
193 220 255
193 220 255
193 220 255
192 220 255
193 220 255
191 219 255
192 220 255
192 220 255
192 220 255
192 220 255
193 220 255
193 220 255
194 221 255
194 221 255
195 221 255
195 221 255
196 221 254
197 222 255
200 224 255
200 224 255
203 225 255
202 225 254
202 224 253
206 227 255
207 227 254
208 228 255
209 229 255
209 229 255
209 229 255
209 229 255
209 229 255
209 229 255
209 228 255
209 228 255
209 228 255
209 228 255
209 228 255
209 228 255
208 228 255
208 228 255
208 228 255
208 228 255
208 228 255
208 228 255
208 228 255
208 228 255
208 228 255
208 228 255
208 228 255
208 228 255
208 228 255
208 228 255
208 228 255
208 228 255
208 228 255
208 228 255
209 228 255
209 228 255
209 228 255
209 228 255
209 228 255
209 228 255
209 228 255
209 229 255
209 229 255
209 229 255
209 229 255
209 229 255
209 229 255
209 229 255
209 229 255
209 229 255
209 229 255
209 229 255
209 229 255
209 229 255
209 229 255
209 229 255
209 229 255
209 229 255
209 229 255
209 229 255
209 229 255
209 229 255
209 229 255
209 229 255
209 229 255
209 229 255
209 229 255
209 229 255
209 229 255
209 229 255
209 229 255
209 229 255
209 229 255
209 229 255
209 229 255
209 229 255
210 229 255
210 229 255
210 229 255
210 229 255
210 229 255
210 229 255
210 229 255
210 229 255
210 229 255
210 229 255
210 229 255
210 229 255
210 229 255
210 229 255
210 229 255
210 229 255
210 229 255
210 229 255
210 229 255
210 229 255
210 229 255
210 229 255
210 230 255
210 230 255
210 230 255
211 230 255
211 230 255
211 230 255
211 230 255
211 230 255
211 230 255
211 230 255
211 230 255
211 230 255
211 230 255
211 230 255
211 230 255
211 230 255
211 230 255
211 230 255
211 230 255
211 230 255
211 230 255
211 230 255
211 230 255
211 230 255
211 230 255
211 230 255
211 230 255
212 230 255
212 230 255
212 230 255
212 230 255
212 230 255
212 230 255
212 230 255
212 230 255
212 230 255
212 230 255
212 230 255
212 230 255
212 230 255
212 230 255
212 230 255
212 230 255
212 230 255
212 230 255
212 231 255
212 231 255
212 231 255
212 231 255
212 231 255
212 231 255
212 231 255
212 231 255
213 231 255
213 231 255
213 231 255
213 231 255
213 231 255
213 231 255
213 231 255
213 231 255
213 231 255
213 231 255
213 231 255
213 231 255
213 231 255
213 231 255
213 231 255
213 231 255
213 231 255
213 231 255
213 231 255
213 231 255
213 231 255
213 231 255
213 231 255
213 231 255
213 231 255
213 231 255
213 231 255
213 231 255
213 231 255
214 231 255
214 231 255
214 231 255
214 231 255
214 231 255
214 231 255
214 231 255
214 231 255
214 231 255
214 231 255
214 231 255
214 231 255
214 231 255
214 231 255
214 231 255
214 231 255
214 231 255
214 232 255
214 232 255
214 232 255
214 232 255
214 232 255
214 232 255
214 232 255
214 232 255
214 232 255
214 232 255
214 232 255
214 232 255
214 232 255
214 232 255
214 232 255
214 232 255
214 232 255
215 232 255
215 232 255
215 232 255
215 232 255
215 232 255
215 232 255
215 232 255
215 232 255
215 232 255
215 232 255
215 232 255
215 232 255
215 232 255
215 232 255
215 232 255
215 232 255
215 232 255
215 232 255
215 232 255
215 232 255
215 232 255
215 232 255
215 232 255
215 232 255
215 232 255
215 232 255
215 232 255
215 232 255
214 232 255
214 232 255
214 232 255
214 232 255
214 232 255
214 232 255
214 232 255
214 232 255
214 232 255
214 232 255
214 232 255
214 232 255
214 232 255
214 232 255
214 232 255
214 232 255
214 232 255
214 231 255
214 231 255
214 231 255
214 231 255
214 231 255
214 231 255
214 231 255
214 231 255
214 231 255
214 231 255
214 231 255
214 231 255
214 231 255
214 231 255
214 231 255
214 231 255
214 231 255
213 231 255
213 231 255
213 231 255
213 231 255
213 231 255
213 231 255
213 231 255
213 231 255
213 231 255
213 231 255
213 231 255
213 231 255
213 231 255
213 231 255
213 231 255
213 231 255
213 231 255
213 231 255
213 231 255
213 231 255
213 231 255
213 231 255
213 231 255
213 231 255
213 231 255
213 231 255
213 231 255
213 231 255
213 231 255
212 231 255
212 231 255
212 231 255
212 231 255
212 231 255
212 231 255
212 231 255
212 231 255
212 230 255
212 230 255
212 230 255
212 230 255
212 230 255
212 230 255
212 230 255
212 230 255
212 230 255
212 230 255
212 230 255
212 230 255
212 230 255
212 230 255
212 230 255
212 230 255
212 230 255
212 230 255
211 230 255
211 230 255
211 230 255
211 230 255
211 230 255
211 230 255
211 230 255
211 230 255
211 230 255
211 230 255
211 230 255
211 230 255
211 230 255
211 230 255
211 230 255
211 230 255
211 230 255
211 230 255
211 230 255
211 230 255
211 230 255
211 230 255
211 230 255
211 230 255
210 230 255
210 230 255
209 228 253
208 228 253
207 227 253
206 227 254
206 227 255
204 226 255
203 225 255
201 224 255
200 223 254
199 223 255
199 223 255
198 223 255
198 223 255
196 222 255
195 221 255
194 221 255
194 221 255
193 220 255
192 220 255
192 220 255
191 219 255
190 219 255
190 219 255
190 219 255
190 219 255
190 219 255
189 218 255
190 218 255
190 218 255
190 219 255
190 219 255
190 219 255
190 219 255
191 219 255
191 219 255
192 219 255
194 221 255
193 220 255
196 221 255
197 222 255
196 222 255
199 223 255
199 223 255
201 224 255
203 225 255
205 227 255
202 224 250
207 227 253
208 228 254
208 228 254
209 229 255
209 229 255
209 229 255
209 229 255
209 229 255
209 229 255
209 229 255
209 229 255
209 229 255
209 229 255
209 229 255
209 229 255
209 229 255
209 229 255
209 229 255
209 229 255
209 229 255
209 229 255
209 229 255
209 229 255
209 229 255
209 229 255
209 229 255
209 229 255
209 229 255
209 229 255
209 229 255
209 229 255
209 229 255
209 229 255
209 229 255
209 229 255
209 229 255
209 229 255
209 229 255
209 229 255
209 229 255
209 229 255
209 229 255
209 229 255
209 229 255
209 229 255
209 229 255
209 229 255
209 229 255
209 229 255
209 229 255
209 229 255
209 229 255
209 229 255
209 229 255
209 229 255
209 229 255
209 229 255
209 229 255
209 229 255
209 229 255
209 229 255
209 229 255
209 229 255
210 229 255
210 229 255
210 229 255
210 229 255
210 229 255
210 229 255
210 229 255
210 229 255
210 229 255
210 229 255
210 229 255
210 229 255
210 229 255
210 229 255
210 229 255
210 229 255
210 229 255
210 229 255
210 229 255
210 229 255
210 229 255
210 229 255
210 229 255
210 229 255
210 229 255
210 230 255
210 230 255
210 230 255
211 230 255
211 230 255
211 230 255
211 230 255
211 230 255
211 230 255
211 230 255
211 230 255
211 230 255
211 230 255
211 230 255
211 230 255
211 230 255
211 230 255
211 230 255
211 230 255
211 230 255
211 230 255
211 230 255
211 230 255
211 230 255
211 230 255
211 230 255
211 230 255
212 230 255
212 230 255
212 230 255
212 230 255
212 230 255
212 230 255
212 230 255
212 230 255
212 230 255
212 230 255
212 230 255
212 230 255
212 230 255
212 230 255
212 230 255
212 230 255
212 230 255
212 230 255
212 231 255
212 231 255
212 231 255
212 231 255
212 231 255
212 231 255
212 231 255
212 231 255
213 231 255
213 231 255
213 231 255
213 231 255
213 231 255
213 231 255
213 231 255
213 231 255
213 231 255
213 231 255
213 231 255
213 231 255
213 231 255
213 231 255
213 231 255
213 231 255
213 231 255
213 231 255
213 231 255
213 231 255
213 231 255
213 231 255
213 231 255
213 231 255
213 231 255
213 231 255
213 231 255
213 231 255
213 231 255
214 231 255
214 231 255
214 231 255
214 231 255
214 231 255
214 231 255
214 231 255
214 231 255
214 231 255
214 231 255
214 231 255
214 231 255
214 231 255
214 231 255
214 231 255
214 231 255
214 232 255
214 232 255
214 232 255
214 232 255
214 232 255
214 232 255
214 232 255
214 232 255
214 232 255
214 232 255
214 232 255
214 232 255
214 232 255
214 232 255
214 232 255
214 232 255
214 232 255
214 232 255
215 232 255
215 232 255
215 232 255
215 232 255
215 232 255
215 232 255
215 232 255
215 232 255
215 232 255
215 232 255
215 232 255
215 232 255
215 232 255
215 232 255
215 232 255
215 232 255
215 232 255
215 232 255
215 232 255
215 232 255
215 232 255
215 232 255
215 232 255
215 232 255
215 232 255
215 232 255
215 232 255
215 232 255
215 232 255
215 232 255
215 232 255
215 232 255
215 232 255
215 232 255
215 232 255
215 232 255
215 232 255
215 232 255
215 232 255
215 232 255
215 232 255
214 232 255
214 232 255
214 232 255
214 232 255
214 232 255
214 232 255
214 232 255
214 232 255
214 232 255
214 232 255
214 232 255
214 232 255
214 232 255
214 232 255
214 232 255
214 232 255
214 232 255
214 231 255
214 231 255
214 231 255
214 231 255
214 231 255
214 231 255
214 231 255
214 231 255
214 231 255
214 231 255
214 231 255
214 231 255
214 231 255
214 231 255
214 231 255
214 231 255
213 231 255
213 231 255
213 231 255
213 231 255
213 231 255
213 231 255
213 231 255
213 231 255
213 231 255
213 231 255
213 231 255
213 231 255
213 231 255
213 231 255
213 231 255
213 231 255
213 231 255
213 231 255
213 231 255
213 231 255
213 231 255
213 231 255
213 231 255
213 231 255
213 231 255
213 231 255
213 231 255
213 231 255
213 231 255
212 231 255
212 231 255
212 231 255
212 231 255
212 231 255
212 231 255
212 231 255
212 231 255
212 230 255
212 230 255
212 230 255
212 230 255
212 230 255
212 230 255
212 230 255
212 230 255
212 230 255
212 230 255
212 230 255
212 230 255
212 230 255
212 230 255
212 230 255
212 230 255
212 230 255
212 230 255
211 230 255
211 230 255
211 230 255
211 230 255
211 230 255
211 230 255
211 230 255
211 230 255
211 230 255
211 230 255
211 230 255
211 230 255
211 230 255
211 230 255
211 230 255
211 230 255
211 230 255
211 230 255
211 230 255
208 227 253
207 227 253
201 223 249
205 226 254
206 227 255
204 226 255
201 224 254
201 225 255
200 224 255
199 223 255
198 223 255
197 222 255
196 222 255
195 221 255
194 220 255
193 220 255
193 220 255
191 219 255
191 219 255
190 219 255
190 218 255
189 218 255
188 218 255
189 218 255
188 218 255
188 217 255
188 218 255
188 217 255
188 217 255
188 217 255
188 217 255
188 218 255
189 218 255
188 218 255
188 218 255
189 218 255
189 218 255
191 219 255
191 219 255
192 219 255
193 220 255
194 221 255
196 222 255
197 222 254
198 223 255
200 224 255
202 225 255
203 226 255
205 227 255
202 224 250
205 226 252
207 227 253
209 229 255
209 229 255
209 229 255
209 229 255
209 229 255
209 229 255
209 229 255
209 229 255
209 229 255
209 229 255
209 229 255
209 229 255
209 229 255
209 229 255
209 229 255
209 229 255
209 229 255
209 229 255
209 229 255
209 229 255
209 229 255
209 229 255
209 229 255
209 229 255
209 229 255
209 229 255
209 229 255
209 229 255
209 229 255
209 229 255
209 229 255
209 229 255
209 229 255
209 229 255
209 229 255
209 229 255
209 229 255
209 229 255
209 229 255
209 229 255
209 229 255
209 229 255
209 229 255
209 229 255
209 229 255
209 229 255
209 229 255
209 229 255
209 229 255
209 229 255
210 229 255
210 229 255
210 229 255
210 229 255
210 229 255
210 229 255
210 229 255
210 229 255
210 229 255
210 229 255
210 229 255
210 229 255
210 229 255
210 229 255
210 229 255
210 229 255
210 229 255
210 229 255
210 229 255
210 229 255
210 229 255
210 229 255
210 229 255
210 229 255
210 229 255
210 229 255
210 229 255
210 229 255
210 230 255
210 230 255
211 230 255
211 230 255
211 230 255
211 230 255
211 230 255
211 230 255
211 230 255
211 230 255
211 230 255
211 230 255
211 230 255
211 230 255
211 230 255
211 230 255
211 230 255
211 230 255
211 230 255
211 230 255
211 230 255
211 230 255
211 230 255
211 230 255
211 230 255
211 230 255
211 230 255
212 230 255
212 230 255
212 230 255
212 230 255
212 230 255
212 230 255
212 230 255
212 230 255
212 230 255
212 230 255
212 230 255
212 230 255
212 230 255
212 230 255
212 230 255
212 230 255
212 230 255
212 230 255
212 231 255
212 231 255
212 231 255
212 231 255
212 231 255
212 231 255
212 231 255
212 231 255
213 231 255
213 231 255
213 231 255
213 231 255
213 231 255
213 231 255
213 231 255
213 231 255
213 231 255
213 231 255
213 231 255
213 231 255
213 231 255
213 231 255
213 231 255
213 231 255
213 231 255
213 231 255
213 231 255
213 231 255
213 231 255
213 231 255
213 231 255
213 231 255
213 231 255
213 231 255
213 231 255
213 231 255
213 231 255
214 231 255
214 231 255
214 231 255
214 231 255
214 231 255
214 231 255
214 231 255
214 231 255
214 231 255
214 231 255
214 231 255
214 231 255
214 231 255
214 231 255
214 231 255
214 231 255
214 232 255
214 232 255
214 232 255
214 232 255
214 232 255
214 232 255
214 232 255
214 232 255
214 232 255
214 232 255
214 232 255
214 232 255
214 232 255
214 232 255
214 232 255
214 232 255
214 232 255
214 232 255
215 232 255
215 232 255
215 232 255
215 232 255
215 232 255
215 232 255
215 232 255
215 232 255
215 232 255
215 232 255
215 232 255
215 232 255
215 232 255
215 232 255
215 232 255
215 232 255
215 232 255
215 232 255
215 232 255
215 232 255
215 232 255
215 232 255
215 232 255
215 232 255
215 232 255
215 232 255
215 232 255
215 232 255
215 232 255
215 232 255
215 232 255
215 232 255
215 232 255
215 232 255
215 232 255
215 232 255
215 232 255
215 232 255
215 232 255
215 232 255
215 232 255
215 232 255
215 232 255
215 232 255
215 232 255
215 232 255
215 232 255
215 232 255
215 232 255
215 232 255
215 232 255
215 232 255
215 232 255
214 232 255
214 232 255
214 232 255
214 232 255
214 232 255
214 232 255
214 232 255
214 232 255
214 232 255
214 232 255
214 232 255
214 232 255
214 232 255
214 232 255
214 232 255
214 232 255
214 232 255
214 231 255
214 231 255
214 231 255
214 231 255
214 231 255
214 231 255
214 231 255
214 231 255
214 231 255
214 231 255
214 231 255
214 231 255
214 231 255
214 231 255
214 231 255
214 231 255
213 231 255
213 231 255
213 231 255
213 231 255
213 231 255
213 231 255
213 231 255
213 231 255
213 231 255
213 231 255
213 231 255
213 231 255
213 231 255
213 231 255
213 231 255
213 231 255
213 231 255
213 231 255
213 231 255
213 231 255
213 231 255
213 231 255
213 231 255
213 231 255
213 231 255
213 231 255
213 231 255
213 231 255
213 231 255
212 231 255
212 231 255
212 231 255
212 231 255
212 231 255
212 231 255
212 231 255
212 231 255
212 230 255
212 230 255
212 230 255
212 230 255
212 230 255
212 230 255
212 230 255
212 230 255
212 230 255
212 230 255
212 230 255
212 230 255
212 230 255
212 230 255
212 230 255
212 230 255
212 230 255
212 230 255
211 230 255
211 230 255
211 230 255
211 230 255
211 230 255
211 230 255
211 230 255
211 230 255
211 230 255
211 230 255
211 230 255
208 227 252
206 225 252
206 226 252
208 228 255
207 227 255
204 226 255
203 226 255
202 225 255
200 224 255
199 223 255
199 223 255
197 222 255
196 222 255
194 221 255
194 221 255
193 220 255
192 220 255
191 219 255
191 219 255
189 218 255
189 218 255
189 218 255
188 218 255
188 217 255
187 217 255
187 217 255
187 217 255
186 217 255
186 217 255
186 217 255
186 216 255
185 216 255
186 216 255
186 217 255
186 216 255
186 217 255
187 217 255
187 217 255
188 218 255
188 218 255
189 218 255
190 219 255
191 219 255
192 220 255
193 220 255
195 221 255
195 221 255
197 222 255
199 223 255
200 224 255
201 224 255
203 225 255
207 227 254
206 226 253
209 229 255
209 228 254
209 229 255
209 229 255
209 229 255
209 229 255
209 229 255
209 229 255
209 229 255
209 229 255
209 229 255
209 229 255
209 229 255
209 229 255
209 229 255
209 229 255
209 229 255
209 229 255
209 229 255
209 229 255
209 229 255
209 229 255
209 229 255
209 229 255
209 229 255
209 229 255
209 229 255
209 229 255
209 229 255
209 229 255
209 229 255
209 229 255
209 229 255
209 229 255
209 229 255
209 229 255
209 229 255
210 229 255
210 229 255
210 229 255
210 229 255
210 229 255
210 229 255
210 229 255
210 229 255
210 229 255
210 229 255
210 229 255
210 229 255
210 229 255
210 229 255
210 229 255
210 229 255
210 229 255
210 229 255
210 229 255
210 229 255
210 229 255
210 229 255
210 229 255
210 229 255
210 229 255
210 229 255
210 229 255
210 229 255
210 229 255
210 229 255
210 229 255
210 229 255
210 229 255
210 230 255
210 230 255
210 230 255
211 230 255
211 230 255
211 230 255
211 230 255
211 230 255
211 230 255
211 230 255
211 230 255
211 230 255
211 230 255
211 230 255
211 230 255
211 230 255
211 230 255
211 230 255
211 230 255
211 230 255
211 230 255
211 230 255
211 230 255
211 230 255
211 230 255
211 230 255
211 230 255
211 230 255
211 230 255
212 230 255
212 230 255
212 230 255
212 230 255
212 230 255
212 230 255
212 230 255
212 230 255
212 230 255
212 230 255
212 230 255
212 230 255
212 230 255
212 230 255
212 230 255
212 230 255
212 230 255
212 230 255
212 231 255
212 231 255
212 231 255
212 231 255
212 231 255
212 231 255
212 231 255
212 231 255
213 231 255
213 231 255
213 231 255
213 231 255
213 231 255
213 231 255
213 231 255
213 231 255
213 231 255
213 231 255
213 231 255
213 231 255
213 231 255
213 231 255
213 231 255
213 231 255
213 231 255
213 231 255
213 231 255
213 231 255
213 231 255
213 231 255
213 231 255
213 231 255
213 231 255
213 231 255
213 231 255
213 231 255
214 231 255
214 231 255
214 231 255
214 231 255
214 231 255
214 231 255
214 231 255
214 231 255
214 231 255
214 231 255
214 231 255
214 231 255
214 231 255
214 231 255
214 231 255
214 231 255
214 231 255
214 232 255
214 232 255
214 232 255
214 232 255
214 232 255
214 232 255
214 232 255
214 232 255
214 232 255
214 232 255
214 232 255
214 232 255
214 232 255
214 232 255
214 232 255
214 232 255
214 232 255
215 232 255
215 232 255
215 232 255
215 232 255
215 232 255
215 232 255
215 232 255
215 232 255
215 232 255
215 232 255
215 232 255
215 232 255
215 232 255
215 232 255
215 232 255
215 232 255
215 232 255
215 232 255
215 232 255
215 232 255
215 232 255
215 232 255
215 232 255
215 232 255
215 232 255
215 232 255
215 232 255
215 232 255
215 232 255
215 232 255
215 232 255
215 232 255
215 232 255
215 232 255
215 232 255
215 232 255
215 232 255
215 232 255
215 232 255
215 232 255
215 232 255
215 232 255
215 232 255
215 232 255
215 232 255
215 232 255
215 232 255
215 232 255
215 232 255
215 232 255
215 232 255
215 232 255
215 232 255
215 232 255
215 232 255
215 232 255
215 232 255
215 232 255
215 232 255
215 232 255
215 232 255
215 232 255
215 232 255
215 232 255
215 232 255
215 232 255
215 232 255
214 232 255
214 232 255
214 232 255
214 232 255
214 232 255
214 232 255
214 232 255
214 232 255
214 232 255
214 232 255
214 232 255
214 232 255
214 232 255
214 232 255
214 232 255
214 232 255
214 232 255
214 231 255
214 231 255
214 231 255
214 231 255
214 231 255
214 231 255
214 231 255
214 231 255
214 231 255
214 231 255
214 231 255
214 231 255
214 231 255
214 231 255
214 231 255
214 231 255
213 231 255
213 231 255
213 231 255
213 231 255
213 231 255
213 231 255
213 231 255
213 231 255
213 231 255
213 231 255
213 231 255
213 231 255
213 231 255
213 231 255
213 231 255
213 231 255
213 231 255
213 231 255
213 231 255
213 231 255
213 231 255
213 231 255
213 231 255
213 231 255
213 231 255
213 231 255
213 231 255
213 231 255
212 231 255
212 231 255
212 231 255
212 231 255
212 231 255
212 231 255
212 231 255
212 231 255
212 230 255
212 230 255
212 230 255
212 230 255
212 230 255
212 230 255
212 230 255
212 230 255
212 230 255
212 230 255
212 230 255
212 230 255
212 230 255
212 230 255
212 230 255
212 230 255
212 230 255
212 230 255
212 230 255
211 230 255
211 230 255
211 230 255
208 227 253
206 226 250
207 227 254
207 228 255
205 227 255
205 227 255
202 225 255
201 224 255
199 224 255
198 223 255
197 222 255
196 222 255
195 221 255
194 221 255
194 221 255
192 220 255
191 219 255
191 219 255
190 219 255
189 218 255
188 218 255
188 217 255
187 217 255
187 217 255
186 217 255
186 216 255
185 216 255
185 216 255
185 216 255
184 216 255
184 215 255
184 215 255
184 216 255
184 216 255
184 216 255
184 216 255
185 216 255
185 216 255
186 216 255
186 216 255
186 217 255
187 217 255
188 218 255
189 218 255
189 218 255
190 219 255
191 219 255
194 221 255
194 221 255
195 221 255
197 222 255
199 223 255
200 224 255
202 225 255
204 226 255
207 228 255
208 226 255
211 229 255
210 229 255
210 229 255
210 229 255
210 229 255
210 229 255
210 229 255
210 229 255
210 229 255
210 229 255
210 229 255
210 229 255
210 229 255
210 229 255
210 229 255
210 229 255
210 229 255
210 229 255
210 229 255
210 229 255
210 229 255
210 229 255
210 229 255
210 229 255
210 229 255
210 229 255
210 229 255
210 229 255
210 229 255
210 229 255
210 229 255
210 229 255
210 229 255
210 229 255
210 229 255
210 229 255
210 229 255
210 229 255
210 229 255
210 229 255
210 229 255
210 229 255
210 229 255
210 229 255
210 229 255
210 229 255
210 229 255
210 229 255
210 229 255
210 229 255
210 229 255
210 229 255
210 229 255
210 229 255
210 229 255
210 229 255
210 229 255
210 229 255
210 229 255
210 230 255
210 230 255
210 230 255
210 230 255
211 230 255
211 230 255
211 230 255
211 230 255
211 230 255
211 230 255
211 230 255
211 230 255
211 230 255
211 230 255
211 230 255
211 230 255
211 230 255
211 230 255
211 230 255
211 230 255
211 230 255
211 230 255
211 230 255
211 230 255
211 230 255
211 230 255
211 230 255
211 230 255
211 230 255
211 230 255
211 230 255
212 230 255
212 230 255
212 230 255
212 230 255
212 230 255
212 230 255
212 230 255
212 230 255
212 230 255
212 230 255
212 230 255
212 230 255
212 230 255
212 230 255
212 230 255
212 230 255
212 230 255
212 230 255
212 230 255
212 231 255
212 231 255
212 231 255
212 231 255
212 231 255
212 231 255
212 231 255
212 231 255
213 231 255
213 231 255
213 231 255
213 231 255
213 231 255
213 231 255
213 231 255
213 231 255
213 231 255
213 231 255
213 231 255
213 231 255
213 231 255
213 231 255
213 231 255
213 231 255
213 231 255
213 231 255
213 231 255
213 231 255
213 231 255
213 231 255
213 231 255
213 231 255
213 231 255
213 231 255
213 231 255
213 231 255
214 231 255
214 231 255
214 231 255
214 231 255
214 231 255
214 231 255
214 231 255
214 231 255
214 231 255
214 231 255
214 231 255
214 231 255
214 231 255
214 231 255
214 231 255
214 231 255
214 232 255
214 232 255
214 232 255
214 232 255
214 232 255
214 232 255
214 232 255
214 232 255
214 232 255
214 232 255
214 232 255
214 232 255
214 232 255
214 232 255
214 232 255
214 232 255
214 232 255
214 232 255
215 232 255
215 232 255
215 232 255
215 232 255
215 232 255
215 232 255
215 232 255
215 232 255
215 232 255
215 232 255
215 232 255
215 232 255
215 232 255
215 232 255
215 232 255
215 232 255
215 232 255
215 232 255
215 232 255
215 232 255
215 232 255
215 232 255
215 232 255
215 232 255
215 232 255
215 232 255
215 232 255
215 232 255
215 232 255
215 232 255
215 232 255
215 232 255
215 232 255
215 232 255
215 232 255
215 232 255
216 232 255
216 232 255
216 232 255
215 232 255
215 232 255
215 232 255
215 232 255
215 232 255
215 232 255
215 232 255
215 232 255
215 232 255
215 232 255
215 232 255
215 232 255
215 232 255
215 232 255
215 232 255
215 232 255
215 232 255
215 232 255
215 232 255
215 232 255
215 232 255
215 232 255
215 232 255
215 232 255
215 232 255
215 232 255
215 232 255
215 232 255
215 232 255
215 232 255
215 232 255
215 232 255
215 232 255
215 232 255
215 232 255
215 232 255
215 232 255
215 232 255
215 232 255
215 232 255
214 232 255
214 232 255
214 232 255
214 232 255
214 232 255
214 232 255
214 232 255
214 232 255
214 232 255
214 232 255
214 232 255
214 232 255
214 232 255
214 232 255
214 232 255
214 232 255
214 232 255
214 231 255
214 231 255
214 231 255
214 231 255
214 231 255
214 231 255
214 231 255
214 231 255
214 231 255
214 231 255
214 231 255
214 231 255
214 231 255
214 231 255
214 231 255
214 231 255
213 231 255
213 231 255
213 231 255
213 231 255
213 231 255
213 231 255
213 231 255
213 231 255
213 231 255
213 231 255
213 231 255
213 231 255
213 231 255
213 231 255
213 231 255
213 231 255
213 231 255
213 231 255
213 231 255
213 231 255
213 231 255
213 231 255
213 231 255
213 231 255
213 231 255
213 231 255
213 231 255
213 231 255
213 231 255
212 231 255
212 231 255
212 231 255
212 231 255
212 231 255
212 231 255
212 231 255
212 230 255
212 230 255
212 230 255
212 230 255
212 230 255
212 230 255
212 230 255
212 230 255
212 230 255
212 230 255
212 230 255
212 230 255
212 230 255
212 230 255
210 230 255
209 228 254
208 228 254
207 227 254
205 227 255
206 227 255
204 226 255
202 225 255
201 224 255
199 223 255
198 223 255
197 222 255
196 222 255
195 221 255
194 221 255
193 220 255
192 220 255
191 219 255
190 218 255
190 218 255
188 218 255
188 217 255
187 217 255
186 217 255
186 216 255
186 216 255
186 216 255
186 216 254
186 216 253
186 215 250
185 215 252
187 216 253
185 214 250
187 215 250
184 213 249
189 217 253
190 218 255
185 216 254
185 215 254
184 216 255
184 215 255
185 216 255
185 216 255
186 217 255
186 216 255
187 217 255
188 217 255
189 218 255
189 218 255
191 219 255
192 220 255
193 220 255
194 221 255
196 222 255
199 223 255
200 224 255
202 225 255
204 226 255
205 226 255
209 228 255
208 226 253
210 229 255
210 229 255
210 229 255
210 229 255
210 229 255
210 229 255
210 229 255
210 229 255
210 229 255
210 229 255
210 229 255
210 229 255
210 229 255
210 229 255
210 229 255
210 229 255
210 229 255
210 229 255
210 229 255
210 229 255
210 229 255
210 229 255
210 229 255
210 229 255
210 229 255
210 229 255
210 229 255
210 229 255
210 229 255
210 229 255
210 229 255
210 229 255
210 229 255
210 229 255
210 229 255
210 229 255
210 229 255
210 229 255
210 229 255
210 229 255
210 229 255
210 229 255
210 229 255
210 229 255
210 229 255
210 229 255
210 230 255
210 229 255
210 230 255
210 230 255
210 230 255
211 230 255
211 230 255
211 230 255
211 230 255
211 230 255
211 230 255
211 230 255
211 230 255
211 230 255
211 230 255
211 230 255
211 230 255
211 230 255
211 230 255
211 230 255
211 230 255
211 230 255
211 230 255
211 230 255
211 230 255
211 230 255
211 230 255
211 230 255
211 230 255
211 230 255
211 230 255
211 230 255
211 230 255
211 230 255
211 230 255
212 230 255
212 230 255
212 230 255
212 230 255
212 230 255
212 230 255
212 230 255
212 230 255
212 230 255
212 230 255
212 230 255
212 230 255
212 230 255
212 230 255
212 230 255
212 230 255
212 230 255
212 230 255
212 230 255
212 230 255
212 231 255
212 231 255
212 231 255
212 231 255
212 231 255
212 231 255
212 231 255
213 231 255
213 231 255
213 231 255
213 231 255
213 231 255
213 231 255
213 231 255
213 231 255
213 231 255
213 231 255
213 231 255
213 231 255
213 231 255
213 231 255
213 231 255
213 231 255
213 231 255
213 231 255
213 231 255
213 231 255
213 231 255
213 231 255
213 231 255
213 231 255
213 231 255
213 231 255
213 231 255
213 231 255
213 231 255
214 231 255
214 231 255
214 231 255
214 231 255
214 231 255
214 231 255
214 231 255
214 231 255
214 231 255
214 231 255
214 231 255
214 231 255
214 231 255
214 231 255
214 231 255
214 231 255
214 232 255
214 232 255
214 232 255
214 232 255
214 232 255
214 232 255
214 232 255
214 232 255
214 232 255
214 232 255
214 232 255
214 232 255
214 232 255
214 232 255
214 232 255
214 232 255
215 232 255
215 232 255
215 232 255
215 232 255
215 232 255
215 232 255
215 232 255
215 232 255
215 232 255
215 232 255
215 232 255
215 232 255
215 232 255
215 232 255
215 232 255
215 232 255
215 232 255
215 232 255
215 232 255
215 232 255
215 232 255
215 232 255
215 232 255
215 232 255
215 232 255
215 232 255
215 232 255
215 232 255
215 232 255
215 232 255
215 232 255
215 232 255
215 232 255
215 232 255
215 232 255
215 232 255
215 232 255
215 232 255
215 232 255
215 232 255
215 232 255
216 232 255
216 232 255
216 232 255
216 232 255
216 232 255
216 232 255
216 232 255
216 232 255
216 232 255
216 232 255
216 232 255
216 232 255
216 232 255
216 232 255
215 232 255
215 232 255
215 232 255
215 232 255
215 232 255
215 232 255
215 232 255
215 232 255
215 232 255
215 232 255
215 232 255
215 232 255
215 232 255
215 232 255
215 232 255
215 232 255
215 232 255
215 232 255
215 232 255
215 232 255
215 232 255
215 232 255
215 232 255
215 232 255
215 232 255
215 232 255
215 232 255
215 232 255
215 232 255
215 232 255
215 232 255
215 232 255
215 232 255
215 232 255
215 232 255
215 232 255
215 232 255
215 232 255
215 232 255
214 232 255
214 232 255
214 232 255
214 232 255
214 232 255
214 232 255
214 232 255
214 232 255
214 232 255
214 232 255
214 232 255
214 232 255
214 232 255
214 232 255
214 232 255
214 232 255
214 232 255
214 231 255
214 231 255
214 231 255
214 231 255
214 231 255
214 231 255
214 231 255
214 231 255
214 231 255
214 231 255
214 231 255
214 231 255
214 231 255
214 231 255
214 231 255
214 231 255
213 231 255
213 231 255
213 231 255
213 231 255
213 231 255
213 231 255
213 231 255
213 231 255
213 231 255
213 231 255
213 231 255
213 231 255
213 231 255
213 231 255
213 231 255
213 231 255
213 231 255
213 231 255
213 231 255
213 231 255
213 231 255
213 231 255
213 231 255
213 231 255
213 231 255
213 231 255
213 231 255
213 231 255
212 231 255
212 231 255
212 231 255
212 231 255
212 231 255
212 231 255
212 231 255
212 231 255
212 230 255
212 230 255
212 230 255
212 230 255
212 230 255
212 230 255
208 227 252
206 225 250
207 227 253
208 228 255
207 228 255
205 226 255
204 226 255
201 224 254
201 224 255
200 224 255
199 223 255
197 222 255
196 222 255
195 221 255
194 221 255
192 220 255
191 219 255
191 219 255
190 218 255
189 218 255
188 217 255
187 217 255
187 217 255
188 217 255
190 218 254
189 216 250
185 212 244
191 217 250
193 219 252
183 209 240
193 219 252
189 216 248
190 216 246
193 218 250
194 219 250
189 214 245
188 214 245
188 214 246
189 217 250
191 218 250
191 217 250
186 214 248
191 219 254
187 217 254
185 215 254
185 216 255
185 216 255
187 217 255
188 217 255
188 217 255
189 218 255
190 219 255
192 219 255
192 220 255
194 221 255
196 222 255
198 223 255
199 223 255
201 225 255
203 226 255
205 226 255
205 223 255
208 224 255
208 225 255
210 229 255
210 229 255
210 229 255
210 229 255
210 229 255
210 229 255
210 229 255
210 229 255
210 229 255
210 229 255
210 229 255
210 229 255
210 229 255
210 229 255
210 229 255
210 229 255
210 229 255
210 229 255
210 229 255
210 229 255
210 229 255
210 229 255
210 229 255
210 229 255
210 229 255
210 229 255
210 229 255
210 229 255
210 229 255
210 229 255
210 229 255
210 230 255
210 230 255
210 230 255
210 230 255
210 230 255
211 230 255
211 230 255
211 230 255
211 230 255
211 230 255
211 230 255
211 230 255
211 230 255
211 230 255
211 230 255
211 230 255
211 230 255
211 230 255
211 230 255
211 230 255
211 230 255
211 230 255
211 230 255
211 230 255
211 230 255
211 230 255
211 230 255
211 230 255
211 230 255
211 230 255
211 230 255
211 230 255
211 230 255
211 230 255
211 230 255
211 230 255
211 230 255
211 230 255
211 230 255
211 230 255
211 230 255
212 230 255
212 230 255
212 230 255
212 230 255
212 230 255
212 230 255
212 230 255
212 230 255
212 230 255
212 230 255
212 230 255
212 230 255
212 230 255
212 230 255
212 230 255
212 230 255
212 230 255
212 230 255
212 230 255
212 230 255
212 231 255
212 231 255
212 231 255
212 231 255
212 231 255
212 231 255
212 231 255
212 231 255
213 231 255
213 231 255
213 231 255
213 231 255
213 231 255
213 231 255
213 231 255
213 231 255
213 231 255
213 231 255
213 231 255
213 231 255
213 231 255
213 231 255
213 231 255
213 231 255
213 231 255
213 231 255
213 231 255
213 231 255
213 231 255
213 231 255
213 231 255
213 231 255
213 231 255
213 231 255
213 231 255
213 231 255
214 231 255
214 231 255
214 231 255
214 231 255
214 231 255
214 231 255
214 231 255
214 231 255
214 231 255
214 231 255
214 231 255
214 231 255
214 231 255
214 231 255
214 231 255
214 231 255
214 232 255
214 232 255
214 232 255
214 232 255
214 232 255
214 232 255
214 232 255
214 232 255
214 232 255
214 232 255
214 232 255
214 232 255
214 232 255
214 232 255
214 232 255
214 232 255
214 232 255
215 232 255
215 232 255
215 232 255
215 232 255
215 232 255
215 232 255
215 232 255
215 232 255
215 232 255
215 232 255
215 232 255
215 232 255
215 232 255
215 232 255
215 232 255
215 232 255
215 232 255
215 232 255
215 232 255
215 232 255
215 232 255
215 232 255
215 232 255
215 232 255
215 232 255
215 232 255
215 232 255
215 232 255
215 232 255
215 232 255
215 232 255
215 232 255
215 232 255
215 232 255
215 232 255
215 232 255
215 232 255
215 232 255
215 232 255
215 232 255
216 232 255
216 232 255
216 232 255
216 232 255
216 232 255
216 232 255
216 232 255
216 232 255
216 232 255
216 232 255
216 233 255
216 233 255
216 233 255
216 232 255
216 232 255
216 232 255
216 232 255
216 232 255
216 232 255
216 232 255
216 232 255
216 232 255
216 232 255
216 232 255
216 232 255
216 232 255
216 232 255
216 232 255
215 232 255
215 232 255
215 232 255
215 232 255
215 232 255
215 232 255
215 232 255
215 232 255
215 232 255
215 232 255
215 232 255
215 232 255
215 232 255
215 232 255
215 232 255
215 232 255
215 232 255
215 232 255
215 232 255
215 232 255
215 232 255
215 232 255
215 232 255
215 232 255
215 232 255
215 232 255
215 232 255
215 232 255
215 232 255
215 232 255
215 232 255
215 232 255
215 232 255
215 232 255
215 232 255
215 232 255
215 232 255
215 232 255
215 232 255
214 232 255
214 232 255
214 232 255
214 232 255
214 232 255
214 232 255
214 232 255
214 232 255
214 232 255
214 232 255
214 232 255
214 232 255
214 232 255
214 232 255
214 232 255
214 232 255
214 232 255
214 231 255
214 231 255
214 231 255
214 231 255
214 231 255
214 231 255
214 231 255
214 231 255
214 231 255
214 231 255
214 231 255
214 231 255
214 231 255
214 231 255
214 231 255
214 231 255
213 231 255
213 231 255
213 231 255
213 231 255
213 231 255
213 231 255
213 231 255
213 231 255
213 231 255
213 231 255
213 231 255
213 231 255
213 231 255
213 231 255
213 231 255
213 231 255
213 231 255
213 231 255
213 231 255
213 231 255
213 231 255
213 231 255
213 231 255
213 231 255
213 231 255
213 231 255
213 231 255
213 231 255
212 231 255
212 231 255
212 231 255
212 231 255
212 231 255
211 229 254
210 228 253
210 230 255
210 229 255
207 227 255
204 226 254
205 226 255
203 226 255
202 225 255
200 224 255
199 224 255
198 223 255
197 222 255
196 222 255
195 221 255
194 221 255
192 220 255
192 220 255
191 219 255
190 218 255
189 218 255
188 218 255
187 216 252
189 217 252
185 211 242
193 218 249
193 219 250
193 219 250
195 220 252
192 217 249
187 213 242
195 220 253
189 215 245
194 219 252
190 216 248
191 217 248
197 221 253
192 218 249
194 219 250
193 218 248
188 214 244
192 217 248
187 214 244
185 211 238
191 217 249
187 214 245
186 214 246
189 216 252
188 216 253
185 216 254
186 217 255
187 217 255
187 217 255
189 218 255
190 218 255
191 219 255
193 220 255
194 221 255
196 222 255
197 222 255
199 223 255
201 224 255
203 226 255
204 224 255
206 224 255
208 226 255
206 222 254
211 230 255
211 230 255
211 230 255
211 230 255
211 230 255
211 230 255
211 230 255
211 230 255
211 230 255
211 230 255
211 230 255
211 230 255
211 230 255
211 230 255
211 230 255
211 230 255
211 230 255
211 230 255
211 230 255
211 230 255
211 230 255
211 230 255
211 230 255
211 230 255
211 230 255
211 230 255
211 230 255
211 230 255
211 230 255
211 230 255
211 230 255
211 230 255
211 230 255
211 230 255
211 230 255
211 230 255
211 230 255
211 230 255
211 230 255
211 230 255
211 230 255
211 230 255
211 230 255
211 230 255
211 230 255
211 230 255
211 230 255
211 230 255
211 230 255
211 230 255
211 230 255
211 230 255
211 230 255
211 230 255
211 230 255
211 230 255
211 230 255
211 230 255
211 230 255
211 230 255
211 230 255
211 230 255
212 230 255
212 230 255
212 230 255
212 230 255
212 230 255
212 230 255
212 230 255
212 230 255
212 230 255
212 230 255
212 230 255
212 230 255
212 230 255
212 230 255
212 230 255
212 230 255
212 230 255
212 230 255
212 230 255
212 230 255
212 230 255
212 230 255
212 231 255
212 231 255
212 231 255
212 231 255
212 231 255
212 231 255
212 231 255
212 231 255
213 231 255
213 231 255
213 231 255
213 231 255
213 231 255
213 231 255
213 231 255
213 231 255
213 231 255
213 231 255
213 231 255
213 231 255
213 231 255
213 231 255
213 231 255
213 231 255
213 231 255
213 231 255
213 231 255
213 231 255
213 231 255
213 231 255
213 231 255
213 231 255
213 231 255
213 231 255
213 231 255
213 231 255
213 231 255
214 231 255
214 231 255
214 231 255
214 231 255
214 231 255
214 231 255
214 231 255
214 231 255
214 231 255
214 231 255
214 231 255
214 231 255
214 231 255
214 231 255
214 231 255
214 231 255
214 232 255
214 232 255
214 232 255
214 232 255
214 232 255
214 232 255
214 232 255
214 232 255
214 232 255
214 232 255
214 232 255
214 232 255
214 232 255
214 232 255
214 232 255
214 232 255
215 232 255
215 232 255
215 232 255
215 232 255
215 232 255
215 232 255
215 232 255
215 232 255
215 232 255
215 232 255
215 232 255
215 232 255
215 232 255
215 232 255
215 232 255
215 232 255
215 232 255
215 232 255
215 232 255
215 232 255
215 232 255
215 232 255
215 232 255
215 232 255
215 232 255
215 232 255
215 232 255
215 232 255
215 232 255
215 232 255
215 232 255
215 232 255
215 232 255
215 232 255
215 232 255
215 232 255
215 232 255
215 232 255
215 232 255
216 232 255
216 232 255
216 232 255
216 232 255
216 232 255
216 232 255
216 232 255
216 232 255
216 232 255
216 232 255
216 232 255
216 232 255
216 232 255
216 232 255
216 233 255
216 233 255
216 233 255
216 233 255
216 233 255
216 233 255
216 233 255
216 233 255
216 233 255
216 233 255
216 233 255
216 233 255
216 233 255
216 233 255
216 233 255
216 232 255
216 232 255
216 232 255
216 232 255
216 232 255
216 232 255
216 232 255
216 232 255
216 232 255
216 232 255
216 232 255
216 232 255
216 232 255
216 232 255
216 232 255
215 232 255
215 232 255
215 232 255
215 232 255
215 232 255
215 232 255
215 232 255
215 232 255
215 232 255
215 232 255
215 232 255
215 232 255
215 232 255
215 232 255
215 232 255
215 232 255
215 232 255
215 232 255
215 232 255
215 232 255
215 232 255
215 232 255
215 232 255
215 232 255
215 232 255
215 232 255
215 232 255
215 232 255
215 232 255
215 232 255
215 232 255
215 232 255
215 232 255
215 232 255
215 232 255
215 232 255
215 232 255
215 232 255
214 232 255
214 232 255
214 232 255
214 232 255
214 232 255
214 232 255
214 232 255
214 232 255
214 232 255
214 232 255
214 232 255
214 232 255
214 232 255
214 232 255
214 232 255
214 232 255
214 231 255
214 231 255
214 231 255
214 231 255
214 231 255
214 231 255
214 231 255
214 231 255
214 231 255
214 231 255
214 231 255
214 231 255
214 231 255
214 231 255
214 231 255
214 231 255
213 231 255
213 231 255
213 231 255
213 231 255
213 231 255
213 231 255
213 231 255
213 231 255
213 231 255
213 231 255
213 231 255
213 231 255
213 231 255
213 231 255
213 231 255
213 231 255
213 231 255
213 231 255
213 231 255
213 231 255
213 231 255
213 231 255
213 231 255
213 231 255
213 231 255
213 231 255
211 229 254
212 231 255
206 226 250
209 229 255
208 228 255
206 227 255
205 226 255
204 226 255
203 225 255
201 224 255
200 224 255
199 223 255
197 222 255
196 222 255
195 221 255
193 220 255
193 220 255
192 220 255
191 219 255
190 219 255
190 219 255
186 213 246
191 217 248
190 216 246
195 220 252
190 215 245
190 215 246
191 215 245
193 217 248
192 217 245
190 215 244
189 214 244
192 216 245
191 217 249
189 214 245
188 214 244
190 216 245
180 206 233
182 208 236
181 208 234
195 220 253
189 214 244
186 212 241
182 208 236
192 217 248
196 222 254
191 216 246
192 217 248
189 215 245
193 218 250
191 217 250
191 217 250
187 215 252
187 217 255
187 217 255
188 218 255
190 218 255
191 219 255
192 220 255
193 220 255
195 221 255
197 222 255
198 223 255
201 224 255
204 226 255
203 222 255
207 227 255
204 220 253
206 221 254
211 230 255
211 230 255
211 230 255
211 230 255
211 230 255
211 230 255
211 230 255
211 230 255
211 230 255
211 230 255
211 230 255
211 230 255
211 230 255
211 230 255
211 230 255
211 230 255
211 230 255
211 230 255
211 230 255
211 230 255
211 230 255
211 230 255
211 230 255
211 230 255
211 230 255
211 230 255
211 230 255
211 230 255
211 230 255
211 230 255
211 230 255
211 230 255
211 230 255
211 230 255
211 230 255
211 230 255
211 230 255
211 230 255
211 230 255
211 230 255
211 230 255
211 230 255
211 230 255
211 230 255
211 230 255
211 230 255
211 230 255
211 230 255
211 230 255
211 230 255
211 230 255
211 230 255
212 230 255
212 230 255
212 230 255
212 230 255
212 230 255
212 230 255
212 230 255
212 230 255
212 230 255
212 230 255
212 230 255
212 230 255
212 230 255
212 230 255
212 230 255
212 230 255
212 230 255
212 230 255
212 230 255
212 230 255
212 230 255
212 230 255
212 231 255
212 231 255
212 231 255
212 231 255
212 231 255
212 231 255
212 231 255
212 231 255
212 231 255
212 231 255
213 231 255
213 231 255
213 231 255
213 231 255
213 231 255
213 231 255
213 231 255
213 231 255
213 231 255
213 231 255
213 231 255
213 231 255
213 231 255
213 231 255
213 231 255
213 231 255
213 231 255
213 231 255
213 231 255
213 231 255
213 231 255
213 231 255
213 231 255
213 231 255
213 231 255
213 231 255
213 231 255
213 231 255
213 231 255
214 231 255
214 231 255
214 231 255
214 231 255
214 231 255
214 231 255
214 231 255
214 231 255
214 231 255
214 231 255
214 231 255
214 231 255
214 231 255
214 231 255
214 231 255
214 232 255
214 232 255
214 232 255
214 232 255
214 232 255
214 232 255
214 232 255
214 232 255
214 232 255
214 232 255
214 232 255
214 232 255
214 232 255
214 232 255
214 232 255
214 232 255
214 232 255
215 232 255
215 232 255
215 232 255
215 232 255
215 232 255
215 232 255
215 232 255
215 232 255
215 232 255
215 232 255
215 232 255
215 232 255
215 232 255
215 232 255
215 232 255
215 232 255
215 232 255
215 232 255
215 232 255
215 232 255
215 232 255
215 232 255
215 232 255
215 232 255
215 232 255
215 232 255
215 232 255
215 232 255
215 232 255
215 232 255
215 232 255
215 232 255
215 232 255
215 232 255
215 232 255
215 232 255
215 232 255
215 232 255
215 232 255
216 232 255
216 232 255
216 232 255
216 232 255
216 232 255
216 232 255
216 232 255
216 232 255
216 232 255
216 232 255
216 232 255
216 232 255
216 232 255
216 232 255
216 233 255
216 233 255
216 233 255
216 233 255
216 233 255
216 233 255
216 233 255
216 233 255
216 233 255
216 233 255
216 233 255
216 233 255
216 233 255
216 233 255
216 233 255
216 233 255
216 233 255
216 233 255
216 233 255
216 233 255
216 233 255
216 233 255
216 233 255
216 233 255
216 233 255
216 233 255
216 233 255
216 233 255
216 233 255
216 233 255
216 232 255
216 232 255
216 232 255
216 232 255
216 232 255
216 232 255
216 232 255
216 232 255
216 232 255
216 232 255
216 232 255
216 232 255
216 232 255
216 232 255
215 232 255
215 232 255
215 232 255
215 232 255
215 232 255
215 232 255
215 232 255
215 232 255
215 232 255
215 232 255
215 232 255
215 232 255
215 232 255
215 232 255
215 232 255
215 232 255
215 232 255
215 232 255
215 232 255
215 232 255
215 232 255
215 232 255
215 232 255
215 232 255
215 232 255
215 232 255
215 232 255
215 232 255
215 232 255
215 232 255
215 232 255
215 232 255
215 232 255
215 232 255
215 232 255
215 232 255
215 232 255
215 232 255
215 232 255
214 232 255
214 232 255
214 232 255
214 232 255
214 232 255
214 232 255
214 232 255
214 232 255
214 232 255
214 232 255
214 232 255
214 232 255
214 232 255
214 232 255
214 232 255
214 231 255
214 231 255
214 231 255
214 231 255
214 231 255
214 231 255
214 231 255
214 231 255
214 231 255
214 231 255
214 231 255
214 231 255
214 231 255
214 231 255
214 231 255
214 231 255
214 231 255
213 231 255
213 231 255
213 231 255
213 231 255
213 231 255
213 231 255
213 231 255
213 231 255
213 231 255
213 231 255
213 231 255
213 231 255
213 231 255
213 231 255
213 231 255
213 231 255
213 231 255
213 231 255
210 229 253
209 228 253
210 229 255
208 228 254
206 226 254
205 226 255
204 226 255
203 225 255
201 225 255
200 224 255
199 223 255
198 223 255
197 222 255
195 221 255
194 221 255
193 220 255
192 220 255
191 219 255
192 219 255
191 216 249
193 218 249
194 217 248
195 220 249
193 218 248
194 218 246
197 220 249
195 219 249
195 219 250
191 216 244
189 215 244
186 212 240
179 206 233
184 209 236
179 205 231
190 215 244
185 211 238
189 215 244
189 214 244
185 211 238
181 207 234
188 214 242
191 217 248
191 216 246
184 209 237
183 209 237
187 214 244
186 212 240
188 213 241
192 217 246
193 218 249
184 211 238
188 214 244
193 218 249
189 216 249
187 215 250
188 217 255
188 218 255
190 218 255
191 219 255
193 220 255
194 221 255
195 221 255
197 222 255
199 223 255
200 224 255
203 225 255
203 222 255
207 227 255
201 212 253
204 217 254
211 230 255
211 230 255
211 230 255
211 230 255
211 230 255
211 230 255
211 230 255
211 230 255
211 230 255
211 230 255
211 230 255
211 230 255
211 230 255
211 230 255
211 230 255
211 230 255
211 230 255
211 230 255
211 230 255
211 230 255
211 230 255
211 230 255
211 230 255
211 230 255
211 230 255
211 230 255
211 230 255
211 230 255
211 230 255
211 230 255
211 230 255
211 230 255
211 230 255
211 230 255
211 230 255
211 230 255
211 230 255
211 230 255
211 230 255
212 230 255
212 230 255
212 230 255
212 230 255
212 230 255
212 230 255
212 230 255
212 230 255
212 230 255
212 230 255
212 230 255
212 230 255
212 230 255
212 230 255
212 230 255
212 230 255
212 230 255
212 230 255
212 230 255
212 230 255
212 230 255
212 230 255
212 230 255
212 230 255
212 230 255
212 230 255
212 231 255
212 231 255
212 231 255
212 231 255
212 231 255
212 231 255
212 231 255
212 231 255
212 231 255
213 231 255
213 231 255
213 231 255
213 231 255
213 231 255
213 231 255
213 231 255
213 231 255
213 231 255
213 231 255
213 231 255
213 231 255
213 231 255
213 231 255
213 231 255
213 231 255
213 231 255
213 231 255
213 231 255
213 231 255
213 231 255
213 231 255
213 231 255
213 231 255
213 231 255
213 231 255
213 231 255
213 231 255
213 231 255
213 231 255
214 231 255
214 231 255
214 231 255
214 231 255
214 231 255
214 231 255
214 231 255
214 231 255
214 231 255
214 231 255
214 231 255
214 231 255
214 231 255
214 231 255
214 231 255
214 231 255
214 232 255
214 232 255
214 232 255
214 232 255
214 232 255
214 232 255
214 232 255
214 232 255
214 232 255
214 232 255
214 232 255
214 232 255
214 232 255
214 232 255
214 232 255
214 232 255
214 232 255
215 232 255
215 232 255
215 232 255
215 232 255
215 232 255
215 232 255
215 232 255
215 232 255
215 232 255
215 232 255
215 232 255
215 232 255
215 232 255
215 232 255
215 232 255
215 232 255
215 232 255
215 232 255
215 232 255
215 232 255
215 232 255
215 232 255
215 232 255
215 232 255
215 232 255
215 232 255
215 232 255
215 232 255
215 232 255
215 232 255
215 232 255
215 232 255
215 232 255
215 232 255
215 232 255
215 232 255
215 232 255
215 232 255
216 232 255
216 232 255
216 232 255
216 232 255
216 232 255
216 232 255
216 232 255
216 232 255
216 232 255
216 232 255
216 232 255
216 232 255
216 232 255
216 232 255
216 233 255
216 233 255
216 233 255
216 233 255
216 233 255
216 233 255
216 233 255
216 233 255
216 233 255
216 233 255
216 233 255
216 233 255
216 233 255
216 233 255
216 233 255
216 233 255
216 233 255
216 233 255
216 233 255
216 233 255
216 233 255
216 233 255
216 233 255
216 233 255
216 233 255
216 233 255
216 233 255
216 233 255
216 233 255
216 233 255
216 233 255
216 233 255
216 233 255
216 233 255
216 233 255
216 233 255
216 233 255
216 233 255
216 233 255
216 233 255
216 233 255
216 233 255
216 233 255
216 233 255
216 233 255
216 233 255
216 232 255
216 232 255
216 232 255
216 232 255
216 232 255
216 232 255
216 232 255
216 232 255
216 232 255
216 232 255
216 232 255
216 232 255
216 232 255
216 232 255
215 232 255
215 232 255
215 232 255
215 232 255
215 232 255
215 232 255
215 232 255
215 232 255
215 232 255
215 232 255
215 232 255
215 232 255
215 232 255
215 232 255
215 232 255
215 232 255
215 232 255
215 232 255
215 232 255
215 232 255
215 232 255
215 232 255
215 232 255
215 232 255
215 232 255
215 232 255
215 232 255
215 232 255
215 232 255
215 232 255
215 232 255
215 232 255
215 232 255
215 232 255
215 232 255
215 232 255
215 232 255
215 232 255
214 232 255
214 232 255
214 232 255
214 232 255
214 232 255
214 232 255
214 232 255
214 232 255
214 232 255
214 232 255
214 232 255
214 232 255
214 232 255
214 232 255
214 232 255
214 232 255
214 231 255
214 231 255
214 231 255
214 231 255
214 231 255
214 231 255
214 231 255
214 231 255
214 231 255
214 231 255
214 231 255
214 231 255
214 231 255
214 231 255
214 231 255
214 231 255
213 231 255
213 231 255
213 231 255
213 231 255
213 231 255
213 231 255
213 231 255
213 231 255
213 231 255
212 230 254
211 230 254
211 229 254
210 229 255
208 228 254
208 228 255
205 227 255
204 226 255
203 226 255
202 225 255
201 224 255
199 223 255
198 223 255
197 222 255
196 222 255
194 221 255
194 220 255
193 220 255
192 220 255
191 217 250
192 216 246
197 221 253
195 219 249
196 220 250
197 221 250
192 215 244
192 216 245
194 218 248
191 216 245
192 217 246
190 215 245
183 208 234
189 213 241
184 209 237
188 212 240
187 212 240
190 214 244
193 217 246
193 218 248
192 217 245
185 210 237
189 214 242
186 211 238
194 219 249
189 214 244
190 215 244
187 213 241
185 211 238
186 212 240
185 211 240
180 207 233
180 207 233
190 216 245
192 217 248
189 214 242
194 218 249
189 215 246
192 218 250
191 219 254
189 218 255
190 219 255
191 219 255
192 220 255
194 221 255
196 222 255
197 223 255
200 224 255
201 225 255
203 225 255
204 225 255
207 226 255
200 212 253
206 221 254
211 230 255
211 230 255
211 230 255
211 230 255
211 230 255
211 230 255
211 230 255
211 230 255
211 230 255
211 230 255
211 230 255
211 230 255
211 230 255
211 230 255
212 230 255
211 230 255
212 230 255
212 230 255
212 230 255
212 230 255
212 230 255
212 230 255
212 230 255
212 230 255
212 230 255
212 230 255
212 230 255
212 230 255
212 230 255
212 230 255
212 230 255
212 230 255
212 230 255
212 230 255
212 230 255
212 230 255
212 230 255
212 230 255
212 230 255
212 230 255
212 230 255
212 230 255
212 230 255
212 230 255
212 230 255
212 230 255
212 230 255
212 230 255
212 230 255
212 230 255
212 230 255
212 230 255
212 230 255
212 230 255
212 231 255
212 231 255
212 231 255
212 231 255
212 231 255
212 231 255
212 231 255
212 231 255
212 231 255
212 231 255
212 231 255
213 231 255
213 231 255
213 231 255
213 231 255
213 231 255
213 231 255
213 231 255
213 231 255
213 231 255
213 231 255
213 231 255
213 231 255
213 231 255
213 231 255
213 231 255
213 231 255
213 231 255
213 231 255
213 231 255
213 231 255
213 231 255
213 231 255
213 231 255
213 231 255
213 231 255
213 231 255
213 231 255
213 231 255
213 231 255
213 231 255
213 231 255
214 231 255
214 231 255
214 231 255
214 231 255
214 231 255
214 231 255
214 231 255
214 231 255
214 231 255
214 231 255
214 231 255
214 231 255
214 231 255
214 231 255
214 231 255
214 231 255
214 232 255
214 232 255
214 232 255
214 232 255
214 232 255
214 232 255
214 232 255
214 232 255
214 232 255
214 232 255
214 232 255
214 232 255
214 232 255
214 232 255
214 232 255
214 232 255
215 232 255
215 232 255
215 232 255
215 232 255
215 232 255
215 232 255
215 232 255
215 232 255
215 232 255
215 232 255
215 232 255
215 232 255
215 232 255
215 232 255
215 232 255
215 232 255
215 232 255
215 232 255
215 232 255
215 232 255
215 232 255
215 232 255
215 232 255
215 232 255
215 232 255
215 232 255
215 232 255
215 232 255
215 232 255
215 232 255
215 232 255
215 232 255
215 232 255
215 232 255
215 232 255
215 232 255
215 232 255
215 232 255
216 232 255
216 232 255
216 232 255
216 232 255
216 232 255
216 232 255
216 232 255
216 232 255
216 232 255
216 232 255
216 232 255
216 232 255
216 232 255
216 232 255
216 233 255
216 233 255
216 233 255
216 233 255
216 233 255
216 233 255
216 233 255
216 233 255
216 233 255
216 233 255
216 233 255
216 233 255
216 233 255
216 233 255
216 233 255
216 233 255
216 233 255
216 233 255
216 233 255
216 233 255
216 233 255
216 233 255
216 233 255
216 233 255
216 233 255
216 233 255
216 233 255
217 233 255
216 233 255
216 233 255
216 233 255
216 233 255
216 233 255
216 233 255
216 233 255
216 233 255
216 233 255
216 233 255
216 233 255
216 233 255
216 233 255
216 233 255
216 233 255
216 233 255
216 233 255
216 233 255
216 233 255
216 233 255
216 233 255
216 233 255
216 233 255
216 233 255
216 233 255
216 233 255
216 233 255
216 233 255
216 233 255
216 233 255
216 233 255
216 233 255
216 233 255
216 233 255
216 233 255
216 232 255
216 232 255
216 232 255
216 232 255
216 232 255
216 232 255
216 232 255
216 232 255
216 232 255
216 232 255
216 232 255
216 232 255
216 232 255
215 232 255
215 232 255
215 232 255
215 232 255
215 232 255
215 232 255
215 232 255
215 232 255
215 232 255
215 232 255
215 232 255
215 232 255
215 232 255
215 232 255
215 232 255
215 232 255
215 232 255
215 232 255
215 232 255
215 232 255
215 232 255
215 232 255
215 232 255
215 232 255
215 232 255
215 232 255
215 232 255
215 232 255
215 232 255
215 232 255
215 232 255
215 232 255
215 232 255
215 232 255
215 232 255
215 232 255
215 232 255
215 232 255
214 232 255
214 232 255
214 232 255
214 232 255
214 232 255
214 232 255
214 232 255
214 232 255
214 232 255
214 232 255
214 232 255
214 232 255
214 232 255
214 232 255
214 232 255
214 232 255
214 231 255
214 231 255
214 231 255
214 231 255
214 231 255
214 231 255
214 231 255
214 231 255
214 231 255
214 231 255
214 231 255
214 231 255
214 231 255
214 231 255
214 231 255
214 231 255
213 230 254
212 230 254
211 230 254
208 227 253
209 229 255
208 228 255
206 227 255
204 226 255
203 226 255
202 225 255
201 224 255
200 224 255
199 223 255
198 223 255
197 222 255
196 221 255
194 221 255
193 220 255
193 219 254
199 223 254
196 220 250
195 219 249
197 220 250
196 220 249
196 218 248
191 215 241
190 215 244
189 214 241
188 213 241
196 220 249
183 208 233
188 212 238
193 217 246
192 216 244
190 214 242
188 213 240
199 222 252
190 214 242
193 216 244
194 217 245
190 214 242
191 215 242
196 219 248
185 209 236
192 216 244
191 214 244
187 212 238
197 220 250
190 214 242
182 207 233
189 214 242
187 213 241
188 213 241
181 207 233
184 210 237
189 215 244
193 218 248
190 215 244
189 215 244
194 219 249
191 217 251
191 219 255
190 219 255
191 219 255
193 220 255
194 221 255
197 222 255
198 223 255
200 224 255
202 225 255
202 222 255
204 223 255
207 226 255
192 193 250
208 224 253
212 230 255
212 230 255
212 230 255
212 230 255
212 230 255
212 230 255
212 230 255
212 230 255
212 230 255
212 230 255
212 230 255
212 230 255
212 230 255
212 230 255
212 230 255
212 230 255
212 230 255
212 230 255
212 230 255
212 230 255
212 230 255
212 230 255
212 230 255
212 230 255
212 230 255
212 230 255
212 230 255
212 230 255
212 230 255
212 230 255
212 230 255
212 230 255
212 230 255
212 230 255
212 230 255
212 230 255
212 230 255
212 230 255
212 230 255
212 230 255
212 230 255
212 230 255
212 231 255
212 231 255
212 231 255
212 231 255
212 231 255
212 231 255
212 231 255
212 231 255
212 231 255
212 231 255
212 231 255
212 231 255
213 231 255
213 231 255
213 231 255
213 231 255
213 231 255
213 231 255
213 231 255
213 231 255
213 231 255
213 231 255
213 231 255
213 231 255
213 231 255
213 231 255
213 231 255
213 231 255
213 231 255
213 231 255
213 231 255
213 231 255
213 231 255
213 231 255
213 231 255
213 231 255
213 231 255
213 231 255
213 231 255
213 231 255
213 231 255
213 231 255
213 231 255
213 231 255
213 231 255
214 231 255
214 231 255
214 231 255
214 231 255
214 231 255
214 231 255
214 231 255
214 231 255
214 231 255
214 231 255
214 231 255
214 231 255
214 231 255
214 231 255
214 231 255
214 231 255
214 232 255
214 232 255
214 232 255
214 232 255
214 232 255
214 232 255
214 232 255
214 232 255
214 232 255
214 232 255
214 232 255
214 232 255
214 232 255
214 232 255
214 232 255
214 232 255
215 232 255
215 232 255
215 232 255
215 232 255
215 232 255
215 232 255
215 232 255
215 232 255
215 232 255
215 232 255
215 232 255
215 232 255
215 232 255
215 232 255
215 232 255
215 232 255
215 232 255
215 232 255
215 232 255
215 232 255
215 232 255
215 232 255
215 232 255
215 232 255
215 232 255
215 232 255
215 232 255
215 232 255
215 232 255
215 232 255
215 232 255
215 232 255
215 232 255
215 232 255
215 232 255
215 232 255
215 232 255
216 232 255
216 232 255
216 232 255
216 232 255
216 232 255
216 232 255
216 232 255
216 232 255
216 232 255
216 232 255
216 232 255
216 232 255
216 232 255
216 232 255
216 233 255
216 233 255
216 233 255
216 233 255
216 233 255
216 233 255
216 233 255
216 233 255
216 233 255
216 233 255
216 233 255
216 233 255
216 233 255
216 233 255
216 233 255
216 233 255
216 233 255
216 233 255
216 233 255
216 233 255
216 233 255
216 233 255
216 233 255
216 233 255
216 233 255
216 233 255
216 233 255
216 233 255
216 233 255
216 233 255
216 233 255
216 233 255
216 233 255
216 233 255
216 233 255
217 233 255
217 233 255
217 233 255
217 233 255
217 233 255
217 233 255
217 233 255
217 233 255
217 233 255
217 233 255
217 233 255
216 233 255
216 233 255
216 233 255
216 233 255
216 233 255
216 233 255
216 233 255
216 233 255
216 233 255
216 233 255
216 233 255
216 233 255
216 233 255
216 233 255
216 233 255
216 233 255
216 233 255
216 233 255
216 233 255
216 233 255
216 233 255
216 233 255
216 233 255
216 233 255
216 233 255
216 233 255
216 233 255
216 233 255
216 233 255
216 233 255
216 233 255
216 233 255
216 233 255
216 233 255
216 232 255
216 232 255
216 232 255
216 232 255
216 232 255
216 232 255
216 232 255
216 232 255
216 232 255
216 232 255
216 232 255
216 232 255
216 232 255
216 232 255
215 232 255
215 232 255
215 232 255
215 232 255
215 232 255
215 232 255
215 232 255
215 232 255
215 232 255
215 232 255
215 232 255
215 232 255
215 232 255
215 232 255
215 232 255
215 232 255
215 232 255
215 232 255
215 232 255
215 232 255
215 232 255
215 232 255
215 232 255
215 232 255
215 232 255
215 232 255
215 232 255
215 232 255
215 232 255
215 232 255
215 232 255
215 232 255
215 232 255
215 232 255
215 232 255
215 232 255
215 232 255
214 232 255
214 232 255
214 232 255
214 232 255
214 232 255
214 232 255
214 232 255
214 232 255
214 232 255
214 232 255
214 232 255
214 232 255
214 232 255
214 232 255
214 232 255
214 232 255
214 231 255
214 231 255
214 231 255
214 231 255
214 231 255
214 231 255
214 231 255
214 231 255
213 231 255
210 229 253
211 230 255
210 229 255
208 228 255
207 227 255
205 227 255
204 226 255
203 225 255
202 225 255
200 224 255
199 223 255
198 223 255
197 222 255
196 222 255
195 221 255
194 221 255
196 221 253
195 219 248
194 217 245
197 221 250
194 217 245
198 221 250
192 216 244
185 210 236
184 208 234
188 212 238
194 216 245
195 218 246
193 216 244
193 216 245
189 211 238
187 211 237
199 222 252
190 212 238
196 219 246
196 218 248
201 224 253
195 218 246
193 216 244
197 220 249
189 212 240
193 216 244
192 215 242
190 214 242
194 218 245
192 216 244
191 215 242
196 219 248
192 215 244
194 218 246
197 221 250
189 213 241
188 213 240
195 219 249
189 214 242
182 207 233
198 222 252
191 215 242
189 214 244
189 215 246
190 213 247
190 216 253
191 219 255
192 220 255
194 220 255
195 221 255
197 222 255
198 222 255
200 224 255
202 224 255
203 223 255
204 224 255
204 218 254
191 190 249
209 226 254
212 230 255
212 230 255
212 230 255
212 230 255
212 230 255
212 230 255
212 230 255
212 230 255
212 230 255
212 230 255
212 230 255
212 230 255
212 230 255
212 230 255
212 230 255
212 230 255
212 230 255
212 230 255
212 230 255
212 230 255
212 230 255
212 230 255
212 230 255
212 230 255
212 231 255
212 231 255
212 231 255
212 231 255
212 231 255
212 231 255
212 231 255
212 231 255
212 231 255
212 231 255
212 231 255
212 231 255
212 231 255
212 231 255
212 231 255
212 231 255
212 231 255
213 231 255
213 231 255
213 231 255
213 231 255
213 231 255
213 231 255
213 231 255
213 231 255
213 231 255
213 231 255
213 231 255
213 231 255
213 231 255
213 231 255
213 231 255
213 231 255
213 231 255
213 231 255
213 231 255
213 231 255
213 231 255
213 231 255
213 231 255
213 231 255
213 231 255
213 231 255
213 231 255
213 231 255
213 231 255
213 231 255
213 231 255
213 231 255
213 231 255
213 231 255
213 231 255
213 231 255
214 231 255
214 231 255
214 231 255
214 231 255
214 231 255
214 231 255
214 231 255
214 231 255
214 231 255
214 231 255
214 231 255
214 231 255
214 231 255
214 231 255
214 231 255
214 231 255
214 231 255
214 232 255
214 232 255
214 232 255
214 232 255
214 232 255
214 232 255
214 232 255
214 232 255
214 232 255
214 232 255
214 232 255
214 232 255
214 232 255
214 232 255
214 232 255
214 232 255
214 232 255
215 232 255
215 232 255
215 232 255
215 232 255
215 232 255
215 232 255
215 232 255
215 232 255
215 232 255
215 232 255
215 232 255
215 232 255
215 232 255
215 232 255
215 232 255
215 232 255
215 232 255
215 232 255
215 232 255
215 232 255
215 232 255
215 232 255
215 232 255
215 232 255
215 232 255
215 232 255
215 232 255
215 232 255
215 232 255
215 232 255
215 232 255
215 232 255
215 232 255
215 232 255
215 232 255
215 232 255
215 232 255
216 232 255
216 232 255
216 232 255
216 232 255
216 232 255
216 232 255
216 232 255
216 232 255
216 232 255
216 232 255
216 232 255
216 232 255
216 232 255
216 233 255
216 233 255
216 233 255
216 233 255
216 233 255
216 233 255
216 233 255
216 233 255
216 233 255
216 233 255
216 233 255
216 233 255
216 233 255
216 233 255
216 233 255
216 233 255
216 233 255
216 233 255
216 233 255
216 233 255
216 233 255
216 233 255
216 233 255
216 233 255
216 233 255
216 233 255
216 233 255
216 233 255
216 233 255
216 233 255
216 233 255
216 233 255
216 233 255
216 233 255
217 233 255
217 233 255
217 233 255
217 233 255
217 233 255
217 233 255
217 233 255
217 233 255
217 233 255
217 233 255
217 233 255
217 233 255
217 233 255
217 233 255
217 233 255
217 233 255
217 233 255
217 233 255
217 233 255
217 233 255
217 233 255
217 233 255
217 233 255
217 233 255
217 233 255
217 233 255
217 233 255
217 233 255
217 233 255
217 233 255
216 233 255
216 233 255
216 233 255
216 233 255
216 233 255
216 233 255
216 233 255
216 233 255
216 233 255
216 233 255
216 233 255
216 233 255
216 233 255
216 233 255
216 233 255
216 233 255
216 233 255
216 233 255
216 233 255
216 233 255
216 233 255
216 233 255
216 233 255
216 233 255
216 233 255
216 233 255
216 233 255
216 233 255
216 233 255
216 233 255
216 233 255
216 233 255
216 233 255
216 232 255
216 232 255
216 232 255
216 232 255
216 232 255
216 232 255
216 232 255
216 232 255
216 232 255
216 232 255
216 232 255
216 232 255
216 232 255
215 232 255
215 232 255
215 232 255
215 232 255
215 232 255
215 232 255
215 232 255
215 232 255
215 232 255
215 232 255
215 232 255
215 232 255
215 232 255
215 232 255
215 232 255
215 232 255
215 232 255
215 232 255
215 232 255
215 232 255
215 232 255
215 232 255
215 232 255
215 232 255
215 232 255
215 232 255
215 232 255
215 232 255
215 232 255
215 232 255
215 232 255
215 232 255
215 232 255
215 232 255
215 232 255
215 232 255
215 232 255
214 232 255
214 232 255
214 232 255
214 232 255
214 232 255
214 232 255
214 232 255
214 232 255
214 232 255
214 232 255
214 232 255
214 232 255
214 232 255
214 232 255
214 232 255
214 232 255
210 228 252
212 230 255
210 229 255
208 228 255
208 228 255
207 227 255
205 227 255
204 226 255
202 225 255
201 225 255
200 224 255
199 223 255
198 223 255
197 222 255
196 222 255
196 222 255
198 222 254
200 223 253
197 220 249
200 222 250
194 216 245
200 223 252
188 211 238
185 209 235
193 215 243
192 215 242
194 214 245
195 218 246
194 216 245
193 216 244
198 221 249
193 216 244
190 212 240
196 219 246
195 217 244
197 219 246
196 218 245
197 219 248
196 218 246
200 222 250
193 216 244
194 216 244
190 213 240
190 214 241
195 217 245
191 215 241
197 220 248
194 218 245
193 217 244
190 213 240
192 217 244
191 215 242
191 216 245
195 219 246
186 211 237
195 219 248
186 211 237
190 215 242
186 211 237
190 213 246
192 212 248
194 217 249
192 214 248
192 217 253
192 219 255
193 220 255
194 221 255
196 222 255
198 223 255
199 223 255
201 224 255
203 225 255
204 225 255
207 226 255
200 213 252
190 189 247
210 228 253
212 231 255
212 231 255
212 231 255
212 231 255
212 231 255
212 231 255
212 231 255
212 231 255
212 231 255
212 231 255
212 231 255
212 231 255
212 231 255
212 231 255
212 231 255
212 231 255
212 231 255
212 231 255
212 231 255
212 231 255
212 231 255
213 231 255
213 231 255
213 231 255
213 231 255
213 231 255
213 231 255
213 231 255
213 231 255
213 231 255
213 231 255
213 231 255
213 231 255
213 231 255
213 231 255
213 231 255
213 231 255
213 231 255
213 231 255
213 231 255
213 231 255
213 231 255
213 231 255
213 231 255
213 231 255
213 231 255
213 231 255
213 231 255
213 231 255
213 231 255
213 231 255
213 231 255
213 231 255
213 231 255
213 231 255
213 231 255
213 231 255
213 231 255
213 231 255
213 231 255
213 231 255
213 231 255
213 231 255
213 231 255
213 231 255
213 231 255
213 231 255
214 231 255
214 231 255
214 231 255
214 231 255
214 231 255
214 231 255
214 231 255
214 231 255
214 231 255
214 231 255
214 231 255
214 231 255
214 231 255
214 231 255
214 231 255
214 231 255
214 231 255
214 231 255
214 232 255
214 232 255
214 232 255
214 232 255
214 232 255
214 232 255
214 232 255
214 232 255
214 232 255
214 232 255
214 232 255
214 232 255
214 232 255
214 232 255
214 232 255
214 232 255
214 232 255
215 232 255
215 232 255
215 232 255
215 232 255
215 232 255
215 232 255
215 232 255
215 232 255
215 232 255
215 232 255
215 232 255
215 232 255
215 232 255
215 232 255
215 232 255
215 232 255
215 232 255
215 232 255
215 232 255
215 232 255
215 232 255
215 232 255
215 232 255
215 232 255
215 232 255
215 232 255
215 232 255
215 232 255
215 232 255
215 232 255
215 232 255
215 232 255
215 232 255
215 232 255
215 232 255
215 232 255
215 232 255
216 232 255
216 232 255
216 232 255
216 232 255
216 232 255
216 232 255
216 232 255
216 232 255
216 232 255
216 232 255
216 232 255
216 232 255
216 233 255
216 233 255
216 233 255
216 233 255
216 233 255
216 233 255
216 233 255
216 233 255
216 233 255
216 233 255
216 233 255
216 233 255
216 233 255
216 233 255
216 233 255
216 233 255
216 233 255
216 233 255
216 233 255
216 233 255
216 233 255
216 233 255
216 233 255
216 233 255
216 233 255
216 233 255
216 233 255
216 233 255
216 233 255
216 233 255
216 233 255
216 233 255
216 233 255
217 233 255
217 233 255
217 233 255
217 233 255
217 233 255
217 233 255
217 233 255
217 233 255
217 233 255
217 233 255
217 233 255
217 233 255
217 233 255
217 233 255
217 233 255
217 233 255
217 233 255
217 233 255
217 233 255
217 233 255
217 233 255
217 233 255
217 233 255
217 233 255
217 233 255
217 233 255
217 233 255
217 233 255
217 233 255
217 233 255
217 233 255
217 233 255
217 233 255
217 233 255
217 233 255
217 233 255
217 233 255
217 233 255
217 233 255
217 233 255
217 233 255
217 233 255
217 233 255
217 233 255
217 233 255
217 233 255
217 233 255
217 233 255
217 233 255
216 233 255
216 233 255
216 233 255
216 233 255
216 233 255
216 233 255
216 233 255
216 233 255
216 233 255
216 233 255
216 233 255
216 233 255
216 233 255
216 233 255
216 233 255
216 233 255
216 233 255
216 233 255
216 233 255
216 233 255
216 233 255
216 233 255
216 233 255
216 233 255
216 233 255
216 233 255
216 233 255
216 233 255
216 233 255
216 233 255
216 233 255
216 233 255
216 232 255
216 232 255
216 232 255
216 232 255
216 232 255
216 232 255
216 232 255
216 232 255
216 232 255
216 232 255
216 232 255
216 232 255
216 232 255
215 232 255
215 232 255
215 232 255
215 232 255
215 232 255
215 232 255
215 232 255
215 232 255
215 232 255
215 232 255
215 232 255
215 232 255
215 232 255
215 232 255
215 232 255
215 232 255
215 232 255
215 232 255
215 232 255
215 232 255
215 232 255
215 232 255
215 232 255
215 232 255
215 232 255
215 232 255
215 232 255
215 232 255
215 232 255
215 232 255
215 232 255
215 232 255
215 232 255
215 232 255
215 232 255
215 232 255
215 232 255
214 232 255
214 232 255
214 232 255
214 232 255
214 232 255
214 232 255
214 231 254
211 229 253
211 230 254
210 229 255
210 229 255
207 227 254
207 227 255
205 227 255
205 226 255
203 225 255
202 225 255
201 224 255
200 224 255
199 223 255
198 223 255
197 222 255
195 221 253
196 219 249
197 220 249
201 224 253
200 222 250
197 218 245
195 218 245
187 212 237
190 214 240
192 213 242
187 208 235
198 220 250
196 217 246
197 217 246
191 212 242
199 220 248
199 220 248
191 212 238
191 213 238
196 218 245
195 216 242
192 214 240
191 214 238
197 219 246
201 223 250
193 215 240
198 220 248
199 222 250
199 221 249
189 212 237
194 216 242
198 221 249
197 219 246
190 213 240
196 218 245
197 219 246
188 212 237
192 215 241
199 222 250
195 218 245
194 217 244
185 209 234
190 214 240
189 213 238
194 218 246
193 215 247
188 206 243
189 205 246
192 212 249
195 213 253
194 215 253
193 220 255
194 221 255
195 221 255
197 222 255
198 223 255
200 224 255
202 224 255
203 224 255
204 224 255
206 225 255
192 198 249
200 209 253
213 231 255
213 231 255
213 231 255
213 231 255
213 231 255
213 231 255
213 231 255
213 231 255
213 231 255
213 231 255
213 231 255
213 231 255
213 231 255
213 231 255
213 231 255
213 231 255
213 231 255
213 231 255
213 231 255
213 231 255
213 231 255
213 231 255
213 231 255
213 231 255
213 231 255
213 231 255
213 231 255
213 231 255
213 231 255
213 231 255
213 231 255
213 231 255
213 231 255
213 231 255
213 231 255
213 231 255
213 231 255
213 231 255
213 231 255
213 231 255
213 231 255
213 231 255
213 231 255
213 231 255
213 231 255
213 231 255
213 231 255
213 231 255
213 231 255
213 231 255
213 231 255
213 231 255
213 231 255
213 231 255
213 231 255
213 231 255
213 231 255
214 231 255
214 231 255
214 231 255
214 231 255
214 231 255
214 231 255
214 231 255
214 231 255
214 231 255
214 231 255
214 231 255
214 231 255
214 231 255
214 231 255
214 231 255
214 231 255
214 231 255
214 231 255
214 231 255
214 232 255
214 232 255
214 232 255
214 232 255
214 232 255
214 232 255
214 232 255
214 232 255
214 232 255
214 232 255
214 232 255
214 232 255
214 232 255
214 232 255
214 232 255
214 232 255
215 232 255
215 232 255
215 232 255
215 232 255
215 232 255
215 232 255
215 232 255
215 232 255
215 232 255
215 232 255
215 232 255
215 232 255
215 232 255
215 232 255
215 232 255
215 232 255
215 232 255
215 232 255
215 232 255
215 232 255
215 232 255
215 232 255
215 232 255
215 232 255
215 232 255
215 232 255
215 232 255
215 232 255
215 232 255
215 232 255
215 232 255
215 232 255
215 232 255
215 232 255
215 232 255
215 232 255
215 232 255
216 232 255
216 232 255
216 232 255
216 232 255
216 232 255
216 232 255
216 232 255
216 232 255
216 232 255
216 232 255
216 232 255
216 232 255
216 232 255
216 232 255
216 233 255
216 233 255
216 233 255
216 233 255
216 233 255
216 233 255
216 233 255
216 233 255
216 233 255
216 233 255
216 233 255
216 233 255
216 233 255
216 233 255
216 233 255
216 233 255
216 233 255
216 233 255
216 233 255
216 233 255
216 233 255
216 233 255
216 233 255
216 233 255
216 233 255
216 233 255
216 233 255
216 233 255
216 233 255
216 233 255
216 233 255
216 233 255
216 233 255
217 233 255
217 233 255
217 233 255
217 233 255
217 233 255
217 233 255
217 233 255
217 233 255
217 233 255
217 233 255
217 233 255
217 233 255
217 233 255
217 233 255
217 233 255
217 233 255
217 233 255
217 233 255
217 233 255
217 233 255
217 233 255
217 233 255
217 233 255
217 233 255
217 233 255
217 233 255
217 233 255
217 233 255
217 233 255
217 233 255
217 233 255
217 233 255
217 233 255
217 233 255
217 233 255
217 233 255
217 233 255
217 233 255
217 233 255
217 233 255
217 233 255
217 233 255
217 233 255
217 233 255
217 233 255
217 233 255
217 233 255
217 233 255
217 233 255
217 233 255
217 233 255
217 233 255
217 233 255
217 233 255
217 233 255
217 233 255
217 233 255
217 233 255
217 233 255
217 233 255
217 233 255
217 233 255
217 233 255
217 233 255
217 233 255
217 233 255
216 233 255
216 233 255
216 233 255
216 233 255
216 233 255
216 233 255
216 233 255
216 233 255
216 233 255
216 233 255
216 233 255
216 233 255
216 233 255
216 233 255
216 233 255
216 233 255
216 233 255
216 233 255
216 233 255
216 233 255
216 233 255
216 233 255
216 233 255
216 233 255
216 233 255
216 233 255
216 233 255
216 233 255
216 233 255
216 233 255
216 233 255
216 233 255
216 233 255
216 232 255
216 232 255
216 232 255
216 232 255
216 232 255
216 232 255
216 232 255
216 232 255
216 232 255
216 232 255
216 232 255
216 232 255
215 232 255
215 232 255
215 232 255
215 232 255
215 232 255
215 232 255
215 232 255
215 232 255
215 232 255
215 232 255
215 232 255
215 232 255
215 232 255
215 232 255
215 232 255
215 232 255
215 232 255
215 232 255
215 232 255
215 232 255
215 232 255
215 232 255
215 232 255
215 232 255
215 232 255
215 232 255
215 232 255
215 232 255
215 232 255
215 232 255
215 232 255
215 232 255
215 232 255
214 231 254
214 232 255
211 230 254
210 229 254
210 229 255
209 228 255
208 228 255
206 227 255
205 226 255
204 226 255
203 226 255
202 225 255
201 224 255
200 224 255
199 223 255
198 223 255
198 222 254
201 223 253
200 222 250
195 218 245
196 218 245
200 222 252
199 221 248
190 213 238
192 214 241
193 216 241
196 216 246
200 219 250
201 223 252
196 217 245
195 215 243
196 217 245
188 210 234
199 221 249
199 221 249
201 222 250
198 219 246
199 221 248
199 221 249
199 221 248
196 218 244
200 221 249
194 216 241
201 222 249
196 218 244
197 219 245
198 220 246
194 216 241
199 221 248
198 220 246
202 223 250
199 221 248
198 221 248
198 220 246
197 219 246
198 220 246
191 213 238
196 219 246
196 219 246
198 221 249
191 215 241
188 212 237
185 209 234
191 214 242
195 214 250
191 213 246
189 209 245
194 214 248
192 212 249
192 218 254
195 221 255
196 222 255
198 223 255
199 223 255
201 224 255
202 224 255
204 225 255
207 226 255
206 221 254
181 173 244
202 212 251
213 231 255
213 231 255
213 231 255
213 231 255
213 231 255
213 231 255
213 231 255
213 231 255
213 231 255
213 231 255
213 231 255
213 231 255
213 231 255
213 231 255
213 231 255
213 231 255
213 231 255
213 231 255
213 231 255
213 231 255
213 231 255
213 231 255
213 231 255
213 231 255
213 231 255
213 231 255
213 231 255
213 231 255
213 231 255
213 231 255
213 231 255
213 231 255
213 231 255
213 231 255
213 231 255
213 231 255
213 231 255
213 231 255
213 231 255
213 231 255
213 231 255
213 231 255
213 231 255
214 231 255
214 231 255
214 231 255
214 231 255
214 231 255
214 231 255
214 231 255
214 231 255
214 231 255
214 231 255
214 231 255
214 231 255
214 231 255
214 231 255
214 231 255
214 231 255
214 231 255
214 231 255
214 231 255
214 231 255
214 231 255
214 232 255
214 232 255
214 232 255
214 232 255
214 232 255
214 232 255
214 232 255
214 232 255
214 232 255
214 232 255
214 232 255
214 232 255
214 232 255
214 232 255
214 232 255
214 232 255
214 232 255
214 232 255
215 232 255
215 232 255
215 232 255
215 232 255
215 232 255
215 232 255
215 232 255
215 232 255
215 232 255
215 232 255
215 232 255
215 232 255
215 232 255
215 232 255
215 232 255
215 232 255
215 232 255
215 232 255
215 232 255
215 232 255
215 232 255
215 232 255
215 232 255
215 232 255
215 232 255
215 232 255
215 232 255
215 232 255
215 232 255
215 232 255
215 232 255
215 232 255
215 232 255
215 232 255
215 232 255
215 232 255
215 232 255
215 232 255
216 232 255
216 232 255
216 232 255
216 232 255
216 232 255
216 232 255
216 232 255
216 232 255
216 232 255
216 232 255
216 232 255
216 232 255
216 232 255
216 233 255
216 233 255
216 233 255
216 233 255
216 233 255
216 233 255
216 233 255
216 233 255
216 233 255
216 233 255
216 233 255
216 233 255
216 233 255
216 233 255
216 233 255
216 233 255
216 233 255
216 233 255
216 233 255
216 233 255
216 233 255
216 233 255
216 233 255
216 233 255
216 233 255
216 233 255
216 233 255
216 233 255
216 233 255
216 233 255
216 233 255
216 233 255
217 233 255
217 233 255
217 233 255
217 233 255
217 233 255
217 233 255
217 233 255
217 233 255
217 233 255
217 233 255
217 233 255
217 233 255
217 233 255
217 233 255
217 233 255
217 233 255
217 233 255
217 233 255
217 233 255
217 233 255
217 233 255
217 233 255
217 233 255
217 233 255
217 233 255
217 233 255
217 233 255
217 233 255
217 233 255
217 233 255
217 233 255
217 233 255
217 233 255
217 233 255
217 233 255
217 233 255
217 233 255
217 233 255
217 233 255
217 233 255
217 233 255
217 233 255
217 233 255
217 233 255
217 233 255
217 233 255
217 233 255
217 233 255
217 233 255
217 233 255
217 233 255
217 233 255
217 233 255
217 233 255
217 233 255
217 233 255
217 233 255
217 233 255
217 233 255
217 233 255
217 233 255
217 233 255
217 233 255
217 233 255
217 233 255
217 233 255
217 233 255
217 233 255
217 233 255
217 233 255
217 233 255
217 233 255
217 233 255
217 233 255
217 233 255
217 233 255
217 233 255
217 233 255
217 233 255
217 233 255
217 233 255
217 233 255
217 233 255
217 233 255
217 233 255
217 233 255
216 233 255
216 233 255
216 233 255
216 233 255
216 233 255
216 233 255
216 233 255
216 233 255
216 233 255
216 233 255
216 233 255
216 233 255
216 233 255
216 233 255
216 233 255
216 233 255
216 233 255
216 233 255
216 233 255
216 233 255
216 233 255
216 233 255
216 233 255
216 233 255
216 233 255
216 233 255
216 233 255
216 233 255
216 233 255
216 233 255
216 233 255
216 232 255
216 232 255
216 232 255
216 232 255
216 232 255
216 232 255
216 232 255
216 232 255
216 232 255
216 232 255
216 232 255
216 232 255
216 232 255
216 232 255
215 232 255
215 232 255
215 232 255
215 232 255
215 232 255
215 232 255
215 232 255
215 232 255
215 232 255
215 232 255
215 232 255
215 232 255
215 232 255
215 232 255
215 232 255
215 232 255
215 232 255
215 232 255
215 232 255
215 232 255
215 232 255
215 232 255
215 232 255
214 232 255
213 230 254
211 229 254
211 230 255
210 229 255
209 228 255
207 228 255
205 226 254
205 226 255
204 226 255
202 225 255
202 225 255
201 224 255
200 224 255
199 223 255
201 224 255
200 221 250
204 224 254
201 223 252
202 223 250
199 220 248
194 217 244
201 223 252
200 222 249
200 220 250
197 217 245
203 223 253
197 217 245
200 221 249
195 214 242
197 218 244
202 223 250
197 218 245
198 220 245
198 219 245
195 216 241
198 219 245
203 224 252
198 219 244
198 219 245
201 223 249
195 217 241
200 221 248
202 223 249
197 218 244
198 220 245
204 224 250
197 218 244
199 221 248
201 222 249
196 218 242
198 220 245
198 220 246
201 223 249
201 222 249
199 221 248
196 218 244
195 218 244
194 217 242
200 222 250
192 215 241
190 213 238
192 215 241
196 218 245
186 207 236
196 217 250
191 208 246
193 209 250
190 207 246
191 208 248
193 219 253
196 222 255
197 222 255
199 223 255
200 223 255
202 225 255
203 224 255
205 226 255
207 225 255
197 203 251
184 176 245
202 208 252
206 217 253
213 231 255
213 231 255
213 231 255
213 231 255
213 231 255
213 231 255
213 231 255
213 231 255
213 231 255
213 231 255
213 231 255
213 231 255
213 231 255
213 231 255
213 231 255
213 231 255
213 231 255
213 231 255
213 231 255
213 231 255
213 231 255
213 231 255
214 231 255
213 231 255
214 231 255
214 231 255
214 231 255
214 231 255
214 231 255
214 231 255
214 231 255
214 231 255
214 231 255
214 231 255
214 231 255
214 231 255
214 231 255
214 231 255
214 231 255
214 231 255
214 231 255
214 231 255
214 231 255
214 231 255
214 231 255
214 231 255
214 231 255
214 231 255
214 231 255
214 231 255
214 231 255
214 232 255
214 232 255
214 232 255
214 232 255
214 232 255
214 232 255
214 232 255
214 232 255
214 232 255
214 232 255
214 232 255
214 232 255
214 232 255
214 232 255
214 232 255
214 232 255
214 232 255
214 232 255
214 232 255
215 232 255
215 232 255
215 232 255
215 232 255
215 232 255
215 232 255
215 232 255
215 232 255
215 232 255
215 232 255
215 232 255
215 232 255
215 232 255
215 232 255
215 232 255
215 232 255
215 232 255
215 232 255
215 232 255
215 232 255
215 232 255
215 232 255
215 232 255
215 232 255
215 232 255
215 232 255
215 232 255
215 232 255
215 232 255
215 232 255
215 232 255
215 232 255
215 232 255
215 232 255
215 232 255
215 232 255
215 232 255
215 232 255
216 232 255
216 232 255
216 232 255
216 232 255
216 232 255
216 232 255
216 232 255
216 232 255
216 232 255
216 232 255
216 232 255
216 232 255
216 232 255
216 233 255
216 233 255
216 233 255
216 233 255
216 233 255
216 233 255
216 233 255
216 233 255
216 233 255
216 233 255
216 233 255
216 233 255
216 233 255
216 233 255
216 233 255
216 233 255
216 233 255
216 233 255
216 233 255
216 233 255
216 233 255
216 233 255
216 233 255
216 233 255
216 233 255
216 233 255
216 233 255
216 233 255
216 233 255
216 233 255
216 233 255
217 233 255
217 233 255
217 233 255
217 233 255
217 233 255
217 233 255
217 233 255
217 233 255
217 233 255
217 233 255
217 233 255
217 233 255
217 233 255
217 233 255
217 233 255
217 233 255
217 233 255
217 233 255
217 233 255
217 233 255
217 233 255
217 233 255
217 233 255
217 233 255
217 233 255
217 233 255
217 233 255
217 233 255
217 233 255
217 233 255
217 233 255
217 233 255
217 233 255
217 233 255
217 233 255
217 233 255
217 233 255
217 233 255
217 233 255
217 233 255
217 233 255
217 233 255
217 233 255
217 233 255
217 233 255
217 233 255
217 233 255
217 233 255
217 233 255
217 233 255
217 233 255
217 233 255
217 233 255
217 233 255
217 233 255
217 233 255
217 233 255
217 233 255
217 233 255
217 233 255
217 233 255
217 233 255
217 233 255
217 233 255
217 233 255
217 233 255
217 233 255
217 233 255
217 233 255
217 233 255
217 233 255
217 233 255
217 233 255
217 233 255
217 233 255
217 233 255
217 233 255
217 233 255
217 233 255
217 233 255
217 233 255
217 233 255
217 233 255
217 233 255
217 233 255
217 233 255
217 233 255
217 233 255
217 233 255
217 233 255
217 233 255
217 233 255
217 233 255
217 233 255
217 233 255
217 233 255
217 233 255
217 233 255
217 233 255
217 233 255
217 233 255
217 233 255
217 233 255
217 233 255
217 233 255
217 233 255
217 233 255
216 233 255
216 233 255
216 233 255
216 233 255
216 233 255
216 233 255
216 233 255
216 233 255
216 233 255
216 233 255
216 233 255
216 233 255
216 233 255
216 233 255
216 233 255
216 233 255
216 233 255
216 233 255
216 233 255
216 233 255
216 233 255
216 233 255
216 233 255
216 233 255
216 233 255
216 233 255
216 233 255
216 233 255
216 233 255
216 233 255
216 233 255
216 232 255
216 232 255
216 232 255
216 232 255
216 232 255
216 232 255
216 232 255
216 232 255
216 232 255
216 232 255
216 232 255
216 232 255
216 232 255
215 232 255
215 232 255
215 232 255
215 232 255
215 232 255
215 232 255
215 232 255
215 232 255
215 232 255
215 232 255
215 232 255
215 232 255
215 232 255
214 231 254
213 231 254
214 231 255
211 230 255
211 230 255
209 229 255
208 228 255
207 228 255
206 227 255
205 226 255
204 226 255
203 225 255
202 225 255
201 224 255
200 224 255
197 221 252
201 222 250
200 220 248
200 222 249
199 221 248
200 221 248
188 211 234
196 217 243
197 219 246
198 217 247
196 216 245
195 215 242
197 216 245
199 220 248
202 222 251
204 224 253
199 219 245
200 220 246
198 218 244
203 224 250
196 218 242
199 221 246
194 215 238
198 219 244
197 217 242
200 221 246
200 221 246
200 222 248
200 220 246
202 222 249
200 221 248
199 220 245
193 214 240
202 223 249
204 226 253
201 223 249
194 217 241
199 220 245
201 222 248
194 216 240
195 217 242
195 217 242
195 217 242
195 218 244
201 222 249
193 216 241
195 218 244
198 221 248
198 220 248
196 218 245
194 218 244
196 219 246
188 209 240
194 212 249
192 208 248
193 212 250
195 215 252
196 221 255
197 222 255
198 223 255
200 224 255
201 225 255
203 226 255
204 226 255
207 227 255
208 227 254
183 172 245
185 180 245
163 122 240
177 155 243
193 190 248
212 229 255
214 231 255
214 231 255
214 231 255
214 231 255
214 231 255
214 231 255
214 231 255
214 231 255
214 231 255
214 231 255
214 231 255
214 231 255
214 231 255
214 231 255
214 231 255
214 231 255
214 231 255
214 231 255
214 231 255
214 231 255
214 231 255
214 231 255
214 231 255
214 231 255
214 231 255
214 231 255
214 231 255
214 231 255
214 231 255
214 231 255
214 231 255
214 231 255
214 231 255
214 231 255
214 232 255
214 232 255
214 232 255
214 232 255
214 232 255
214 232 255
214 232 255
214 232 255
214 232 255
214 232 255
214 232 255
214 232 255
214 232 255
214 232 255
214 232 255
214 232 255
214 232 255
214 232 255
214 232 255
214 232 255
214 232 255
214 232 255
214 232 255
215 232 255
215 232 255
215 232 255
215 232 255
215 232 255
215 232 255
215 232 255
215 232 255
215 232 255
215 232 255
215 232 255
215 232 255
215 232 255
215 232 255
215 232 255
215 232 255
215 232 255
215 232 255
215 232 255
215 232 255
215 232 255
215 232 255
215 232 255
215 232 255
215 232 255
215 232 255
215 232 255
215 232 255
215 232 255
215 232 255
215 232 255
215 232 255
215 232 255
215 232 255
215 232 255
215 232 255
215 232 255
215 232 255
215 232 255
216 232 255
216 232 255
216 232 255
216 232 255
216 232 255
216 232 255
216 232 255
216 232 255
216 232 255
216 232 255
216 232 255
216 232 255
216 232 255
216 233 255
216 233 255
216 233 255
216 233 255
216 233 255
216 233 255
216 233 255
216 233 255
216 233 255
216 233 255
216 233 255
216 233 255
216 233 255
216 233 255
216 233 255
216 233 255
216 233 255
216 233 255
216 233 255
216 233 255
216 233 255
216 233 255
216 233 255
216 233 255
216 233 255
216 233 255
216 233 255
216 233 255
216 233 255
216 233 255
216 233 255
217 233 255
217 233 255
217 233 255
217 233 255
217 233 255
217 233 255
217 233 255
217 233 255
217 233 255
217 233 255
217 233 255
217 233 255
217 233 255
217 233 255
217 233 255
217 233 255
217 233 255
217 233 255
217 233 255
217 233 255
217 233 255
217 233 255
217 233 255
217 233 255
217 233 255
217 233 255
217 233 255
217 233 255
217 233 255
217 233 255
217 233 255
217 233 255
217 233 255
217 233 255
217 233 255
217 233 255
217 233 255
217 233 255
217 233 255
217 233 255
217 233 255
217 233 255
217 233 255
217 233 255
217 233 255
217 233 255
217 233 255
217 233 255
217 233 255
217 233 255
217 233 255
217 233 255
217 233 255
217 233 255
217 233 255
217 233 255
217 233 255
217 233 255
218 234 255
218 234 255
218 234 255
218 233 255
218 233 255
218 233 255
218 233 255
218 233 255
218 233 255
218 233 255
218 233 255
217 233 255
217 233 255
217 233 255
217 233 255
217 233 255
217 233 255
217 233 255
217 233 255
217 233 255
217 233 255
217 233 255
217 233 255
217 233 255
217 233 255
217 233 255
217 233 255
217 233 255
217 233 255
217 233 255
217 233 255
217 233 255
217 233 255
217 233 255
217 233 255
217 233 255
217 233 255
217 233 255
217 233 255
217 233 255
217 233 255
217 233 255
217 233 255
217 233 255
217 233 255
217 233 255
217 233 255
217 233 255
217 233 255
217 233 255
217 233 255
217 233 255
217 233 255
217 233 255
217 233 255
217 233 255
217 233 255
217 233 255
217 233 255
217 233 255
217 233 255
217 233 255
217 233 255
217 233 255
217 233 255
217 233 255
217 233 255
217 233 255
216 233 255
216 233 255
216 233 255
216 233 255
216 233 255
216 233 255
216 233 255
216 233 255
216 233 255
216 233 255
216 233 255
216 233 255
216 233 255
216 233 255
216 233 255
216 233 255
216 233 255
216 233 255
216 233 255
216 233 255
216 233 255
216 233 255
216 233 255
216 233 255
216 233 255
216 233 255
216 233 255
216 233 255
216 233 255
216 233 255
216 233 255
216 232 255
216 232 255
216 232 255
216 232 255
216 232 255
216 232 255
216 232 255
216 232 255
216 232 255
216 232 255
216 232 255
216 232 255
216 232 255
215 232 255
215 232 255
216 232 255
211 228 250
214 232 255
213 231 255
212 230 255
210 229 255
209 229 255
208 228 255
207 228 255
206 227 255
205 226 255
204 226 255
203 226 255
202 225 255
201 224 255
201 224 255
203 223 251
202 223 251
206 225 254
204 225 252
197 218 242
198 220 246
194 216 241
203 224 252
198 216 246
198 216 246
201 219 250
198 217 244
205 225 254
205 225 252
201 221 248
197 218 242
201 221 246
204 224 250
201 221 248
196 216 241
200 221 246
200 221 246
198 219 245
205 225 252
201 221 246
200 221 246
202 222 248
202 222 248
199 219 244
203 224 250
202 222 248
200 221 246
195 216 240
201 221 246
200 221 245
192 214 237
195 216 240
201 223 249
201 222 248
202 222 248
198 219 245
201 222 249
195 217 240
200 220 246
198 220 245
202 223 250
199 221 246
197 219 245
195 216 241
196 218 244
195 217 242
196 218 244
195 218 245
197 218 248
198 217 251
190 204 247
191 206 247
192 211 247
197 222 255
198 223 255
200 224 255
201 224 255
203 225 255
203 223 255
204 223 255
207 224 255
200 211 252
183 178 241
176 158 240
161 119 236
162 120 239
171 139 242
191 188 247
211 227 254
214 231 255
214 231 255
214 232 255
214 231 255
214 231 255
214 232 255
214 232 255
214 232 255
214 232 255
214 232 255
214 232 255
214 232 255
214 232 255
214 232 255
214 232 255
214 232 255
214 232 255
214 232 255
214 232 255
214 232 255
214 232 255
214 232 255
214 232 255
214 232 255
214 232 255
214 232 255
214 232 255
214 232 255
214 232 255
214 232 255
214 232 255
214 232 255
214 232 255
214 232 255
214 232 255
214 232 255
214 232 255
214 232 255
214 232 255
214 232 255
214 232 255
215 232 255
215 232 255
215 232 255
215 232 255
215 232 255
215 232 255
215 232 255
215 232 255
215 232 255
215 232 255
215 232 255
215 232 255
215 232 255
215 232 255
215 232 255
215 232 255
215 232 255
215 232 255
215 232 255
215 232 255
215 232 255
215 232 255
215 232 255
215 232 255
215 232 255
215 232 255
215 232 255
215 232 255
215 232 255
215 232 255
215 232 255
215 232 255
215 232 255
215 232 255
215 232 255
215 232 255
215 232 255
215 232 255
215 232 255
215 232 255
215 232 255
215 232 255
215 232 255
216 232 255
216 232 255
216 232 255
216 232 255
216 232 255
216 232 255
216 232 255
216 232 255
216 232 255
216 232 255
216 232 255
216 232 255
216 232 255
216 233 255
216 233 255
216 233 255
216 233 255
216 233 255
216 233 255
216 233 255
216 233 255
216 233 255
216 233 255
216 233 255
216 233 255
216 233 255
216 233 255
216 233 255
216 233 255
216 233 255
216 233 255
216 233 255
216 233 255
216 233 255
216 233 255
216 233 255
216 233 255
216 233 255
216 233 255
216 233 255
216 233 255
216 233 255
216 233 255
216 233 255
217 233 255
217 233 255
217 233 255
217 233 255
217 233 255
217 233 255
217 233 255
217 233 255
217 233 255
217 233 255
217 233 255
217 233 255
217 233 255
217 233 255
217 233 255
217 233 255
217 233 255
217 233 255
217 233 255
217 233 255
217 233 255
217 233 255
217 233 255
217 233 255
217 233 255
217 233 255
217 233 255
217 233 255
217 233 255
217 233 255
217 233 255
217 233 255
217 233 255
217 233 255
217 233 255
217 233 255
217 233 255
217 233 255
217 233 255
217 233 255
217 233 255
217 233 255
217 233 255
217 233 255
217 233 255
217 233 255
217 233 255
217 233 255
217 233 255
217 233 255
217 233 255
217 233 255
217 233 255
217 233 255
217 233 255
217 233 255
217 233 255
218 233 255
218 233 255
218 233 255
218 233 255
218 233 255
218 233 255
218 233 255
218 233 255
218 234 255
218 234 255
218 234 255
218 234 255
218 234 255
218 234 255
218 234 255
218 234 255
218 234 255
218 234 255
218 234 255
218 234 255
218 234 255
218 234 255
218 234 255
218 234 255
218 234 255
218 234 255
218 233 255
218 233 255
218 233 255
218 233 255
218 233 255
218 233 255
218 233 255
217 233 255
217 233 255
217 233 255
217 233 255
217 233 255
217 233 255
217 233 255
217 233 255
217 233 255
217 233 255
217 233 255
217 233 255
217 233 255
217 233 255
217 233 255
217 233 255
217 233 255
217 233 255
217 233 255
217 233 255
217 233 255
217 233 255
217 233 255
217 233 255
217 233 255
217 233 255
217 233 255
217 233 255
217 233 255
217 233 255
217 233 255
217 233 255
217 233 255
217 233 255
217 233 255
217 233 255
217 233 255
217 233 255
217 233 255
217 233 255
217 233 255
217 233 255
217 233 255
217 233 255
217 233 255
217 233 255
217 233 255
217 233 255
217 233 255
217 233 255
217 233 255
217 233 255
217 233 255
217 233 255
217 233 255
217 233 255
217 233 255
216 233 255
216 233 255
216 233 255
216 233 255
216 233 255
216 233 255
216 233 255
216 233 255
216 233 255
216 233 255
216 233 255
216 233 255
216 233 255
216 233 255
216 233 255
216 233 255
216 233 255
216 233 255
216 233 255
216 233 255
216 233 255
216 233 255
216 233 255
216 233 255
216 233 255
216 233 255
216 233 255
216 233 255
216 233 255
216 233 255
216 233 255
216 232 255
216 232 255
216 232 255
216 233 255
212 229 250
215 232 255
214 232 255
212 231 255
211 230 255
210 229 255
209 229 255
208 228 255
207 228 255
206 227 255
205 227 255
204 226 255
203 226 255
202 225 255
199 222 252
206 227 255
202 222 249
199 220 246
205 224 253
198 219 244
201 222 249
194 214 241
199 219 246
202 221 250
199 218 247
202 221 249
199 216 247
202 221 249
198 218 244
200 220 245
204 224 250
201 221 246
202 222 246
198 218 242
201 221 246
202 222 246
203 223 249
203 224 249
202 223 248
199 220 244
197 217 241
201 221 245
200 220 245
201 222 246
202 222 246
199 219 244
196 217 241
200 221 248
203 223 249
203 224 250
202 223 249
197 219 242
203 224 250
197 218 242
203 223 249
204 225 250
203 224 250
197 219 242
207 227 254
201 221 246
203 224 250
198 219 244
204 224 250
199 220 245
200 222 248
197 219 244
199 220 246
191 213 238
197 218 245
193 215 241
195 213 247
196 214 249
192 207 246
190 202 247
196 217 252
198 223 255
200 224 255
201 224 255
203 225 255
204 225 255
204 223 255
207 226 255
207 223 255
176 164 237
182 175 241
159 122 230
159 118 232
161 119 236
160 119 235
172 145 236
203 212 249
214 232 255
214 232 255
214 232 255
214 232 255
214 232 255
214 232 255
214 232 255
214 232 255
214 232 255
214 232 255
214 232 255
214 232 255
214 232 255
214 232 255
214 232 255
214 232 255
214 232 255
214 232 255
214 232 255
214 232 255
214 232 255
214 232 255
215 232 255
215 232 255
215 232 255
215 232 255
215 232 255
215 232 255
215 232 255
215 232 255
215 232 255
215 232 255
215 232 255
215 232 255
215 232 255
215 232 255
215 232 255
215 232 255
215 232 255
215 232 255
215 232 255
215 232 255
215 232 255
215 232 255
215 232 255
215 232 255
215 232 255
215 232 255
215 232 255
215 232 255
215 232 255
215 232 255
215 232 255
215 232 255
215 232 255
215 232 255
215 232 255
215 232 255
215 232 255
215 232 255
215 232 255
215 232 255
215 232 255
215 232 255
215 232 255
215 232 255
215 232 255
215 232 255
215 232 255
215 232 255
215 232 255
216 232 255
216 232 255
216 232 255
216 232 255
216 232 255
216 232 255
216 232 255
216 232 255
216 232 255
216 232 255
216 232 255
216 232 255
216 232 255
216 232 255
216 233 255
216 233 255
216 233 255
216 233 255
216 233 255
216 233 255
216 233 255
216 233 255
216 233 255
216 233 255
216 233 255
216 233 255
216 233 255
216 233 255
216 233 255
216 233 255
216 233 255
216 233 255
216 233 255
216 233 255
216 233 255
216 233 255
216 233 255
216 233 255
216 233 255
216 233 255
216 233 255
216 233 255
216 233 255
216 233 255
216 233 255
217 233 255
217 233 255
217 233 255
217 233 255
217 233 255
217 233 255
217 233 255
217 233 255
217 233 255
217 233 255
217 233 255
217 233 255
217 233 255
217 233 255
217 233 255
217 233 255
217 233 255
217 233 255
217 233 255
217 233 255
217 233 255
217 233 255
217 233 255
217 233 255
217 233 255
217 233 255
217 233 255
217 233 255
217 233 255
217 233 255
217 233 255
217 233 255
217 233 255
217 233 255
217 233 255
217 233 255
217 233 255
217 233 255
217 233 255
217 233 255
217 233 255
217 233 255
217 233 255
217 233 255
217 233 255
217 233 255
217 233 255
217 233 255
217 233 255
217 233 255
217 233 255
217 233 255
217 233 255
217 233 255
217 233 255
217 233 255
217 233 255
218 233 255
218 233 255
218 233 255
218 233 255
218 233 255
218 233 255
218 233 255
218 234 255
218 234 255
218 234 255
218 234 255
218 234 255
218 234 255
218 234 255
218 234 255
218 234 255
218 234 255
218 234 255
218 234 255
218 234 255
218 234 255
218 234 255
218 234 255
218 234 255
218 234 255
218 234 255
218 234 255
218 234 255
218 234 255
218 234 255
218 234 255
218 234 255
218 234 255
218 234 255
218 234 255
218 234 255
218 234 255
218 234 255
218 234 255
218 234 255
218 234 255
218 234 255
218 234 255
218 234 255
218 234 255
218 234 255
218 234 255
218 234 255
218 234 255
218 233 255
218 233 255
218 233 255
218 233 255
218 233 255
218 233 255
218 233 255
217 233 255
217 233 255
217 233 255
217 233 255
217 233 255
217 233 255
217 233 255
217 233 255
217 233 255
217 233 255
217 233 255
217 233 255
217 233 255
217 233 255
217 233 255
217 233 255
217 233 255
217 233 255
217 233 255
217 233 255
217 233 255
217 233 255
217 233 255
217 233 255
217 233 255
217 233 255
217 233 255
217 233 255
217 233 255
217 233 255
217 233 255
217 233 255
217 233 255
217 233 255
217 233 255
217 233 255
217 233 255
217 233 255
217 233 255
217 233 255
217 233 255
217 233 255
217 233 255
217 233 255
217 233 255
217 233 255
217 233 255
217 233 255
217 233 255
217 233 255
217 233 255
217 233 255
217 233 255
217 233 255
217 233 255
217 233 255
216 233 255
216 233 255
216 233 255
216 233 255
216 233 255
216 233 255
216 233 255
216 233 255
216 233 255
216 233 255
216 233 255
216 233 255
216 233 255
216 233 255
216 233 255
216 233 255
216 233 255
216 233 255
216 233 255
216 233 255
216 233 255
216 233 255
216 233 255
216 232 255
213 230 253
215 232 255
213 231 255
211 230 254
211 230 255
210 229 255
209 229 255
208 228 255
207 228 255
206 227 255
205 227 255
204 226 255
203 226 255
203 225 255
204 225 253
200 221 248
204 223 253
204 222 251
206 225 253
199 220 245
199 220 245
197 218 243
204 223 251
200 218 246
198 216 245
205 223 251
204 224 250
200 219 245
197 216 242
202 222 246
200 220 245
199 219 242
202 222 248
199 219 242
204 224 249
198 218 241
202 222 248
203 223 248
208 227 253
207 227 253
203 223 248
199 219 242
206 225 250
206 226 250
200 221 245
202 222 246
204 224 249
201 221 245
202 221 245
206 226 252
202 222 246
203 223 248
201 221 245
206 225 250
202 222 246
203 222 246
204 224 249
194 215 238
202 222 246
205 225 250
204 224 249
205 225 252
194 215 238
202 223 249
201 221 248
194 215 238
197 217 242
204 225 252
198 220 245
193 215 240
195 216 243
193 210 242
191 206 242
191 204 246
193 207 248
198 220 255
200 224 255
201 224 255
202 225 255
204 226 255
205 226 255
204 221 254
207 226 254
193 197 246
176 161 238
177 158 241
163 120 237
163 120 235
160 119 234
158 118 232
163 121 236
188 177 248
214 231 255
215 232 255
215 232 255
215 232 255
215 232 255
215 232 255
215 232 255
215 232 255
215 232 255
215 232 255
215 232 255
215 232 255
215 232 255
215 232 255
215 232 255
215 232 255
215 232 255
215 232 255
215 232 255
215 232 255
215 232 255
215 232 255
215 232 255
215 232 255
215 232 255
215 232 255
215 232 255
215 232 255
215 232 255
215 232 255
215 232 255
215 232 255
215 232 255
215 232 255
215 232 255
215 232 255
215 232 255
215 232 255
215 232 255
215 232 255
215 232 255
215 232 255
215 232 255
215 232 255
215 232 255
215 232 255
215 232 255
215 232 255
215 232 255
215 232 255
215 232 255
215 232 255
215 232 255
215 232 255
215 232 255
215 232 255
215 232 255
215 232 255
216 232 255
216 232 255
216 232 255
216 232 255
216 232 255
216 232 255
216 232 255
216 232 255
216 232 255
216 232 255
216 232 255
216 232 255
216 232 255
216 232 255
216 232 255
216 233 255
216 233 255
216 233 255
216 233 255
216 233 255
216 233 255
216 233 255
216 233 255
216 233 255
216 233 255
216 233 255
216 233 255
216 233 255
216 233 255
216 233 255
216 233 255
216 233 255
216 233 255
216 233 255
216 233 255
216 233 255
216 233 255
216 233 255
216 233 255
216 233 255
216 233 255
216 233 255
216 233 255
216 233 255
216 233 255
216 233 255
216 233 255
217 233 255
217 233 255
217 233 255
217 233 255
217 233 255
217 233 255
217 233 255
217 233 255
217 233 255
217 233 255
217 233 255
217 233 255
217 233 255
217 233 255
217 233 255
217 233 255
217 233 255
217 233 255
217 233 255
217 233 255
217 233 255
217 233 255
217 233 255
217 233 255
217 233 255
217 233 255
217 233 255
217 233 255
217 233 255
217 233 255
217 233 255
217 233 255
217 233 255
217 233 255
217 233 255
217 233 255
217 233 255
217 233 255
217 233 255
217 233 255
217 233 255
217 233 255
217 233 255
217 233 255
217 233 255
217 233 255
217 233 255
217 233 255
217 233 255
217 233 255
217 233 255
217 233 255
217 233 255
217 233 255
217 233 255
218 233 255
218 233 255
218 233 255
218 233 255
218 233 255
218 233 255
218 234 255
218 234 255
218 234 255
218 234 255
218 234 255
218 234 255
218 234 255
218 234 255
218 234 255
218 234 255
218 234 255
218 234 255
218 234 255
218 234 255
218 234 255
218 234 255
218 234 255
218 234 255
218 234 255
218 234 255
218 234 255
218 234 255
218 234 255
218 234 255
218 234 255
218 234 255
218 234 255
218 234 255
218 234 255
218 234 255
218 234 255
218 234 255
218 234 255
218 234 255
218 234 255
218 234 255
218 234 255
218 234 255
218 234 255
218 234 255
218 234 255
218 234 255
218 234 255
218 234 255
218 234 255
218 234 255
218 234 255
218 234 255
218 234 255
218 234 255
218 234 255
218 234 255
218 234 255
218 234 255
218 234 255
218 234 255
218 234 255
218 234 255
218 234 255
218 234 255
218 234 255
218 234 255
218 234 255
218 234 255
218 234 255
218 234 255
218 234 255
218 234 255
218 233 255
218 233 255
218 233 255
218 233 255
218 233 255
218 233 255
217 233 255
217 233 255
217 233 255
217 233 255
217 233 255
217 233 255
217 233 255
217 233 255
217 233 255
217 233 255
217 233 255
217 233 255
217 233 255
217 233 255
217 233 255
217 233 255
217 233 255
217 233 255
217 233 255
217 233 255
217 233 255
217 233 255
217 233 255
217 233 255
217 233 255
217 233 255
217 233 255
217 233 255
217 233 255
217 233 255
217 233 255
217 233 255
217 233 255
217 233 255
217 233 255
217 233 255
217 233 255
217 233 255
217 233 255
217 233 255
217 233 255
217 233 255
217 233 255
217 233 255
217 233 255
217 233 255
217 233 255
217 233 255
217 233 255
217 233 255
217 233 255
217 233 255
217 233 255
217 233 255
217 233 255
216 233 255
216 233 255
216 233 255
216 233 255
216 233 255
216 233 255
216 233 255
216 233 255
216 233 255
216 233 255
216 233 255
216 233 255
215 231 254
215 232 255
214 232 255
211 229 253
212 230 255
211 230 255
210 229 255
209 229 255
208 228 255
207 228 255
207 227 255
205 227 255
205 226 255
204 226 255
205 227 255
205 225 252
205 224 253
203 223 249
206 226 252
199 219 244
197 217 242
204 222 251
198 215 243
202 220 248
200 218 246
201 219 246
199 218 242
200 220 244
203 222 248
202 221 246
206 225 250
208 227 253
202 221 245
203 223 248
204 223 248
202 222 246
205 224 249
205 225 250
195 215 237
201 220 244
201 220 244
205 224 249
200 220 244
206 225 250
203 222 245
201 221 245
207 227 253
206 226 252
205 225 249
207 227 252
205 225 250
205 225 250
202 221 246
204 224 249
200 221 245
204 224 249
202 223 246
200 220 244
207 226 252
203 223 248
201 222 246
201 222 246
201 222 246
202 222 246
200 220 245
205 225 252
204 224 250
203 223 248
205 225 252
200 221 246
198 219 244
197 219 245
194 215 241
192 207 242
193 211 245
195 208 250
195 209 251
200 223 255
201 225 255
203 225 255
204 226 255
204 224 255
206 225 255
206 225 253
207 223 253
176 162 241
183 174 242
164 124 235
162 119 235
162 119 232
161 118 232
163 120 235
164 120 236
173 149 238
215 231 255
215 232 255
215 232 255
215 232 255
215 232 255
215 232 255
215 232 255
215 232 255
215 232 255
215 232 255
215 232 255
215 232 255
215 232 255
215 232 255
215 232 255
215 232 255
215 232 255
215 232 255
215 232 255
215 232 255
215 232 255
215 232 255
215 232 255
215 232 255
215 232 255
215 232 255
215 232 255
215 232 255
215 232 255
215 232 255
215 232 255
215 232 255
215 232 255
215 232 255
215 232 255
215 232 255
215 232 255
215 232 255
215 232 255
215 232 255
215 232 255
215 232 255
215 232 255
215 232 255
216 232 255
216 232 255
216 232 255
216 232 255
216 232 255
216 232 255
216 232 255
216 232 255
216 232 255
216 232 255
216 232 255
216 232 255
216 232 255
216 232 255
216 232 255
216 233 255
216 233 255
216 233 255
216 233 255
216 233 255
216 233 255
216 233 255
216 233 255
216 233 255
216 233 255
216 233 255
216 233 255
216 233 255
216 233 255
216 233 255
216 233 255
216 233 255
216 233 255
216 233 255
216 233 255
216 233 255
216 233 255
216 233 255
216 233 255
216 233 255
216 233 255
216 233 255
216 233 255
216 233 255
216 233 255
216 233 255
216 233 255
216 233 255
217 233 255
217 233 255
217 233 255
217 233 255
217 233 255
217 233 255
217 233 255
217 233 255
217 233 255
217 233 255
217 233 255
217 233 255
217 233 255
217 233 255
217 233 255
217 233 255
217 233 255
217 233 255
217 233 255
217 233 255
217 233 255
217 233 255
217 233 255
217 233 255
217 233 255
217 233 255
217 233 255
217 233 255
217 233 255
217 233 255
217 233 255
217 233 255
217 233 255
217 233 255
217 233 255
217 233 255
217 233 255
217 233 255
217 233 255
217 233 255
217 233 255
217 233 255
217 233 255
217 233 255
217 233 255
217 233 255
217 233 255
217 233 255
217 233 255
217 233 255
217 233 255
217 233 255
217 233 255
217 233 255
217 233 255
218 233 255
218 233 255
218 233 255
218 233 255
218 233 255
218 233 255
218 234 255
218 234 255
218 234 255
218 234 255
218 234 255
218 234 255
218 234 255
218 234 255
218 234 255
218 234 255
218 234 255
218 234 255
218 234 255
218 234 255
218 234 255
218 234 255
218 234 255
218 234 255
218 234 255
218 234 255
218 234 255
218 234 255
218 234 255
218 234 255
218 234 255
218 234 255
218 234 255
218 234 255
218 234 255
218 234 255
218 234 255
218 234 255
218 234 255
218 234 255
218 234 255
218 234 255
218 234 255
218 234 255
218 234 255
218 234 255
218 234 255
218 234 255
218 234 255
218 234 255
218 234 255
218 234 255
218 234 255
218 234 255
218 234 255
218 234 255
218 234 255
218 234 255
218 234 255
218 234 255
218 234 255
218 234 255
218 234 255
218 234 255
218 234 255
218 234 255
218 234 255
218 234 255
218 234 255
218 234 255
218 234 255
218 234 255
218 234 255
218 234 255
218 234 255
218 234 255
218 234 255
218 234 255
218 234 255
218 234 255
218 234 255
218 234 255
218 234 255
218 234 255
218 234 255
218 234 255
218 234 255
218 234 255
218 234 255
218 234 255
218 234 255
218 234 255
218 234 255
218 234 255
218 234 255
218 234 255
218 234 255
218 234 255
218 233 255
218 233 255
218 233 255
218 233 255
218 233 255
218 233 255
218 233 255
217 233 255
217 233 255
217 233 255
217 233 255
217 233 255
217 233 255
217 233 255
217 233 255
217 233 255
217 233 255
217 233 255
217 233 255
217 233 255
217 233 255
217 233 255
217 233 255
217 233 255
217 233 255
217 233 255
217 233 255
217 233 255
217 233 255
217 233 255
217 233 255
217 233 255
217 233 255
217 233 255
217 233 255
217 233 255
217 233 255
217 233 255
217 233 255
217 233 255
217 233 255
217 233 255
217 233 255
217 233 255
217 233 255
217 233 255
217 233 255
217 233 255
217 233 255
217 233 255
217 233 255
217 233 255
217 233 255
217 233 255
217 233 255
217 233 255
217 233 255
217 233 255
217 233 255
217 233 255
217 233 255
216 233 255
216 232 255
214 232 255
213 231 255
212 230 255
211 230 255
210 229 255
209 229 255
208 228 255
207 228 255
207 227 255
206 227 255
205 227 255
204 225 255
207 226 253
208 227 254
206 225 252
204 224 249
204 223 249
196 215 241
200 220 245
205 222 251
200 218 245
206 221 252
202 219 247
202 221 246
206 224 251
206 224 250
206 225 250
205 225 249
206 225 250
201 220 244
206 225 249
192 212 233
206 224 249
204 223 246
199 219 242
204 223 248
205 224 249
197 217 240
200 220 242
202 222 245
202 221 244
202 222 245
194 215 236
203 223 246
204 223 248
206 225 249
207 226 252
198 219 241
203 223 246
206 225 250
202 221 245
203 223 246
205 225 249
204 224 249
203 223 246
198 218 240
201 221 245
200 219 242
194 215 237
206 225 250
199 219 244
204 224 249
192 203 242
179 181 236
181 183 237
178 175 237
184 182 244
189 198 243
199 216 249
197 218 242
199 220 245
198 217 247
199 216 250
194 205 248
190 203 244
197 211 252
202 225 255
203 225 255
204 226 255
205 226 255
205 224 255
208 227 255
209 227 254
184 176 242
174 163 234
165 148 225
158 116 226
155 115 225
159 118 231
156 116 227
160 118 232
160 118 231
169 140 234
208 218 252
215 232 255
215 232 255
213 229 253
189 205 238
171 185 218
157 171 209
136 148 190
123 136 189
141 154 199
157 170 208
174 189 222
191 207 235
212 229 253
215 232 255
215 232 255
215 232 255
215 232 255
215 232 255
215 232 255
215 232 255
215 232 255
215 232 255
216 232 255
216 232 255
216 232 255
216 232 255
216 232 255
216 232 255
216 232 255
216 232 255
216 232 255
216 232 255
216 232 255
216 232 255
216 232 255
216 232 255
216 232 255
216 232 255
216 232 255
216 232 255
216 232 255
216 232 255
216 233 255
216 233 255
216 233 255
216 233 255
216 233 255
216 233 255
216 233 255
216 233 255
216 233 255
216 233 255
216 233 255
216 233 255
216 233 255
216 233 255
216 233 255
216 233 255
216 233 255
216 233 255
216 233 255
216 233 255
216 233 255
216 233 255
216 233 255
216 233 255
216 233 255
216 233 255
216 233 255
216 233 255
216 233 255
216 233 255
216 233 255
216 233 255
216 233 255
216 233 255
216 233 255
217 233 255
217 233 255
217 233 255
217 233 255
217 233 255
217 233 255
217 233 255
217 233 255
217 233 255
217 233 255
217 233 255
217 233 255
217 233 255
217 233 255
217 233 255
217 233 255
217 233 255
217 233 255
217 233 255
217 233 255
217 233 255
217 233 255
217 233 255
217 233 255
217 233 255
217 233 255
217 233 255
217 233 255
217 233 255
217 233 255
217 233 255
217 233 255
217 233 255
217 233 255
217 233 255
217 233 255
217 233 255
217 233 255
217 233 255
217 233 255
217 233 255
217 233 255
217 233 255
217 233 255
217 233 255
217 233 255
217 233 255
217 233 255
217 233 255
217 233 255
217 233 255
217 233 255
217 233 255
217 233 255
217 233 255
218 233 255
218 233 255
218 233 255
218 233 255
218 233 255
218 233 255
218 234 255
218 234 255
218 234 255
218 234 255
218 234 255
218 234 255
218 234 255
218 234 255
218 234 255
218 234 255
218 234 255
218 234 255
218 234 255
218 234 255
218 234 255
218 234 255
218 234 255
218 234 255
218 234 255
218 234 255
218 234 255
218 234 255
218 234 255
218 234 255
218 234 255
218 234 255
218 234 255
218 234 255
218 234 255
218 234 255
218 234 255
218 234 255
218 234 255
218 234 255
218 234 255
218 234 255
218 234 255
218 234 255
218 234 255
218 234 255
218 234 255
218 234 255
218 234 255
218 234 255
218 234 255
218 234 255
218 234 255
218 234 255
218 234 255
218 234 255
218 234 255
218 234 255
218 234 255
218 234 255
218 234 255
218 234 255
218 234 255
218 234 255
218 234 255
218 234 255
218 234 255
218 234 255
218 234 255
218 234 255
218 234 255
218 234 255
218 234 255
218 234 255
218 234 255
218 234 255
218 234 255
218 234 255
218 234 255
218 234 255
218 234 255
218 234 255
218 234 255
218 234 255
218 234 255
218 234 255
218 234 255
218 234 255
218 234 255
218 234 255
218 234 255
218 234 255
218 234 255
218 234 255
218 234 255
218 234 255
218 234 255
218 234 255
218 234 255
218 234 255
218 234 255
218 234 255
218 234 255
218 234 255
218 234 255
218 234 255
218 234 255
218 234 255
218 234 255
218 234 255
218 234 255
218 234 255
218 234 255
218 234 255
218 234 255
218 234 255
218 234 255
218 234 255
218 234 255
218 234 255
218 234 255
218 234 255
218 234 255
218 234 255
218 234 255
218 233 255
218 233 255
218 233 255
218 233 255
218 233 255
218 233 255
217 233 255
217 233 255
217 233 255
217 233 255
217 233 255
217 233 255
217 233 255
217 233 255
217 233 255
217 233 255
217 233 255
217 233 255
217 233 255
217 233 255
217 233 255
217 233 255
217 233 255
217 233 255
217 233 255
217 233 255
217 233 255
217 233 255
217 233 255
217 233 255
217 233 255
217 233 255
217 233 255
217 233 255
217 233 255
217 233 255
217 233 255
217 233 255
217 233 255
217 233 255
217 233 255
217 233 255
217 233 255
217 233 255
217 233 255
217 233 255
217 233 255
216 233 255
216 232 255
214 231 255
213 231 255
212 230 255
211 230 255
210 229 255
209 229 255
209 229 255
208 228 255
207 228 255
206 227 255
206 227 255
207 226 254
205 223 250
209 227 254
205 223 250
209 228 254
203 221 248
198 217 242
202 216 248
205 221 251
205 223 249
206 223 251
201 218 245
205 223 249
203 221 246
201 219 244
201 220 244
203 222 245
208 227 252
203 222 245
204 224 248
208 227 252
203 222 245
201 220 242
201 220 242
207 226 250
205 224 248
205 225 249
206 225 249
201 221 245
209 227 252
205 225 249
202 222 245
202 221 244
206 225 249
203 222 245
208 227 252
201 221 244
207 226 252
207 226 250
201 220 242
206 225 249
200 219 242
205 224 248
209 228 253
204 223 246
196 217 238
201 221 244
205 225 249
192 205 240
182 183 238
163 140 232
162 125 237
157 126 228
161 131 234
159 131 229
156 125 227
159 126 231
162 131 234
179 169 243
190 205 239
197 218 241
198 216 246
199 215 248
192 205 244
191 200 246
201 221 254
202 223 255
204 226 255
206 227 255
204 224 254
207 227 255
209 228 255
200 210 249
172 153 235
180 171 238
155 120 224
155 115 223
156 116 227
151 113 219
160 118 234
160 118 230
161 119 234
171 145 235
180 191 228
149 162 206
85 96 166
85 97 172
81 92 163
82 94 167
90 102 181
86 99 176
85 97 172
89 101 180
78 89 158
86 97 171
87 97 165
135 147 194
173 187 219
215 232 255
216 232 255
216 232 255
216 232 255
216 232 255
216 232 255
216 232 255
216 232 255
216 233 255
216 233 255
216 233 255
216 233 255
216 233 255
216 233 255
216 233 255
216 233 255
216 233 255
216 233 255
216 233 255
216 233 255
216 233 255
216 233 255
216 233 255
216 233 255
216 233 255
216 233 255
216 233 255
216 233 255
216 233 255
216 233 255
216 233 255
216 233 255
216 233 255
216 233 255
216 233 255
216 233 255
216 233 255
216 233 255
216 233 255
216 233 255
216 233 255
216 233 255
216 233 255
216 233 255
216 233 255
216 233 255
216 233 255
216 233 255
217 233 255
217 233 255
217 233 255
217 233 255
217 233 255
217 233 255
217 233 255
217 233 255
217 233 255
217 233 255
217 233 255
217 233 255
217 233 255
217 233 255
217 233 255
217 233 255
217 233 255
217 233 255
217 233 255
217 233 255
217 233 255
217 233 255
217 233 255
217 233 255
217 233 255
217 233 255
217 233 255
217 233 255
217 233 255
217 233 255
217 233 255
217 233 255
217 233 255
217 233 255
217 233 255
217 233 255
217 233 255
217 233 255
217 233 255
217 233 255
217 233 255
217 233 255
217 233 255
217 233 255
217 233 255
217 233 255
217 233 255
217 233 255
217 233 255
217 233 255
217 233 255
217 233 255
217 233 255
217 233 255
217 233 255
217 233 255
218 233 255
218 233 255
218 233 255
218 233 255
218 233 255
218 233 255
218 233 255
218 234 255
218 234 255
218 234 255
218 234 255
218 234 255
218 234 255
218 234 255
218 234 255
218 234 255
218 234 255
218 234 255
218 234 255
218 234 255
218 234 255
218 234 255
218 234 255
218 234 255
218 234 255
218 234 255
218 234 255
218 234 255
218 234 255
218 234 255
218 234 255
218 234 255
218 234 255
218 234 255
218 234 255
218 234 255
218 234 255
218 234 255
218 234 255
218 234 255
218 234 255
218 234 255
218 234 255
218 234 255
218 234 255
218 234 255
218 234 255
218 234 255
218 234 255
218 234 255
218 234 255
218 234 255
218 234 255
218 234 255
218 234 255
218 234 255
218 234 255
218 234 255
218 234 255
218 234 255
218 234 255
218 234 255
218 234 255
218 234 255
218 234 255
218 234 255
218 234 255
218 234 255
218 234 255
218 234 255
218 234 255
218 234 255
219 234 255
219 234 255
219 234 255
219 234 255
219 234 255
219 234 255
219 234 255
219 234 255
219 234 255
219 234 255
219 234 255
219 234 255
218 234 255
218 234 255
218 234 255
218 234 255
218 234 255
218 234 255
218 234 255
218 234 255
218 234 255
218 234 255
218 234 255
218 234 255
218 234 255
218 234 255
218 234 255
218 234 255
218 234 255
218 234 255
218 234 255
218 234 255
218 234 255
218 234 255
218 234 255
218 234 255
218 234 255
218 234 255
218 234 255
218 234 255
218 234 255
218 234 255
218 234 255
218 234 255
218 234 255
218 234 255
218 234 255
218 234 255
218 234 255
218 234 255
218 234 255
218 234 255
218 234 255
218 234 255
218 234 255
218 234 255
218 234 255
218 234 255
218 234 255
218 234 255
218 234 255
218 234 255
218 234 255
218 234 255
218 234 255
218 234 255
218 234 255
218 234 255
218 234 255
218 234 255
218 234 255
218 234 255
218 234 255
218 234 255
218 234 255
218 234 255
218 234 255
218 234 255
218 234 255
218 234 255
218 233 255
218 233 255
218 233 255
218 233 255
218 233 255
218 233 255
217 233 255
217 233 255
217 233 255
217 233 255
217 233 255
217 233 255
217 233 255
217 233 255
217 233 255
217 233 255
217 233 255
217 233 255
217 233 255
217 233 255
217 233 255
217 233 255
217 233 255
217 233 255
217 233 255
217 233 255
217 233 255
217 233 255
217 233 255
217 233 255
217 233 255
215 231 253
217 233 255
216 233 255
215 232 255
214 231 255
213 231 255
213 231 255
211 230 255
211 230 255
210 229 255
209 229 255
208 228 255
208 228 255
207 228 255
206 227 254
204 223 248
205 223 250
204 222 249
205 224 248
205 223 249
200 220 244
200 218 245
204 220 248
204 221 247
204 222 246
201 218 243
205 221 250
206 223 249
203 221 245
206 224 249
206 225 249
205 224 248
205 223 246
207 225 249
207 226 250
202 221 244
208 226 250
208 226 250
204 223 246
203 223 245
203 223 245
207 225 249
201 221 242
206 225 249
203 222 245
202 222 245
207 226 249
203 222 244
202 221 242
204 223 246
207 225 249
206 225 248
206 225 248
204 223 246
202 221 244
204 223 246
208 227 252
204 223 246
207 226 250
206 225 249
202 222 245
199 217 243
189 191 245
164 130 236
163 132 236
160 131 230
162 132 234
160 130 234
165 135 236
159 131 230
155 127 225
160 133 229
155 122 224
158 126 231
160 131 230
180 176 241
200 218 248
198 217 246
195 209 245
192 202 245
197 210 251
203 225 255
204 225 254
206 227 255
207 228 255
207 225 255
208 226 254
209 227 254
171 153 231
174 165 230
168 144 230
158 117 229
158 117 227
156 116 227
155 115 223
155 115 223
156 116 226
158 116 225
136 106 201
92 99 177
87 100 177
86 98 175
90 102 181
89 101 180
85 97 174
88 101 180
94 107 191
89 102 181
91 104 185
90 103 184
86 99 175
82 93 165
84 95 167
101 112 175
177 192 225
214 231 255
216 233 255
216 233 255
216 233 255
216 233 255
216 233 255
216 233 255
216 233 255
216 233 255
216 233 255
216 233 255
216 233 255
216 233 255
216 233 255
216 233 255
216 233 255
216 233 255
216 233 255
216 233 255
216 233 255
216 233 255
216 233 255
216 233 255
216 233 255
216 233 255
216 233 255
216 233 255
216 233 255
216 233 255
216 233 255
216 233 255
217 233 255
217 233 255
217 233 255
217 233 255
217 233 255
217 233 255
217 233 255
217 233 255
217 233 255
217 233 255
217 233 255
217 233 255
217 233 255
217 233 255
217 233 255
217 233 255
217 233 255
217 233 255
217 233 255
217 233 255
217 233 255
217 233 255
217 233 255
217 233 255
217 233 255
217 233 255
217 233 255
217 233 255
217 233 255
217 233 255
217 233 255
217 233 255
217 233 255
217 233 255
217 233 255
217 233 255
217 233 255
217 233 255
217 233 255
217 233 255
217 233 255
217 233 255
217 233 255
217 233 255
217 233 255
217 233 255
217 233 255
217 233 255
217 233 255
217 233 255
217 233 255
217 233 255
217 233 255
217 233 255
217 233 255
217 233 255
217 233 255
218 233 255
218 233 255
218 233 255
218 233 255
218 233 255
218 233 255
218 234 255
218 234 255
218 234 255
218 234 255
218 234 255
218 234 255
218 234 255
218 234 255
218 234 255
218 234 255
218 234 255
218 234 255
218 234 255
218 234 255
218 234 255
218 234 255
218 234 255
218 234 255
218 234 255
218 234 255
218 234 255
218 234 255
218 234 255
218 234 255
218 234 255
218 234 255
218 234 255
218 234 255
218 234 255
218 234 255
218 234 255
218 234 255
218 234 255
218 234 255
218 234 255
218 234 255
218 234 255
218 234 255
218 234 255
218 234 255
218 234 255
218 234 255
218 234 255
218 234 255
218 234 255
218 234 255
218 234 255
218 234 255
218 234 255
218 234 255
218 234 255
218 234 255
218 234 255
218 234 255
218 234 255
218 234 255
218 234 255
218 234 255
218 234 255
218 234 255
218 234 255
218 234 255
218 234 255
218 234 255
218 234 255
218 234 255
218 234 255
218 234 255
218 234 255
219 234 255
219 234 255
219 234 255
219 234 255
219 234 255
219 234 255
219 234 255
219 234 255
219 234 255
219 234 255
219 234 255
219 234 255
219 234 255
219 234 255
219 234 255
219 234 255
219 234 255
219 234 255
219 234 255
219 234 255
219 234 255
219 234 255
219 234 255
219 234 255
219 234 255
219 234 255
219 234 255
219 234 255
219 234 255
219 234 255
219 234 255
219 234 255
219 234 255
219 234 255
219 234 255
219 234 255
219 234 255
219 234 255
219 234 255
218 234 255
218 234 255
218 234 255
218 234 255
218 234 255
218 234 255
218 234 255
218 234 255
218 234 255
218 234 255
218 234 255
218 234 255
218 234 255
218 234 255
218 234 255
218 234 255
218 234 255
218 234 255
218 234 255
218 234 255
218 234 255
218 234 255
218 234 255
218 234 255
218 234 255
218 234 255
218 234 255
218 234 255
218 234 255
218 234 255
218 234 255
218 234 255
218 234 255
218 234 255
218 234 255
218 234 255
218 234 255
218 234 255
218 234 255
218 234 255
218 234 255
218 234 255
218 234 255
218 234 255
218 234 255
218 234 255
218 234 255
218 234 255
218 234 255
218 234 255
218 234 255
218 234 255
218 234 255
218 234 255
218 234 255
218 234 255
218 234 255
218 234 255
218 234 255
218 234 255
218 234 255
218 234 255
218 234 255
218 234 255
218 234 255
218 234 255
218 233 255
218 233 255
218 233 255
218 233 255
218 233 255
218 233 255
217 233 255
217 233 255
217 233 255
217 233 255
217 233 255
217 233 255
217 233 255
217 233 255
217 233 255
217 233 255
217 233 255
218 233 255
217 233 255
216 233 255
215 232 255
214 232 255
213 231 255
213 231 255
212 230 255
211 230 255
210 229 255
210 229 255
209 229 255
208 228 255
208 228 255
205 224 249
206 224 249
211 228 255
207 225 250
210 229 253
202 220 245
203 221 246
203 216 248
207 224 250
202 219 244
206 223 249
205 221 247
206 223 249
207 225 251
205 222 247
205 223 248
205 223 246
205 223 246
211 229 253
203 222 244
205 223 246
207 225 249
204 223 246
206 225 248
211 229 253
204 223 245
209 227 250
197 216 237
203 222 245
210 228 252
210 228 252
206 225 248
206 225 248
200 219 240
209 227 250
208 227 252
209 228 252
202 221 244
203 223 245
200 220 241
206 225 248
202 222 244
210 228 252
207 226 249
203 223 245
202 221 244
201 218 246
166 152 230
155 123 227
168 135 241
166 137 237
159 130 229
162 126 234
160 123 230
161 133 229
161 130 230
152 123 221
155 126 223
159 129 227
158 126 227
160 132 228
160 133 229
166 145 231
192 205 240
196 211 244
198 212 247
193 203 245
201 216 254
205 227 255
206 227 255
207 227 255
207 226 255
207 225 254
209 226 255
188 186 242
174 158 234
173 156 231
150 113 219
153 113 219
157 116 227
159 117 225
152 113 219
146 110 213
162 118 229
157 116 226
135 112 212
89 102 181
87 99 176
92 105 186
96 110 197
93 106 189
91 105 187
94 107 191
91 104 185
91 104 185
89 101 179
95 108 191
94 107 190
85 97 172
87 98 172
81 92 160
126 137 185
196 211 237
216 233 255
216 233 255
216 233 255
216 233 255
216 233 255
216 233 255
216 233 255
216 233 255
217 233 255
217 233 255
217 233 255
217 233 255
217 233 255
217 233 255
217 233 255
217 233 255
217 233 255
217 233 255
217 233 255
217 233 255
217 233 255
217 233 255
217 233 255
217 233 255
217 233 255
217 233 255
217 233 255
217 233 255
217 233 255
217 233 255
217 233 255
217 233 255
217 233 255
217 233 255
217 233 255
217 233 255
217 233 255
217 233 255
217 233 255
217 233 255
217 233 255
217 233 255
217 233 255
217 233 255
217 233 255
217 233 255
217 233 255
217 233 255
217 233 255
217 233 255
217 233 255
217 233 255
217 233 255
217 233 255
217 233 255
217 233 255
217 233 255
217 233 255
217 233 255
217 233 255
217 233 255
217 233 255
217 233 255
217 233 255
217 233 255
217 233 255
217 233 255
217 233 255
217 233 255
217 233 255
217 233 255
218 233 255
218 233 255
218 233 255
218 233 255
218 233 255
218 233 255
218 233 255
218 234 255
218 234 255
218 234 255
218 234 255
218 234 255
218 234 255
218 234 255
218 234 255
218 234 255
218 234 255
218 234 255
218 234 255
218 234 255
218 234 255
218 234 255
218 234 255
218 234 255
218 234 255
218 234 255
218 234 255
218 234 255
218 234 255
218 234 255
218 234 255
218 234 255
218 234 255
218 234 255
218 234 255
218 234 255
218 234 255
218 234 255
218 234 255
218 234 255
218 234 255
218 234 255
218 234 255
218 234 255
218 234 255
218 234 255
218 234 255
218 234 255
218 234 255
218 234 255
218 234 255
218 234 255
218 234 255
218 234 255
218 234 255
218 234 255
218 234 255
218 234 255
218 234 255
218 234 255
218 234 255
218 234 255
218 234 255
218 234 255
218 234 255
218 234 255
218 234 255
218 234 255
218 234 255
218 234 255
218 234 255
218 234 255
218 234 255
219 234 255
219 234 255
219 234 255
219 234 255
219 234 255
219 234 255
219 234 255
219 234 255
219 234 255
219 234 255
219 234 255
219 234 255
219 234 255
219 234 255
219 234 255
219 234 255
219 234 255
219 234 255
219 234 255
219 234 255
219 234 255
219 234 255
219 234 255
219 234 255
219 234 255
219 234 255
219 234 255
219 234 255
219 234 255
219 234 255
219 234 255
219 234 255
219 234 255
219 234 255
219 234 255
219 234 255
219 234 255
219 234 255
219 234 255
219 234 255
219 234 255
219 234 255
219 234 255
219 234 255
219 234 255
219 234 255
219 234 255
219 234 255
219 234 255
219 234 255
219 234 255
219 234 255
219 234 255
219 234 255
219 234 255
219 234 255
219 234 255
219 234 255
219 234 255
219 234 255
219 234 255
219 234 255
219 234 255
219 234 255
219 234 255
219 234 255
219 234 255
219 234 255
219 234 255
219 234 255
219 234 255
219 234 255
218 234 255
218 234 255
218 234 255
218 234 255
218 234 255
218 234 255
218 234 255
218 234 255
218 234 255
218 234 255
218 234 255
218 234 255
218 234 255
218 234 255
218 234 255
218 234 255
218 234 255
218 234 255
218 234 255
218 234 255
218 234 255
218 234 255
218 234 255
218 234 255
218 234 255
218 234 255
218 234 255
218 234 255
218 234 255
218 234 255
218 234 255
218 234 255
218 234 255
218 234 255
218 234 255
218 234 255
218 234 255
218 234 255
218 234 255
218 234 255
218 234 255
218 234 255
218 234 255
218 234 255
218 234 255
218 234 255
218 234 255
218 234 255
218 234 255
218 234 255
218 234 255
218 234 255
218 234 255
218 234 255
218 234 255
218 234 255
218 234 255
218 234 255
218 234 255
218 234 255
218 234 255
218 234 255
218 234 255
218 234 255
218 234 255
218 233 255
217 233 255
215 232 253
217 233 255
216 233 255
215 232 255
214 232 255
213 231 255
213 231 255
212 230 255
212 230 255
211 230 255
210 229 255
209 229 255
209 229 255
209 229 255
211 229 254
210 227 254
211 229 254
208 226 250
209 225 252
204 222 247
204 220 247
202 217 244
202 217 245
209 226 251
206 223 250
210 226 253
209 225 251
201 219 242
208 224 250
207 226 249
207 225 248
203 221 244
205 223 246
208 226 249
200 218 240
206 224 246
209 227 250
212 230 254
206 224 246
201 220 241
214 231 255
199 218 238
205 223 245
208 226 249
202 221 242
211 229 253
209 227 250
209 227 250
198 217 237
206 224 246
204 223 245
207 225 248
210 228 252
205 224 246
206 224 246
206 224 246
208 226 249
208 227 250
205 224 245
199 215 240
172 149 238
160 130 231
163 136 232
164 135 233
150 121 219
161 138 229
159 130 228
159 127 229
156 123 224
159 126 228
157 129 225
157 126 226
158 129 226
161 130 230
158 130 226
160 128 230
153 124 219
165 142 231
197 211 245
202 219 248
197 209 247
197 208 249
205 225 254
207 227 255
208 228 255
209 228 255
209 228 255
208 225 253
201 209 250
167 156 223
176 170 229
156 116 224
155 114 221
150 113 218
155 115 222
153 114 221
151 113 218
153 114 219
155 115 222
153 114 219
127 111 206
96 110 195
98 110 196
92 105 186
94 107 190
93 106 189
96 109 192
96 109 192
96 110 196
94 108 192
94 107 190
88 100 176
87 99 175
93 106 185
91 102 179
80 92 160
93 104 162
196 211 239
217 233 255
217 233 255
217 233 255
217 233 255
217 233 255
217 233 255
217 233 255
217 233 255
217 233 255
217 233 255
217 233 255
217 233 255
217 233 255
217 233 255
217 233 255
217 233 255
217 233 255
217 233 255
217 233 255
217 233 255
217 233 255
217 233 255
217 233 255
217 233 255
217 233 255
217 233 255
217 233 255
217 233 255
217 233 255
217 233 255
217 233 255
217 233 255
217 233 255
217 233 255
217 233 255
217 233 255
217 233 255
217 233 255
217 233 255
217 233 255
217 233 255
217 233 255
217 233 255
217 233 255
217 233 255
217 233 255
217 233 255
217 233 255
217 233 255
217 233 255
217 233 255
217 233 255
217 233 255
217 233 255
218 233 255
217 233 255
218 233 255
218 233 255
218 233 255
218 233 255
218 233 255
218 234 255
218 234 255
218 234 255
218 234 255
218 234 255
218 234 255
218 234 255
218 234 255
218 234 255
218 234 255
218 234 255
218 234 255
218 234 255
218 234 255
218 234 255
218 234 255
218 234 255
218 234 255
218 234 255
218 234 255
218 234 255
218 234 255
218 234 255
218 234 255
218 234 255
218 234 255
218 234 255
218 234 255
218 234 255
218 234 255
218 234 255
218 234 255
218 234 255
218 234 255
218 234 255
218 234 255
218 234 255
218 234 255
218 234 255
218 234 255
218 234 255
218 234 255
218 234 255
218 234 255
218 234 255
218 234 255
218 234 255
218 234 255
218 234 255
218 234 255
218 234 255
218 234 255
218 234 255
218 234 255
218 234 255
218 234 255
218 234 255
218 234 255
218 234 255
218 234 255
218 234 255
218 234 255
218 234 255
218 234 255
218 234 255
219 234 255
219 234 255
219 234 255
219 234 255
219 234 255
219 234 255
219 234 255
219 234 255
219 234 255
219 234 255
219 234 255
219 234 255
219 234 255
219 234 255
219 234 255
219 234 255
219 234 255
219 234 255
219 234 255
219 234 255
219 234 255
219 234 255
219 234 255
219 234 255
219 234 255
219 234 255
219 234 255
219 234 255
219 234 255
219 234 255
219 234 255
219 234 255
219 234 255
219 234 255
219 234 255
219 234 255
219 234 255
219 234 255
219 234 255
219 234 255
219 234 255
219 234 255
219 234 255
219 234 255
219 234 255
219 234 255
219 234 255
219 234 255
219 234 255
219 234 255
219 234 255
219 234 255
219 234 255
219 234 255
219 234 255
219 234 255
219 234 255
219 234 255
219 234 255
219 234 255
219 234 255
219 234 255
219 234 255
219 234 255
219 234 255
219 234 255
219 234 255
219 234 255
219 234 255
219 234 255
219 234 255
219 234 255
219 234 255
219 234 255
219 234 255
219 234 255
219 234 255
219 234 255
219 234 255
219 234 255
219 234 255
219 234 255
219 234 255
219 234 255
219 234 255
219 234 255
219 234 255
219 234 255
219 234 255
219 234 255
219 234 255
219 234 255
219 234 255
219 234 255
219 234 255
219 234 255
219 234 255
219 234 255
219 234 255
219 234 255
219 234 255
219 234 255
219 234 255
219 234 255
219 234 255
219 234 255
219 234 255
218 234 255
218 234 255
218 234 255
218 234 255
218 234 255
218 234 255
218 234 255
218 234 255
218 234 255
218 234 255
218 234 255
218 234 255
218 234 255
218 234 255
218 234 255
218 234 255
218 234 255
218 234 255
218 234 255
218 234 255
218 234 255
218 234 255
218 234 255
218 234 255
218 234 255
218 234 255
218 234 255
218 234 255
218 234 255
218 234 255
218 234 255
218 234 255
218 234 255
218 234 255
218 234 255
218 234 255
218 234 255
218 234 255
218 234 255
218 234 255
218 234 255
218 234 255
218 234 255
218 234 255
218 234 255
218 234 255
218 234 255
218 234 255
217 233 254
218 234 255
217 233 255
217 233 255
215 232 255
215 232 255
214 232 255
213 231 255
212 231 255
212 230 255
211 230 255
211 230 255
210 229 255
210 229 255
207 224 251
208 226 250
207 224 250
209 226 251
208 224 250
203 222 245
210 228 253
210 224 254
208 225 251
206 222 250
203 219 245
209 225 251
205 222 246
207 225 248
204 221 244
206 222 246
198 216 237
208 226 249
204 223 244
213 231 254
207 225 248
208 226 249
204 223 245
205 223 245
205 223 244
208 226 249
209 227 250
208 226 248
211 228 250
200 219 240
205 223 245
206 225 246
205 223 244
203 221 242
208 226 248
208 226 249
203 222 242
205 224 245
206 225 246
209 227 249
208 226 249
203 222 242
211 228 252
208 226 249
207 225 248
204 222 244
173 156 235
162 130 232
159 131 227
161 127 232
155 128 223
163 134 231
157 127 227
159 130 226
157 128 226
155 124 223
157 128 225
151 120 219
158 137 223
158 132 225
164 134 231
158 137 223
155 124 223
154 127 221
146 122 211
162 146 224
200 214 246
198 210 248
190 197 240
202 217 253
208 228 255
209 228 255
209 229 255
208 226 254
208 225 254
204 219 250
158 138 220
178 166 235
156 129 225
144 108 206
153 114 219
151 112 217
152 112 215
151 112 215
153 114 219
158 117 227
156 116 225
152 113 219
101 107 192
99 113 201
96 108 194
96 109 193
101 114 204
94 108 192
102 116 205
98 112 197
101 114 203
98 111 196
97 110 195
94 106 186
93 105 185
89 102 179
88 101 177
89 102 176
85 96 162
179 193 223
217 233 255
217 233 255
217 233 255
217 233 255
217 233 255
217 233 255
217 233 255
217 233 255
217 233 255
217 233 255
217 233 255
217 233 255
217 233 255
217 233 255
217 233 255
217 233 255
217 233 255
217 233 255
217 233 255
217 233 255
217 233 255
217 233 255
217 233 255
217 233 255
217 233 255
217 233 255
217 233 255
217 233 255
217 233 255
217 233 255
217 233 255
217 233 255
217 233 255
217 233 255
217 233 255
217 233 255
218 233 255
218 233 255
218 233 255
218 233 255
218 233 255
218 233 255
218 233 255
218 234 255
218 234 255
218 234 255
218 234 255
218 234 255
218 234 255
218 234 255
218 234 255
218 234 255
218 234 255
218 234 255
218 234 255
218 234 255
218 234 255
218 234 255
218 234 255
218 234 255
218 234 255
218 234 255
218 234 255
218 234 255
218 234 255
218 234 255
218 234 255
218 234 255
218 234 255
218 234 255
218 234 255
218 234 255
218 234 255
218 234 255
218 234 255
218 234 255
218 234 255
218 234 255
218 234 255
218 234 255
218 234 255
218 234 255
218 234 255
218 234 255
218 234 255
218 234 255
218 234 255
218 234 255
218 234 255
218 234 255
218 234 255
218 234 255
218 234 255
218 234 255
218 234 255
218 234 255
218 234 255
218 234 255
218 234 255
218 234 255
218 234 255
218 234 255
218 234 255
218 234 255
218 234 255
218 234 255
218 234 255
218 234 255
218 234 255
219 234 255
219 234 255
219 234 255
219 234 255
219 234 255
219 234 255
219 234 255
219 234 255
219 234 255
219 234 255
219 234 255
219 234 255
219 234 255
219 234 255
219 234 255
219 234 255
219 234 255
219 234 255
219 234 255
219 234 255
219 234 255
219 234 255
219 234 255
219 234 255
219 234 255
219 234 255
219 234 255
219 234 255
219 234 255
219 234 255
219 234 255
219 234 255
219 234 255
219 234 255
219 234 255
219 234 255
219 234 255
219 234 255
219 234 255
219 234 255
219 234 255
219 234 255
219 234 255
219 234 255
219 234 255
219 234 255
219 234 255
219 234 255
219 234 255
219 234 255
219 234 255
219 234 255
219 234 255
219 234 255
219 234 255
219 234 255
219 234 255
219 234 255
219 234 255
219 234 255
219 234 255
219 234 255
219 234 255
219 234 255
219 234 255
219 234 255
219 234 255
219 234 255
219 234 255
219 234 255
219 234 255
219 234 255
219 234 255
219 234 255
219 234 255
219 234 255
219 234 255
219 234 255
219 234 255
219 234 255
219 234 255
219 234 255
219 234 255
219 234 255
219 234 255
219 234 255
219 234 255
219 234 255
219 234 255
219 234 255
219 234 255
219 234 255
219 234 255
219 234 255
219 234 255
219 234 255
219 234 255
219 234 255
219 234 255
219 234 255
219 234 255
219 234 255
219 234 255
219 234 255
219 234 255
219 234 255
219 234 255
219 234 255
219 234 255
219 234 255
219 234 255
219 234 255
219 234 255
219 234 255
219 234 255
219 234 255
219 234 255
219 234 255
219 234 255
219 234 255
219 234 255
219 234 255
219 234 255
219 234 255
219 234 255
219 234 255
219 234 255
219 234 255
219 234 255
219 234 255
219 234 255
219 234 255
219 234 255
219 234 255
219 234 255
219 234 255
219 234 255
219 234 255
219 234 255
219 234 255
219 234 255
218 234 255
218 234 255
218 234 255
218 234 255
218 234 255
218 234 255
218 234 255
218 234 255
218 234 255
218 234 255
218 234 255
218 234 255
218 234 255
218 234 255
218 234 255
218 234 255
218 234 255
218 234 255
218 234 255
218 234 255
218 234 255
218 234 255
218 234 255
218 234 255
218 234 255
218 234 255
218 234 255
218 234 255
218 234 255
218 234 255
218 234 255
218 233 255
217 233 255
216 233 255
216 232 255
215 232 255
214 232 255
214 231 255
213 231 255
212 231 255
212 230 255
211 230 255
211 230 255
211 230 255
210 226 253
208 224 250
211 227 254
211 228 253
210 226 251
208 224 250
205 220 246
209 222 252
211 227 254
206 222 248
206 224 246
207 223 249
208 225 249
204 220 243
207 222 248
205 222 244
207 225 246
203 222 242
206 224 245
207 225 246
210 228 250
207 225 246
205 223 245
208 226 249
209 227 249
202 221 241
202 221 241
202 221 241
208 225 248
207 225 246
203 222 242
203 222 242
211 228 252
210 228 250
204 223 244
204 223 244
210 227 250
207 225 246
207 225 246
208 226 248
208 226 248
207 226 248
207 225 248
209 227 250
208 226 248
183 172 242
159 126 228
160 129 230
162 131 231
160 124 230
152 125 218
158 132 225
152 126 218
153 124 220
159 122 229
152 122 223
164 130 233
154 124 221
153 132 214
160 129 230
159 130 225
155 123 223
148 125 208
164 132 234
158 128 223
159 135 221
181 178 238
204 218 252
196 209 243
193 201 243
208 228 255
209 229 255
209 228 255
209 225 255
210 227 255
196 212 243
160 147 225
177 155 238
150 131 213
152 113 219
150 112 217
153 113 218
151 112 214
148 111 213
152 113 218
151 112 217
145 109 208
146 110 210
134 111 210
99 111 202
98 109 196
97 109 195
99 113 200
100 112 199
98 111 199
101 115 203
96 109 191
99 112 196
92 105 184
93 106 186
91 103 180
92 105 184
95 107 186
92 103 180
81 91 158
89 101 171
191 206 234
217 233 255
217 233 255
217 233 255
217 233 255
217 233 255
217 233 255
217 233 255
217 233 255
217 233 255
217 233 255
217 233 255
218 233 255
218 233 255
218 233 255
218 233 255
218 233 255
218 233 255
218 233 255
218 233 255
218 233 255
218 234 255
218 234 255
218 234 255
218 234 255
218 234 255
218 234 255
218 234 255
218 234 255
218 234 255
218 234 255
218 234 255
218 234 255
218 234 255
218 234 255
218 234 255
218 234 255
218 234 255
218 234 255
218 234 255
218 234 255
218 234 255
218 234 255
218 234 255
218 234 255
218 234 255
218 234 255
218 234 255
218 234 255
218 234 255
218 234 255
218 234 255
218 234 255
218 234 255
218 234 255
218 234 255
218 234 255
218 234 255
218 234 255
218 234 255
218 234 255
218 234 255
218 234 255
218 234 255
218 234 255
218 234 255
218 234 255
218 234 255
218 234 255
218 234 255
218 234 255
218 234 255
218 234 255
218 234 255
218 234 255
218 234 255
218 234 255
218 234 255
218 234 255
218 234 255
218 234 255
218 234 255
218 234 255
218 234 255
218 234 255
218 234 255
218 234 255
218 234 255
218 234 255
218 234 255
219 234 255
219 234 255
219 234 255
219 234 255
219 234 255
219 234 255
219 234 255
219 234 255
219 234 255
219 234 255
219 234 255
219 234 255
219 234 255
219 234 255
219 234 255
219 234 255
219 234 255
219 234 255
219 234 255
219 234 255
219 234 255
219 234 255
219 234 255
219 234 255
219 234 255
219 234 255
219 234 255
219 234 255
219 234 255
219 234 255
219 234 255
219 234 255
219 234 255
219 234 255
219 234 255
219 234 255
219 234 255
219 234 255
219 234 255
219 234 255
219 234 255
219 234 255
219 234 255
219 234 255
219 234 255
219 234 255
219 234 255
219 234 255
219 234 255
219 234 255
219 234 255
219 234 255
219 234 255
219 234 255
219 234 255
219 234 255
219 234 255
219 234 255
219 234 255
219 234 255
219 234 255
219 234 255
219 234 255
219 234 255
219 234 255
219 234 255
219 234 255
219 234 255
219 234 255
219 234 255
219 234 255
219 234 255
219 234 255
219 234 255
219 234 255
219 234 255
219 234 255
219 234 255
219 234 255
219 234 255
219 235 255
219 235 255
219 235 255
219 235 255
219 235 255
219 234 255
219 234 255
219 234 255
219 234 255
219 234 255
219 234 255
219 234 255
219 234 255
219 234 255
219 234 255
219 234 255
219 234 255
219 234 255
219 234 255
219 234 255
219 234 255
219 234 255
219 234 255
219 234 255
219 234 255
219 234 255
219 234 255
219 234 255
219 234 255
219 234 255
219 234 255
219 234 255
219 234 255
219 234 255
219 234 255
219 234 255
219 234 255
219 234 255
219 234 255
219 234 255
219 234 255
219 234 255
219 234 255
219 234 255
219 234 255
219 234 255
219 234 255
219 234 255
219 234 255
219 234 255
219 234 255
219 234 255
219 234 255
219 234 255
219 234 255
219 234 255
219 234 255
219 234 255
219 234 255
219 234 255
219 234 255
219 234 255
219 234 255
219 234 255
219 234 255
219 234 255
219 234 255
219 234 255
219 234 255
219 234 255
219 234 255
219 234 255
219 234 255
219 234 255
219 234 255
219 234 255
219 234 255
219 234 255
219 234 255
219 234 255
219 234 255
219 234 255
219 234 255
219 234 255
219 234 255
219 234 255
219 234 255
219 234 255
219 234 255
219 234 255
219 234 255
219 234 255
219 234 255
219 234 255
219 234 255
219 234 255
219 234 255
219 234 255
219 234 255
219 234 255
218 234 255
218 234 255
218 234 255
218 234 255
218 234 255
218 234 255
218 234 255
218 234 255
218 234 255
218 234 255
219 234 255
218 234 255
217 233 255
217 233 255
216 232 255
215 232 255
215 232 255
214 231 255
214 231 255
213 231 255
212 231 255
212 230 255
211 230 255
212 229 255
208 224 250
210 227 251
212 229 253
214 230 255
208 224 249
196 213 235
207 220 250
210 225 251
208 225 249
212 229 253
208 224 249
206 222 246
209 225 250
206 224 245
208 224 247
208 225 248
208 225 246
206 224 245
206 224 245
200 219 238
213 230 253
213 230 253
211 228 250
205 223 244
210 227 249
210 227 249
211 228 250
208 226 248
208 226 248
211 228 250
204 222 242
212 229 252
204 223 244
208 226 248
210 227 249
206 225 246
202 221 241
210 227 249
209 226 248
203 221 242
209 227 248
210 227 249
209 227 249
207 226 248
193 200 240
162 131 230
159 125 227
163 130 233
160 131 226
159 133 224
154 123 221
154 126 222
152 128 219
161 125 232
156 129 222
147 122 211
155 125 223
156 132 224
154 132 219
150 120 213
147 121 207
149 125 210
161 133 228
152 126 217
155 125 219
149 127 210
149 120 212
192 197 244
197 208 244
190 197 239
206 222 253
209 228 254
208 227 253
208 225 253
212 229 255
194 210 243
140 137 207
169 151 231
150 134 212
151 112 214
147 109 207
146 110 210
155 115 222
143 107 204
146 109 208
151 112 213
142 108 204
142 107 204
145 109 208
115 112 208
99 111 200
102 114 205
100 112 201
101 113 200
103 116 204
101 113 201
98 110 197
100 113 198
98 111 195
98 111 193
98 111 197
91 103 180
91 104 182
89 101 176
87 99 171
81 91 157
98 109 173
201 216 242
218 234 255
218 234 255
218 234 255
218 234 255
218 234 255
218 234 255
218 234 255
218 234 255
218 234 255
218 234 255
218 234 255
218 234 255
218 234 255
218 234 255
218 234 255
218 234 255
218 234 255
218 234 255
218 234 255
218 234 255
218 234 255
218 234 255
218 234 255
218 234 255
218 234 255
218 234 255
218 234 255
218 234 255
218 234 255
218 234 255
218 234 255
218 234 255
218 234 255
218 234 255
218 234 255
218 234 255
218 234 255
218 234 255
218 234 255
218 234 255
218 234 255
218 234 255
218 234 255
218 234 255
218 234 255
218 234 255
218 234 255
218 234 255
218 234 255
218 234 255
218 234 255
218 234 255
218 234 255
218 234 255
218 234 255
218 234 255
218 234 255
218 234 255
218 234 255
218 234 255
218 234 255
218 234 255
218 234 255
218 234 255
218 234 255
218 234 255
218 234 255
218 234 255
218 234 255
219 234 255
219 234 255
219 234 255
219 234 255
219 234 255
219 234 255
219 234 255
219 234 255
219 234 255
219 234 255
219 234 255
219 234 255
219 234 255
219 234 255
219 234 255
219 234 255
219 234 255
219 234 255
219 234 255
219 234 255
219 234 255
219 234 255
219 234 255
219 234 255
219 234 255
219 234 255
219 234 255
219 234 255
219 234 255
219 234 255
219 234 255
219 234 255
219 234 255
219 234 255
219 234 255
219 234 255
219 234 255
219 234 255
219 234 255
219 234 255
219 234 255
219 234 255
219 234 255
219 234 255
219 234 255
219 234 255
219 234 255
219 234 255
219 234 255
219 234 255
219 234 255
219 234 255
219 234 255
219 234 255
219 234 255
219 234 255
219 234 255
219 234 255
219 234 255
219 234 255
219 234 255
219 234 255
219 234 255
219 234 255
219 234 255
219 234 255
219 234 255
219 234 255
219 234 255
219 234 255
219 234 255
219 234 255
219 234 255
219 234 255
219 234 255
219 234 255
219 234 255
219 234 255
219 234 255
219 234 255
219 234 255
219 234 255
219 234 255
219 234 255
219 234 255
219 234 255
219 234 255
219 234 255
219 234 255
219 234 255
219 234 255
219 234 255
219 234 255
219 235 255
219 235 255
219 235 255
219 235 255
219 235 255
219 235 255
220 235 255
220 235 255
220 235 255
220 235 255
220 235 255
220 235 255
220 235 255
220 235 255
220 235 255
220 235 255
220 235 255
220 235 255
220 235 255
220 235 255
219 235 255
219 235 255
219 235 255
219 235 255
219 235 255
219 235 255
219 235 255
219 235 255
219 235 255
219 235 255
219 235 255
219 235 255
219 235 255
219 235 255
219 235 255
219 234 255
219 234 255
219 234 255
219 234 255
219 234 255
219 234 255
219 234 255
219 234 255
219 234 255
219 234 255
219 234 255
219 234 255
219 234 255
219 234 255
219 234 255
219 234 255
219 234 255
219 234 255
219 234 255
219 234 255
219 234 255
219 234 255
219 234 255
219 234 255
219 234 255
219 234 255
219 234 255
219 234 255
219 234 255
219 234 255
219 234 255
219 234 255
219 234 255
219 234 255
219 234 255
219 234 255
219 234 255
219 234 255
219 234 255
219 234 255
219 234 255
219 234 255
219 234 255
219 234 255
219 234 255
219 234 255
219 234 255
219 234 255
219 234 255
219 234 255
219 234 255
219 234 255
219 234 255
219 234 255
219 234 255
219 234 255
219 234 255
219 234 255
219 234 255
219 234 255
219 234 255
219 234 255
219 234 255
219 234 255
219 234 255
219 234 255
219 234 255
219 234 255
219 234 255
219 234 255
219 234 255
219 234 255
219 234 255
219 234 255
219 234 255
219 234 255
219 234 255
219 234 255
219 234 255
219 234 255
219 234 255
218 234 255
218 234 255
217 233 255
217 233 255
216 233 255
215 232 255
215 232 255
215 232 255
214 232 255
214 231 255
213 231 255
213 231 255
212 231 255
213 230 254
213 230 254
212 229 252
208 224 249
213 229 253
207 224 247
208 221 249
210 224 252
208 222 248
211 224 252
208 224 247
206 221 246
206 222 245
207 223 246
211 227 251
212 228 252
203 221 241
209 226 248
211 228 250
208 225 246
210 228 249
206 224 245
211 228 250
212 229 252
209 226 248
206 224 245
210 227 249
206 224 244
212 229 252
209 227 249
207 225 245
208 226 246
210 228 249
212 229 252
203 221 241
213 230 252
208 226 246
208 226 248
210 227 249
206 224 245
208 225 246
211 229 250
210 227 249
207 225 246
205 222 243
167 142 232
160 130 229
167 134 235
165 135 233
163 131 234
161 131 230
154 122 223
157 126 227
153 127 219
152 126 219
152 128 218
151 126 218
154 125 220
147 121 212
146 125 210
148 119 215
154 125 219
141 118 201
153 124 216
152 124 216
149 125 210
150 127 212
155 127 218
164 144 222
189 200 234
195 205 244
203 216 251
211 230 255
210 229 254
212 230 255
213 230 255
203 218 248
136 138 208
164 148 220
156 145 216
149 112 214
152 113 217
143 107 203
151 111 211
149 111 214
151 112 214
144 108 204
146 109 207
150 112 216
150 111 214
132 110 209
97 107 196
102 113 205
100 112 200
98 110 195
101 113 200
99 112 199
99 112 197
100 113 198
100 113 198
93 107 186
99 112 196
94 107 187
88 99 172
93 105 180
85 97 170
94 106 184
81 92 157
108 119 172
216 231 253
218 234 255
218 234 255
218 234 255
218 234 255
218 234 255
218 234 255
218 234 255
218 234 255
218 234 255
218 234 255
218 234 255
218 234 255
218 234 255
218 234 255
218 234 255
218 234 255
218 234 255
218 234 255
218 234 255
218 234 255
218 234 255
218 234 255
218 234 255
218 234 255
218 234 255
218 234 255
218 234 255
218 234 255
218 234 255
218 234 255
218 234 255
218 234 255
218 234 255
218 234 255
218 234 255
218 234 255
218 234 255
218 234 255
218 234 255
218 234 255
218 234 255
218 234 255
218 234 255
218 234 255
218 234 255
219 234 255
219 234 255
219 234 255
219 234 255
219 234 255
219 234 255
219 234 255
219 234 255
219 234 255
219 234 255
219 234 255
219 234 255
219 234 255
219 234 255
219 234 255
219 234 255
219 234 255
219 234 255
219 234 255
219 234 255
219 234 255
219 234 255
219 234 255
219 234 255
219 234 255
219 234 255
219 234 255
219 234 255
219 234 255
219 234 255
219 234 255
219 234 255
219 234 255
219 234 255
219 234 255
219 234 255
219 234 255
219 234 255
219 234 255
219 234 255
219 234 255
219 234 255
219 234 255
219 234 255
219 234 255
219 234 255
219 234 255
219 234 255
219 234 255
219 234 255
219 234 255
219 234 255
219 234 255
219 234 255
219 234 255
219 234 255
219 234 255
219 234 255
219 234 255
219 234 255
219 234 255
219 234 255
219 234 255
219 234 255
219 234 255
219 234 255
219 234 255
219 234 255
219 234 255
219 234 255
219 234 255
219 234 255
219 234 255
219 234 255
219 234 255
219 234 255
219 234 255
219 234 255
219 234 255
219 234 255
219 234 255
219 234 255
219 234 255
219 234 255
219 234 255
219 234 255
219 234 255
219 234 255
219 234 255
219 234 255
219 234 255
219 234 255
219 235 255
219 235 255
219 235 255
219 235 255
219 235 255
219 235 255
219 235 255
219 235 255
219 235 255
219 235 255
219 235 255
219 235 255
219 235 255
219 235 255
219 235 255
219 235 255
219 235 255
220 235 255
220 235 255
220 235 255
220 235 255
220 235 255
220 235 255
220 235 255
220 235 255
220 235 255
220 235 255
220 235 255
220 235 255
220 235 255
220 235 255
220 235 255
220 235 255
220 235 255
220 235 255
220 235 255
220 235 255
220 235 255
220 235 255
220 235 255
220 235 255
220 235 255
220 235 255
220 235 255
220 235 255
220 235 255
220 235 255
220 235 255
220 235 255
220 235 255
220 235 255
220 235 255
220 235 255
220 235 255
220 235 255
220 235 255
220 235 255
220 235 255
220 235 255
220 235 255
220 235 255
220 235 255
220 235 255
220 235 255
220 235 255
220 235 255
220 235 255
220 235 255
220 235 255
220 235 255
219 235 255
219 235 255
219 235 255
219 235 255
219 235 255
219 235 255
219 235 255
219 235 255
219 235 255
219 235 255
219 235 255
219 235 255
219 235 255
219 235 255
219 234 255
219 234 255
219 234 255
219 234 255
219 234 255
219 234 255
219 234 255
219 234 255
219 234 255
219 234 255
219 234 255
219 234 255
219 234 255
219 234 255
219 234 255
219 234 255
219 234 255
219 234 255
219 234 255
219 234 255
219 234 255
219 234 255
219 234 255
219 234 255
219 234 255
219 234 255
219 234 255
219 234 255
219 234 255
219 234 255
219 234 255
219 234 255
219 234 255
219 234 255
219 234 255
219 234 255
219 234 255
219 234 255
219 234 255
219 234 255
219 234 255
219 234 255
219 234 255
219 234 255
219 234 255
219 234 255
219 234 255
219 234 255
219 234 255
219 234 255
219 234 255
219 234 255
219 234 255
219 234 255
219 234 255
219 234 255
219 234 255
218 234 255
218 233 255
217 233 255
217 233 255
216 233 255
216 232 255
215 232 255
215 232 255
214 232 255
214 231 255
214 231 255
213 231 255
212 229 253
213 229 253
212 228 250
213 230 252
213 227 254
209 225 249
212 228 253
211 227 250
211 224 251
213 230 253
209 224 248
210 225 249
209 226 248
210 226 249
210 226 250
204 220 242
206 223 244
212 229 250
204 222 241
205 222 242
206 224 244
211 228 249
211 228 250
205 223 242
209 227 248
204 222 242
213 230 252
210 228 249
210 227 249
212 230 252
208 226 246
205 223 242
212 229 250
209 227 248
210 227 248
205 223 242
211 228 249
205 223 242
208 226 246
209 226 248
209 227 248
208 226 246
212 229 250
211 228 249
195 195 244
157 121 223
164 134 231
164 134 229
162 132 229
160 131 227
158 127 226
155 128 224
151 123 216
150 123 215
156 127 224
154 127 222
153 129 214
152 125 216
155 128 219
156 126 226
151 125 217
152 128 213
148 120 211
159 130 225
148 125 206
156 129 221
159 129 221
140 118 196
158 132 218
153 156 212
201 214 246
198 208 246
212 230 255
212 231 255
210 228 254
213 229 255
208 224 251
121 132 197
162 147 218
160 147 217
137 106 200
140 106 200
131 101 188
145 108 206
145 109 206
143 107 203
150 112 215
157 116 223
139 105 198
149 111 213
143 107 202
104 108 196
98 110 199
100 111 202
99 110 196
99 112 199
98 111 195
95 108 190
100 113 198
97 110 192
100 112 196
94 107 184
93 106 184
96 109 187
87 99 171
90 102 177
88 101 172
83 94 160
82 93 160
160 173 203
218 234 255
218 234 255
218 234 255
218 234 255
218 234 255
218 234 255
218 234 255
218 234 255
218 234 255
218 234 255
218 234 255
218 234 255
218 234 255
218 234 255
218 234 255
218 234 255
218 234 255
218 234 255
219 234 255
219 234 255
219 234 255
219 234 255
219 234 255
219 234 255
219 234 255
219 234 255
219 234 255
219 234 255
219 234 255
219 234 255
219 234 255
219 234 255
219 234 255
219 234 255
219 234 255
219 234 255
219 234 255
219 234 255
219 234 255
219 234 255
219 234 255
219 234 255
219 234 255
219 234 255
219 234 255
219 234 255
219 234 255
219 234 255
219 234 255
219 234 255
219 234 255
219 234 255
219 234 255
219 234 255
219 234 255
219 234 255
219 234 255
219 234 255
219 234 255
219 234 255
219 234 255
219 234 255
219 234 255
219 234 255
219 234 255
219 234 255
219 234 255
219 234 255
219 234 255
219 234 255
219 234 255
219 234 255
219 234 255
219 234 255
219 234 255
219 234 255
219 234 255
219 234 255
219 234 255
219 234 255
219 234 255
219 234 255
219 234 255
219 234 255
219 234 255
219 234 255
219 234 255
219 234 255
219 234 255
219 234 255
219 234 255
219 234 255
219 234 255
219 234 255
219 234 255
219 234 255
219 234 255
219 234 255
219 234 255
219 234 255
219 234 255
219 234 255
219 234 255
219 234 255
219 234 255
219 234 255
219 234 255
219 234 255
219 234 255
219 234 255
219 234 255
219 234 255
219 234 255
219 235 255
219 235 255
219 235 255
219 235 255
219 235 255
219 235 255
219 235 255
219 235 255
219 235 255
219 235 255
219 235 255
219 235 255
219 235 255
219 235 255
220 235 255
220 235 255
220 235 255
220 235 255
220 235 255
220 235 255
220 235 255
220 235 255
220 235 255
220 235 255
220 235 255
220 235 255
220 235 255
220 235 255
220 235 255
220 235 255
220 235 255
220 235 255
220 235 255
220 235 255
220 235 255
220 235 255
220 235 255
220 235 255
220 235 255
220 235 255
220 235 255
220 235 255
220 235 255
220 235 255
220 235 255
220 235 255
220 235 255
220 235 255
220 235 255
220 235 255
220 235 255
220 235 255
220 235 255
220 235 255
220 235 255
220 235 255
220 235 255
220 235 255
220 235 255
220 235 255
220 235 255
220 235 255
220 235 255
220 235 255
220 235 255
220 235 255
220 235 255
220 235 255
220 235 255
220 235 255
220 235 255
220 235 255
220 235 255
220 235 255
220 235 255
220 235 255
220 235 255
220 235 255
220 235 255
220 235 255
220 235 255
220 235 255
220 235 255
220 235 255
220 235 255
220 235 255
220 235 255
220 235 255
220 235 255
220 235 255
220 235 255
220 235 255
220 235 255
220 235 255
220 235 255
220 235 255
220 235 255
220 235 255
220 235 255
220 235 255
220 235 255
220 235 255
220 235 255
220 235 255
220 235 255
220 235 255
220 235 255
220 235 255
220 235 255
220 235 255
220 235 255
220 235 255
220 235 255
220 235 255
220 235 255
220 235 255
220 235 255
220 235 255
220 235 255
220 235 255
220 235 255
219 235 255
219 235 255
219 235 255
219 235 255
219 235 255
219 235 255
219 235 255
219 235 255
219 235 255
219 235 255
219 235 255
219 235 255
219 235 255
219 234 255
219 234 255
219 234 255
219 234 255
219 234 255
219 234 255
219 234 255
219 234 255
219 234 255
219 234 255
219 234 255
219 234 255
219 234 255
219 234 255
219 234 255
219 234 255
219 234 255
219 234 255
219 234 255
219 234 255
219 234 255
219 234 255
219 234 255
219 234 255
219 234 255
219 234 255
219 234 255
219 234 255
219 234 255
219 234 255
219 234 255
218 234 255
218 234 255
217 233 255
217 233 255
217 233 255
216 233 255
216 232 255
215 232 255
215 232 255
215 232 255
214 232 255
215 232 255
216 233 255
216 233 255
215 231 255
214 229 253
214 229 253
209 225 249
212 226 252
212 224 253
207 221 247
213 229 253
211 225 251
213 227 252
210 226 249
210 225 248
208 224 246
201 218 237
211 228 249
214 230 252
213 230 252
207 224 244
212 229 250
208 225 245
209 226 246
205 222 241
213 229 250
214 230 252
205 223 242
204 222 241
210 227 248
212 229 250
213 230 252
211 228 249
206 223 242
209 226 246
209 227 248
203 221 240
207 224 244
206 224 244
212 229 250
210 228 249
208 225 245
207 224 244
210 227 248
210 227 249
171 147 233
166 137 232
157 129 222
159 131 223
163 130 230
159 129 226
159 130 226
150 124 215
156 126 223
155 125 221
156 129 221
154 128 215
150 127 214
147 121 209
157 131 222
145 120 206
144 119 204
163 135 228
145 120 205
155 133 213
147 125 207
150 128 210
151 126 210
150 127 211
154 132 212
142 124 209
173 180 229
188 192 238
212 229 255
212 230 255
212 229 255
212 229 254
209 223 252
121 133 200
157 136 218
171 148 231
140 111 208
146 109 207
146 109 206
144 109 207
153 113 215
142 107 201
141 106 198
146 109 208
140 106 200
152 113 220
146 109 207
114 102 192
95 106 193
99 110 198
94 105 188
100 113 197
100 113 198
98 110 193
100 114 197
99 112 193
93 106 182
98 111 191
90 103 175
92 104 177
93 105 180
88 100 171
91 103 176
88 100 171
86 97 165
99 109 159
208 223 246
219 234 255
219 234 255
219 234 255
219 234 255
219 234 255
219 234 255
219 234 255
219 234 255
219 234 255
219 234 255
219 234 255
219 234 255
219 234 255
219 234 255
219 234 255
219 234 255
219 234 255
219 234 255
219 234 255
219 234 255
219 234 255
219 234 255
219 234 255
219 234 255
219 234 255
219 234 255
219 234 255
219 234 255
219 234 255
219 234 255
219 234 255
219 234 255
219 234 255
219 234 255
219 234 255
219 234 255
219 234 255
219 234 255
219 234 255
219 234 255
219 234 255
219 234 255
219 234 255
219 234 255
219 234 255
219 234 255
219 234 255
219 234 255
219 234 255
219 234 255
219 234 255
219 234 255
219 234 255
219 234 255
219 234 255
219 234 255
219 234 255
219 234 255
219 234 255
219 234 255
219 234 255
219 234 255
219 234 255
219 234 255
219 234 255
219 234 255
219 234 255
219 234 255
219 234 255
219 234 255
219 234 255
219 234 255
219 234 255
219 234 255
219 234 255
219 234 255
219 234 255
219 234 255
219 234 255
219 234 255
219 234 255
219 234 255
219 234 255
219 234 255
219 235 255
219 235 255
219 235 255
219 235 255
219 235 255
219 235 255
219 235 255
219 235 255
219 235 255
219 235 255
219 235 255
219 235 255
219 235 255
219 235 255
220 235 255
220 235 255
220 235 255
220 235 255
220 235 255
220 235 255
220 235 255
220 235 255
220 235 255
220 235 255
220 235 255
220 235 255
220 235 255
220 235 255
220 235 255
220 235 255
220 235 255
220 235 255
220 235 255
220 235 255
220 235 255
220 235 255
220 235 255
220 235 255
220 235 255
220 235 255
220 235 255
220 235 255
220 235 255
220 235 255
220 235 255
220 235 255
220 235 255
220 235 255
220 235 255
220 235 255
220 235 255
220 235 255
220 235 255
220 235 255
220 235 255
220 235 255
220 235 255
220 235 255
220 235 255
220 235 255
220 235 255
220 235 255
220 235 255
220 235 255
220 235 255
220 235 255
220 235 255
220 235 255
220 235 255
220 235 255
220 235 255
220 235 255
220 235 255
220 235 255
220 235 255
220 235 255
220 235 255
220 235 255
220 235 255
220 235 255
220 235 255
220 235 255
220 235 255
220 235 255
220 235 255
220 235 255
220 235 255
220 235 255
220 235 255
220 235 255
220 235 255
220 235 255
220 235 255
220 235 255
220 235 255
220 235 255
220 235 255
220 235 255
220 235 255
220 235 255
220 235 255
220 235 255
220 235 255
220 235 255
220 235 255
220 235 255
220 235 255
220 235 255
220 235 255
220 235 255
220 235 255
220 235 255
220 235 255
220 235 255
220 235 255
220 235 255
220 235 255
220 235 255
220 235 255
220 235 255
220 235 255
220 235 255
220 235 255
220 235 255
220 235 255
220 235 255
220 235 255
220 235 255
220 235 255
220 235 255
220 235 255
220 235 255
220 235 255
220 235 255
220 235 255
220 235 255
220 235 255
220 235 255
220 235 255
220 235 255
220 235 255
220 235 255
220 235 255
220 235 255
220 235 255
220 235 255
220 235 255
220 235 255
220 235 255
220 235 255
220 235 255
220 235 255
220 235 255
220 235 255
220 235 255
220 235 255
220 235 255
220 235 255
220 235 255
220 235 255
220 235 255
220 235 255
220 235 255
220 235 255
220 235 255
220 235 255
220 235 255
220 235 255
220 235 255
220 235 255
220 235 255
220 235 255
220 235 255
220 235 255
220 235 255
220 235 255
220 235 255
220 235 255
219 235 255
220 235 255
219 235 255
219 235 255
219 235 255
219 235 255
219 235 255
219 235 255
219 235 255
219 235 255
219 235 255
219 235 255
219 235 255
219 235 255
219 234 255
219 234 255
218 234 255
218 234 255
217 233 255
217 233 255
217 233 255
216 233 255
216 233 255
216 232 255
215 232 255
215 232 255
215 232 255
217 233 255
216 232 255
215 231 254
213 228 252
214 229 253
213 227 252
214 229 254
212 225 252
214 229 253
212 227 251
215 230 254
215 230 254
213 229 250
210 225 247
211 227 249
211 227 248
208 225 245
213 229 250
209 226 246
214 230 252
209 226 246
213 229 250
211 228 248
202 220 237
204 222 241
210 227 246
210 227 246
209 226 246
214 230 252
212 229 249
207 224 244
211 228 248
213 230 250
213 230 250
209 226 246
209 226 246
207 224 244
213 229 250
216 232 254
208 225 245
212 228 249
214 230 252
213 229 250
200 207 243
162 132 226
163 130 230
163 132 228
160 127 226
163 131 229
159 121 227
158 121 226
159 130 225
157 134 220
152 121 216
152 124 218
153 123 216
160 131 225
148 121 212
150 125 214
148 123 208
148 114 214
139 112 199
156 130 217
156 129 219
144 116 205
138 120 192
155 127 214
145 119 203
147 120 205
150 122 211
131 135 195
191 200 237
203 217 246
214 232 255
213 230 254
212 227 253
212 227 252
125 136 194
157 142 219
171 159 223
135 110 201
139 105 198
143 108 206
146 109 206
149 111 210
142 107 204
141 106 200
150 112 213
137 104 195
139 105 197
134 102 191
141 110 208
97 106 197
98 109 197
98 108 198
98 108 197
94 107 186
97 109 189
95 108 187
97 110 190
97 110 189
92 106 181
98 111 189
96 109 185
89 102 175
95 108 184
86 98 167
89 101 174
83 95 160
78 89 151
168 181 208
219 234 255
219 234 255
219 234 255
219 234 255
219 234 255
219 234 255
219 234 255
219 234 255
219 234 255
219 234 255
219 234 255
219 234 255
219 234 255
219 234 255
219 234 255
219 234 255
219 234 255
219 234 255
219 234 255
219 234 255
219 234 255
219 234 255
219 234 255
219 234 255
219 234 255
219 234 255
219 234 255
219 234 255
219 234 255
219 234 255
219 234 255
219 234 255
219 234 255
219 234 255
219 234 255
219 234 255
219 234 255
219 234 255
219 234 255
219 234 255
219 234 255
219 234 255
219 234 255
219 234 255
219 234 255
219 234 255
219 234 255
219 234 255
219 234 255
219 234 255
219 234 255
219 234 255
219 234 255
219 234 255
219 234 255
219 235 255
219 235 255
219 235 255
219 235 255
219 235 255
219 235 255
219 235 255
219 235 255
219 235 255
219 235 255
219 235 255
219 235 255
219 235 255
219 235 255
220 235 255
220 235 255
220 235 255
220 235 255
220 235 255
220 235 255
220 235 255
220 235 255
220 235 255
220 235 255
220 235 255
220 235 255
220 235 255
220 235 255
220 235 255
220 235 255
220 235 255
220 235 255
220 235 255
220 235 255
220 235 255
220 235 255
220 235 255
220 235 255
220 235 255
220 235 255
220 235 255
220 235 255
220 235 255
220 235 255
220 235 255
220 235 255
220 235 255
220 235 255
220 235 255
220 235 255
220 235 255
220 235 255
220 235 255
220 235 255
220 235 255
220 235 255
220 235 255
220 235 255
220 235 255
220 235 255
220 235 255
220 235 255
220 235 255
220 235 255
220 235 255
220 235 255
220 235 255
220 235 255
220 235 255
220 235 255
220 235 255
220 235 255
220 235 255
220 235 255
220 235 255
220 235 255
220 235 255
220 235 255
220 235 255
220 235 255
220 235 255
220 235 255
220 235 255
220 235 255
220 235 255
220 235 255
220 235 255
220 235 255
220 235 255
220 235 255
220 235 255
220 235 255
220 235 255
220 235 255
220 235 255
220 235 255
220 235 255
220 235 255
220 235 255
220 235 255
220 235 255
220 235 255
220 235 255
220 235 255
220 235 255
220 235 255
220 235 255
220 235 255
220 235 255
220 235 255
220 235 255
220 235 255
220 235 255
220 235 255
220 235 255
220 235 255
220 235 255
220 235 255
220 235 255
220 235 255
220 235 255
220 235 255
220 235 255
220 235 255
220 235 255
220 235 255
220 235 255
220 235 255
220 235 255
220 235 255
220 235 255
220 235 255
220 235 255
220 235 255
220 235 255
220 235 255
220 235 255
220 235 255
220 235 255
220 235 255
220 235 255
220 235 255
220 235 255
220 235 255
220 235 255
220 235 255
220 235 255
220 235 255
220 235 255
220 235 255
220 235 255
220 235 255
220 235 255
220 235 255
220 235 255
220 235 255
220 235 255
220 235 255
220 235 255
220 235 255
220 235 255
220 235 255
220 235 255
220 235 255
220 235 255
220 235 255
220 235 255
220 235 255
220 235 255
220 235 255
220 235 255
220 235 255
220 235 255
220 235 255
220 235 255
220 235 255
220 235 255
220 235 255
220 235 255
220 235 255
220 235 255
220 235 255
220 235 255
220 235 255
220 235 255
220 235 255
220 235 255
220 235 255
220 235 255
220 235 255
220 235 255
220 235 255
220 235 255
220 235 255
220 235 255
220 235 255
220 235 255
220 235 255
220 235 255
220 235 255
220 235 255
220 235 255
220 235 255
220 235 255
220 235 255
220 235 255
220 235 255
220 235 255
220 235 255
220 235 255
220 235 255
220 235 255
220 235 255
220 235 255
220 235 255
220 235 255
220 235 255
220 235 255
220 235 255
220 235 255
220 235 255
219 235 255
219 234 255
219 234 255
218 234 255
218 234 255
218 233 255
217 233 255
217 233 255
217 233 255
216 233 255
216 233 255
216 233 255
213 227 252
217 232 255
216 230 255
215 230 254
215 230 253
217 232 255
214 228 252
214 229 253
215 228 255
212 227 250
210 224 250
213 228 251
214 229 252
213 228 251
213 228 251
212 227 249
211 227 248
207 223 242
204 222 240
209 225 245
213 229 249
212 229 249
212 229 249
210 227 246
212 229 249
208 225 244
216 232 254
201 219 236
211 228 248
210 227 246
209 226 245
210 227 246
210 227 246
211 228 248
211 228 248
212 229 249
206 224 242
212 229 249
210 227 246
213 230 250
210 227 246
212 229 249
209 226 245
207 225 244
192 187 242
161 130 227
162 131 225
158 129 219
159 128 223
147 120 210
151 126 212
156 126 220
149 125 209
155 130 216
155 131 216
147 116 210
147 120 207
157 129 220
145 119 205
152 127 215
146 120 207
143 122 201
145 123 204
158 127 222
150 123 212
150 123 214
151 122 211
143 119 199
145 121 202
158 139 213
148 119 205
127 122 196
180 184 228
195 207 239
215 232 255
215 231 255
214 229 255
213 227 253
121 133 192
158 145 221
165 151 219
139 122 200
140 106 197
142 107 200
149 111 210
129 99 180
144 108 203
141 106 198
142 107 201
136 103 192
139 105 198
144 108 203
141 107 205
98 106 193
95 102 191
97 107 194
97 107 193
93 105 185
96 108 187
98 110 193
97 108 186
94 107 182
97 110 189
98 110 187
93 106 180
92 104 177
85 98 165
89 101 170
86 98 164
73 84 142
84 95 160
114 125 166
219 234 255
219 234 255
219 234 255
219 234 255
219 234 255
219 234 255
219 234 255
219 234 255
219 234 255
219 234 255
219 234 255
219 234 255
219 234 255
219 234 255
219 235 255
219 235 255
219 235 255
219 235 255
219 235 255
219 235 255
219 235 255
219 235 255
219 235 255
219 235 255
219 235 255
219 235 255
219 235 255
219 235 255
219 235 255
219 235 255
219 235 255
220 235 255
220 235 255
220 235 255
220 235 255
220 235 255
220 235 255
220 235 255
220 235 255
220 235 255
220 235 255
220 235 255
220 235 255
220 235 255
220 235 255
220 235 255
220 235 255
220 235 255
220 235 255
220 235 255
220 235 255
220 235 255
220 235 255
220 235 255
220 235 255
220 235 255
220 235 255
220 235 255
220 235 255
220 235 255
220 235 255
220 235 255
220 235 255
220 235 255
220 235 255
220 235 255
220 235 255
220 235 255
220 235 255
220 235 255
220 235 255
220 235 255
220 235 255
220 235 255
220 235 255
220 235 255
220 235 255
220 235 255
220 235 255
220 235 255
220 235 255
220 235 255
220 235 255
220 235 255
220 235 255
220 235 255
220 235 255
220 235 255
220 235 255
220 235 255
220 235 255
220 235 255
220 235 255
220 235 255
220 235 255
220 235 255
220 235 255
220 235 255
220 235 255
220 235 255
220 235 255
220 235 255
220 235 255
220 235 255
220 235 255
220 235 255
220 235 255
220 235 255
220 235 255
220 235 255
220 235 255
220 235 255
220 235 255
220 235 255
220 235 255
220 235 255
220 235 255
220 235 255
220 235 255
220 235 255
220 235 255
220 235 255
220 235 255
220 235 255
220 235 255
220 235 255
220 235 255
220 235 255
220 235 255
220 235 255
220 235 255
220 235 255
220 235 255
220 235 255
220 235 255
220 235 255
220 235 255
220 235 255
220 235 255
220 235 255
220 235 255
220 235 255
220 235 255
220 235 255
220 235 255
220 235 255
220 235 255
220 235 255
220 235 255
220 235 255
220 235 255
220 235 255
220 235 255
220 235 255
220 235 255
220 235 255
220 235 255
220 235 255
220 235 255
220 235 255
220 235 255
220 235 255
220 235 255
220 235 255
220 235 255
220 235 255
220 235 255
220 235 255
220 235 255
220 235 255
220 235 255
220 235 255
220 235 255
220 235 255
220 235 255
220 235 255
220 235 255
220 235 255
220 235 255
220 235 255
220 235 255
220 235 255
220 235 255
220 235 255
220 235 255
220 235 255
220 235 255
220 235 255
220 235 255
220 235 255
220 235 255
220 235 255
220 235 255
220 235 255
220 235 255
220 235 255
220 235 255
220 235 255
220 235 255
220 235 255
220 235 255
220 235 255
220 235 255
220 235 255
220 235 255
220 235 255
220 235 255
220 235 255
220 235 255
220 235 255
220 235 255
220 235 255
220 235 255
220 235 255
220 235 255
220 235 255
220 235 255
220 235 255
220 235 255
220 235 255
220 235 255
220 235 255
220 235 255
220 235 255
220 235 255
220 235 255
220 235 255
220 235 255
220 235 255
220 235 255
220 235 255
220 235 255
220 235 255
220 235 255
220 235 255
220 235 255
220 235 255
220 235 255
220 235 255
220 235 255
220 235 255
220 235 255
220 235 255
220 235 255
220 235 255
220 235 255
220 235 255
220 235 255
220 235 255
220 235 255
220 235 255
220 235 255
220 235 255
220 235 255
220 235 255
220 235 255
220 235 255
220 235 255
220 235 255
220 235 255
220 235 255
220 235 255
220 235 255
220 235 255
220 235 255
220 235 255
220 235 255
220 235 255
220 235 255
220 235 255
220 235 255
220 235 255
220 235 255
220 235 255
220 235 255
220 235 255
220 235 255
219 234 255
219 234 255
219 234 255
218 234 255
218 234 255
218 234 255
218 234 255
217 233 255
217 233 255
217 233 255
217 233 255
218 234 255
217 232 255
215 230 253
219 234 255
216 229 254
214 228 251
214 227 252
213 225 252
215 229 254
212 226 250
213 227 251
215 229 253
216 230 255
211 225 248
213 228 249
214 229 251
213 228 249
212 228 248
214 230 250
214 230 250
208 225 244
213 229 249
210 226 245
212 228 248
210 226 245
211 227 246
207 224 242
211 227 246
216 232 253
207 224 242
207 224 242
213 229 249
208 225 244
212 228 248
214 230 250
209 226 245
214 230 250
213 229 249
211 227 246
209 226 245
214 230 250
210 227 246
208 225 244
209 226 245
170 150 228
164 128 228
159 127 220
154 118 214
161 132 222
152 121 217
154 126 214
151 118 216
163 132 230
153 126 214
155 130 218
149 124 206
155 126 216
143 115 200
144 124 202
143 119 201
139 117 197
148 120 206
149 123 207
159 126 222
154 129 216
146 119 202
142 119 198
143 114 203
146 125 203
157 137 210
159 135 216
140 127 203
154 156 214
200 209 243
215 231 254
212 228 253
214 228 255
215 229 254
141 151 205
143 136 206
168 144 225
152 126 218
140 105 198
145 109 206
142 107 201
142 107 201
135 102 189
140 105 197
149 110 208
136 103 192
135 103 189
140 106 198
131 100 183
104 101 191
90 98 180
93 102 188
95 106 189
98 110 196
90 103 179
90 102 178
100 112 192
93 107 181
94 108 186
96 109 185
91 104 176
90 103 175
86 99 165
83 96 158
82 94 157
83 95 160
76 88 146
79 90 151
202 216 240
220 235 255
220 235 255
220 235 255
220 235 255
220 235 255
220 235 255
220 235 255
220 235 255
220 235 255
220 235 255
220 235 255
220 235 255
220 235 255
220 235 255
220 235 255
220 235 255
220 235 255
220 235 255
220 235 255
220 235 255
220 235 255
220 235 255
220 235 255
220 235 255
220 235 255
220 235 255
220 235 255
220 235 255
220 235 255
220 235 255
220 235 255
220 235 255
220 235 255
220 235 255
220 235 255
220 235 255
220 235 255
220 235 255
220 235 255
220 235 255
220 235 255
220 235 255
220 235 255
220 235 255
220 235 255
220 235 255
220 235 255
220 235 255
220 235 255
220 235 255
220 235 255
220 235 255
220 235 255
220 235 255
220 235 255
220 235 255
220 235 255
220 235 255
220 235 255
220 235 255
220 235 255
220 235 255
220 235 255
220 235 255
220 235 255
220 235 255
220 235 255
220 235 255
220 235 255
220 235 255
220 235 255
220 235 255
220 235 255
220 235 255
220 235 255
220 235 255
220 235 255
220 235 255
220 235 255
220 235 255
220 235 255
220 235 255
220 235 255
220 235 255
220 235 255
220 235 255
220 235 255
220 235 255
220 235 255
220 235 255
220 235 255
220 235 255
220 235 255
220 235 255
220 235 255
220 235 255
220 235 255
220 235 255
220 235 255
220 235 255
220 235 255
220 235 255
220 235 255
220 235 255
220 235 255
220 235 255
220 235 255
220 235 255
220 235 255
220 235 255
220 235 255
220 235 255
220 235 255
220 235 255
220 235 255
220 235 255
220 235 255
220 235 255
220 235 255
220 235 255
220 235 255
220 235 255
220 235 255
220 235 255
220 235 255
220 235 255
220 235 255
220 235 255
220 235 255
220 235 255
220 235 255
220 235 255
220 235 255
220 235 255
220 235 255
220 235 255
220 235 255
220 235 255
220 235 255
220 235 255
220 235 255
220 235 255
220 235 255
220 235 255
220 235 255
220 235 255
220 235 255
220 235 255
220 235 255
220 235 255
220 235 255
220 235 255
220 235 255
220 235 255
220 235 255
220 235 255
220 235 255
220 235 255
220 235 255
220 235 255
220 235 255
220 235 255
220 235 255
220 235 255
220 235 255
221 235 255
221 235 255
221 235 255
221 235 255
221 235 255
221 235 255
221 235 255
221 235 255
221 235 255
221 235 255
221 235 255
221 235 255
221 235 255
221 235 255
221 235 255
221 235 255
221 235 255
221 235 255
221 235 255
221 235 255
220 235 255
221 235 255
221 235 255
221 235 255
221 235 255
220 235 255
220 235 255
220 235 255
220 235 255
220 235 255
220 235 255
220 235 255
220 235 255
220 235 255
220 235 255
220 235 255
220 235 255
220 235 255
220 235 255
220 235 255
220 235 255
220 235 255
220 235 255
220 235 255
220 235 255
220 235 255
220 235 255
220 235 255
220 235 255
220 235 255
220 235 255
220 235 255
220 235 255
220 235 255
220 235 255
220 235 255
220 235 255
220 235 255
220 235 255
220 235 255
220 235 255
220 235 255
220 235 255
220 235 255
220 235 255
220 235 255
220 235 255
220 235 255
220 235 255
220 235 255
220 235 255
220 235 255
220 235 255
220 235 255
220 235 255
220 235 255
220 235 255
220 235 255
220 235 255
220 235 255
220 235 255
220 235 255
220 235 255
220 235 255
220 235 255
220 235 255
220 235 255
220 235 255
220 235 255
220 235 255
220 235 255
220 235 255
220 235 255
220 235 255
220 235 255
220 235 255
220 235 255
220 235 255
220 235 255
220 235 255
220 235 255
220 235 255
220 235 255
220 235 255
220 235 255
220 235 255
220 235 255
220 235 255
220 235 255
220 235 255
220 235 255
220 235 255
219 235 255
219 234 255
219 234 255
219 234 255
219 234 255
218 234 255
218 234 255
218 234 255
218 234 255
218 234 255
218 233 255
218 233 255
217 232 254
217 231 254
216 230 253
213 226 251
213 227 250
214 227 251
214 227 252
215 228 253
216 231 253
215 229 252
214 228 250
216 229 254
209 225 245
213 227 250
213 229 249
212 228 248
210 226 245
209 225 244
212 228 248
211 227 246
209 225 244
206 223 241
209 225 244
215 230 250
213 229 249
212 228 248
216 231 252
217 232 253
210 226 245
211 227 246
211 227 246
212 228 248
207 223 241
213 229 249
208 225 244
216 231 252
212 228 248
214 230 250
207 224 242
208 224 242
212 228 248
208 220 247
159 128 219
168 129 233
161 131 221
165 130 227
163 128 228
158 123 217
148 120 208
157 123 221
145 114 204
155 129 212
157 134 216
143 118 202
148 123 207
150 120 210
149 119 206
151 129 207
159 131 220
149 127 206
149 124 207
147 122 204
145 126 200
143 120 199
143 120 198
153 130 212
158 133 215
162 136 217
149 126 203
148 131 211
139 145 195
195 202 240
215 231 254
215 231 254
214 230 252
217 232 254
142 152 197
130 131 194
163 145 213
145 132 202
142 107 201
149 111 210
145 108 203
140 106 198
140 105 198
130 100 184
134 103 191
142 106 200
147 109 207
141 106 198
147 109 207
116 104 189
87 96 174
87 98 175
91 100 181
93 104 182
93 104 180
93 105 178
95 107 183
96 108 185
95 109 184
93 106 179
95 109 184
92 105 176
91 104 175
86 100 167
87 99 165
83 96 160
76 88 143
69 80 132
170 183 211
220 235 255
220 235 255
220 235 255
220 235 255
220 235 255
220 235 255
220 235 255
220 235 255
220 235 255
220 235 255
220 235 255
220 235 255
220 235 255
220 235 255
220 235 255
220 235 255
220 235 255
220 235 255
220 235 255
220 235 255
220 235 255
220 235 255
220 235 255
220 235 255
220 235 255
220 235 255
220 235 255
220 235 255
220 235 255
220 235 255
220 235 255
220 235 255
220 235 255
220 235 255
220 235 255
220 235 255
220 235 255
220 235 255
220 235 255
220 235 255
220 235 255
220 235 255
220 235 255
220 235 255
220 235 255
220 235 255
220 235 255
220 235 255
220 235 255
220 235 255
220 235 255
220 235 255
220 235 255
220 235 255
220 235 255
220 235 255
220 235 255
220 235 255
220 235 255
220 235 255
220 235 255
220 235 255
220 235 255
220 235 255
220 235 255
220 235 255
220 235 255
220 235 255
220 235 255
220 235 255
220 235 255
220 235 255
220 235 255
220 235 255
220 235 255
220 235 255
220 235 255
220 235 255
220 235 255
220 235 255
220 235 255
220 235 255
220 235 255
220 235 255
220 235 255
220 235 255
220 235 255
220 235 255
220 235 255
220 235 255
220 235 255
220 235 255
220 235 255
220 235 255
220 235 255
220 235 255
220 235 255
220 235 255
220 235 255
220 235 255
220 235 255
220 235 255
220 235 255
220 235 255
220 235 255
220 235 255
220 235 255
220 235 255
220 235 255
220 235 255
220 235 255
220 235 255
220 235 255
220 235 255
220 235 255
220 235 255
220 235 255
220 235 255
220 235 255
220 235 255
220 235 255
220 235 255
220 235 255
220 235 255
220 235 255
220 235 255
220 235 255
220 235 255
220 235 255
220 235 255
220 235 255
220 235 255
220 235 255
220 235 255
220 235 255
220 235 255
220 235 255
220 235 255
220 235 255
220 235 255
220 235 255
221 235 255
221 235 255
221 235 255
221 235 255
221 235 255
221 235 255
221 235 255
221 235 255
221 235 255
221 235 255
221 235 255
221 235 255
221 235 255
221 235 255
221 235 255
221 235 255
221 235 255
221 235 255
221 235 255
221 235 255
221 235 255
221 235 255
221 235 255
221 235 255
221 235 255
221 235 255
221 235 255
221 235 255
221 235 255
221 235 255
221 235 255
221 235 255
221 235 255
221 235 255
221 235 255
221 235 255
221 235 255
221 235 255
221 235 255
221 235 255
221 235 255
221 235 255
221 235 255
221 235 255
221 235 255
221 235 255
221 235 255
221 235 255
221 235 255
221 235 255
221 235 255
221 235 255
221 235 255
221 235 255
221 235 255
221 235 255
221 235 255
221 235 255
221 235 255
221 235 255
221 235 255
221 235 255
221 235 255
221 235 255
221 235 255
221 235 255
221 235 255
221 235 255
221 235 255
221 235 255
221 235 255
221 235 255
221 235 255
221 235 255
221 235 255
221 235 255
221 235 255
221 235 255
221 235 255
221 235 255
221 235 255
221 235 255
221 235 255
221 235 255
221 235 255
221 235 255
221 235 255
221 235 255
221 235 255
221 235 255
221 235 255
221 235 255
221 235 255
221 235 255
221 235 255
221 235 255
221 235 255
221 235 255
221 235 255
221 235 255
221 235 255
221 235 255
221 235 255
221 235 255
221 235 255
221 235 255
221 235 255
221 235 255
221 235 255
220 235 255
221 235 255
221 235 255
220 235 255
220 235 255
220 235 255
220 235 255
220 235 255
220 235 255
220 235 255
220 235 255
220 235 255
220 235 255
220 235 255
220 235 255
220 235 255
220 235 255
220 235 255
220 235 255
220 235 255
220 235 255
220 235 255
220 235 255
221 235 255
220 235 255
220 235 255
220 235 255
220 235 255
220 235 255
220 235 255
219 235 255
219 234 255
219 234 255
219 234 255
219 234 255
219 234 255
219 234 255
218 231 255
218 232 254
217 229 255
219 235 255
219 233 255
216 229 252
215 225 253
217 229 255
209 222 246
215 227 253
214 225 251
215 228 252
215 229 251
214 228 251
216 230 253
210 225 245
211 227 245
212 228 246
212 228 246
212 228 246
207 224 241
212 228 246
206 223 240
215 231 250
217 233 253
212 228 246
208 225 242
211 227 245
215 231 250
212 228 246
218 234 254
211 227 245
212 228 246
216 232 252
214 230 249
214 230 249
213 229 248
213 229 248
210 227 245
213 229 248
210 226 244
214 230 249
208 224 242
197 206 236
169 141 228
163 126 222
159 128 218
160 129 219
168 142 227
151 123 211
159 126 219
164 135 226
160 130 218
155 126 212
159 128 219
159 132 219
151 126 207
152 120 214
147 118 207
153 125 211
147 116 207
144 123 197
144 118 202
150 125 207
150 129 204
146 123 200
150 124 206
149 124 203
163 139 220
151 133 202
161 135 217
148 123 206
132 138 197
186 188 231
216 232 254
217 232 255
215 229 253
217 231 255
140 151 195
138 138 195
169 151 219
140 127 197
136 103 193
132 101 186
144 108 204
132 101 186
125 97 175
137 104 194
128 99 184
133 102 189
132 101 186
138 105 197
142 106 197
112 95 173
83 93 169
88 98 173
90 101 177
90 100 176
95 107 183
88 100 171
91 104 173
88 100 169
89 102 170
85 98 163
89 102 170
90 103 172
84 97 160
89 101 172
83 96 155
83 95 158
75 88 145
67 78 128
146 158 189
220 235 255
220 235 255
220 235 255
220 235 255
220 235 255
220 235 255
220 235 255
220 235 255
220 235 255
220 235 255
220 235 255
220 235 255
220 235 255
220 235 255
220 235 255
220 235 255
220 235 255
220 235 255
220 235 255
220 235 255
220 235 255
220 235 255
220 235 255
220 235 255
220 235 255
220 235 255
220 235 255
220 235 255
220 235 255
220 235 255
220 235 255
220 235 255
220 235 255
220 235 255
220 235 255
220 235 255
220 235 255
220 235 255
220 235 255
220 235 255
220 235 255
220 235 255
220 235 255
220 235 255
220 235 255
220 235 255
220 235 255
220 235 255
220 235 255
220 235 255
220 235 255
220 235 255
220 235 255
220 235 255
220 235 255
220 235 255
220 235 255
220 235 255
220 235 255
220 235 255
220 235 255
220 235 255
220 235 255
220 235 255
220 235 255
220 235 255
220 235 255
220 235 255
220 235 255
220 235 255
220 235 255
220 235 255
220 235 255
220 235 255
220 235 255
221 235 255
220 235 255
220 235 255
221 235 255
221 235 255
221 235 255
221 235 255
221 235 255
221 235 255
221 235 255
221 235 255
221 235 255
221 235 255
221 235 255
221 235 255
221 235 255
221 235 255
221 235 255
221 235 255
221 235 255
221 235 255
221 235 255
221 235 255
221 235 255
221 235 255
221 235 255
221 235 255
221 235 255
221 235 255
221 235 255
221 235 255
221 235 255
221 235 255
221 235 255
221 235 255
221 235 255
221 235 255
221 235 255
221 235 255
221 235 255
221 235 255
221 235 255
221 235 255
221 235 255
221 235 255
221 235 255
221 235 255
221 235 255
221 235 255
221 235 255
221 235 255
221 235 255
221 235 255
221 235 255
221 235 255
221 235 255
221 235 255
221 235 255
221 235 255
221 235 255
221 235 255
221 235 255
221 235 255
221 235 255
221 235 255
221 235 255
221 235 255
221 235 255
221 235 255
221 235 255
221 235 255
221 235 255
221 235 255
221 235 255
221 235 255
221 235 255
221 235 255
221 235 255
221 235 255
221 235 255
221 235 255
221 235 255
221 235 255
221 235 255
221 235 255
221 235 255
221 235 255
221 235 255
221 235 255
221 235 255
221 235 255
221 235 255
221 235 255
221 235 255
221 235 255
221 235 255
221 235 255
221 235 255
221 235 255
221 235 255
221 235 255
221 235 255
221 235 255
221 235 255
221 235 255
221 235 255
221 235 255
221 235 255
221 235 255
221 235 255
221 235 255
221 235 255
221 235 255
221 235 255
221 235 255
221 235 255
221 235 255
221 235 255
221 235 255
221 235 255
221 235 255
221 235 255
221 235 255
221 235 255
221 235 255
221 235 255
221 235 255
221 235 255
221 235 255
221 235 255
221 235 255
221 235 255
221 235 255
221 235 255
221 235 255
221 235 255
221 235 255
221 235 255
221 235 255
221 235 255
221 235 255
221 235 255
221 235 255
221 235 255
221 235 255
221 235 255
221 235 255
221 235 255
221 235 255
221 235 255
221 235 255
221 235 255
221 235 255
221 235 255
221 235 255
221 235 255
221 235 255
221 235 255
221 235 255
221 235 255
221 235 255
221 235 255
221 235 255
221 235 255
221 235 255
221 235 255
221 235 255
221 235 255
221 235 255
221 235 255
221 235 255
221 235 255
221 235 255
221 235 255
221 235 255
221 235 255
221 235 255
221 235 255
221 235 255
221 235 255
221 235 255
221 235 255
221 235 255
221 235 255
221 235 255
221 235 255
221 235 255
221 235 255
221 235 255
221 235 255
221 235 255
221 235 255
221 235 255
221 235 255
221 235 255
221 235 255
221 235 255
221 235 255
221 235 255
221 235 255
220 235 255
220 235 255
220 235 255
220 235 255
220 235 255
220 235 255
220 235 255
220 235 255
220 235 255
220 235 255
220 235 255
219 234 254
218 231 254
218 232 254
219 233 255
219 233 255
215 228 252
217 229 253
216 228 253
215 226 253
215 227 252
216 228 252
214 227 250
218 230 255
216 229 252
217 231 252
218 232 254
215 230 250
218 233 253
219 234 254
217 232 252
218 233 253
216 231 250
215 230 249
216 231 250
212 228 246
213 229 248
208 224 241
207 223 240
215 230 249
211 227 245
213 229 248
214 230 249
216 231 250
216 231 250
209 225 242
211 227 245
213 229 248
214 230 249
213 229 248
214 230 249
216 231 250
211 227 245
217 232 252
212 228 246
192 197 232
158 131 213
163 129 223
155 119 216
161 126 220
153 123 209
171 143 231
161 129 220
150 122 206
159 134 215
158 124 219
152 123 208
153 125 208
153 128 210
154 126 210
156 135 208
151 120 209
147 124 200
158 133 216
157 131 213
149 124 201
155 139 206
161 136 216
158 135 212
154 137 201
144 124 194
149 134 195
155 137 206
151 132 204
118 117 183
190 192 235
216 231 253
215 230 252
216 230 254
218 232 255
146 157 198
127 123 190
160 143 210
128 117 175
134 103 190
149 111 210
124 95 173
135 103 191
135 102 189
137 103 191
135 103 191
140 106 197
137 104 194
114 91 161
145 108 202
114 94 173
83 91 165
86 95 170
82 90 165
87 98 169
89 101 172
83 96 162
87 101 167
87 101 167
89 103 169
86 100 164
85 99 163
83 96 157
86 98 163
77 90 145
85 98 163
76 89 143
70 82 133
78 89 146
119 130 165
221 235 255
221 235 255
221 235 255
221 235 255
221 235 255
221 235 255
221 235 255
221 235 255
221 235 255
221 235 255
221 235 255
221 235 255
221 235 255
221 235 255
221 235 255
221 235 255
221 235 255
221 235 255
221 235 255
221 235 255
221 235 255
221 235 255
221 235 255
221 235 255
221 235 255
221 235 255
221 235 255
221 235 255
221 235 255
221 235 255
221 235 255
221 235 255
221 235 255
221 235 255
221 235 255
221 235 255
221 235 255
221 235 255
221 235 255
221 235 255
221 235 255
221 235 255
221 235 255
221 235 255
221 235 255
221 235 255
221 235 255
221 235 255
221 235 255
221 235 255
221 235 255
221 235 255
221 235 255
221 235 255
221 235 255
221 235 255
221 235 255
221 235 255
221 235 255
221 235 255
221 235 255
221 235 255
221 235 255
221 235 255
221 235 255
221 235 255
221 235 255
221 235 255
221 235 255
221 235 255
221 235 255
221 235 255
221 235 255
221 235 255
221 235 255
221 235 255
221 235 255
221 235 255
221 235 255
221 235 255
221 235 255
221 235 255
221 235 255
221 235 255
221 235 255
221 235 255
221 235 255
221 235 255
221 235 255
221 235 255
221 235 255
221 235 255
221 235 255
221 235 255
221 235 255
221 235 255
221 235 255
221 235 255
221 235 255
221 235 255
221 235 255
221 235 255
221 235 255
221 235 255
221 235 255
221 235 255
221 235 255
221 235 255
221 235 255
221 235 255
221 235 255
221 235 255
221 235 255
221 235 255
221 235 255
221 235 255
221 235 255
221 235 255
221 235 255
221 235 255
221 235 255
221 235 255
221 235 255
221 235 255
221 235 255
221 235 255
221 235 255
221 235 255
221 235 255
221 235 255
221 235 255
221 235 255
221 235 255
221 235 255
221 235 255
221 235 255
221 235 255
221 235 255
221 235 255
221 235 255
221 235 255
221 235 255
221 235 255
221 235 255
221 235 255
221 235 255
221 235 255
221 235 255
221 235 255
221 235 255
221 235 255
221 235 255
221 235 255
221 235 255
221 235 255
221 235 255
221 235 255
221 235 255
221 235 255
221 235 255
221 235 255
221 235 255
221 235 255
221 235 255
221 235 255
221 235 255
221 235 255
221 235 255
221 235 255
221 235 255
221 235 255
221 235 255
221 235 255
221 235 255
221 235 255
221 235 255
221 235 255
221 235 255
221 235 255
221 235 255
221 235 255
221 235 255
221 235 255
221 235 255
221 235 255
221 235 255
221 235 255
221 235 255
221 235 255
221 235 255
221 235 255
221 235 255
221 235 255
221 235 255
221 235 255
221 235 255
221 235 255
221 235 255
221 235 255
221 235 255
221 235 255
221 235 255
221 235 255
221 235 255
221 235 255
221 235 255
221 235 255
221 235 255
221 235 255
221 235 255
221 235 255
221 235 255
221 235 255
221 235 255
221 235 255
221 235 255
221 235 255
221 235 255
221 235 255
221 235 255
221 235 255
221 235 255
221 235 255
221 235 255
221 235 255
221 235 255
221 235 255
221 235 255
221 235 255
221 235 255
221 235 255
221 235 255
221 235 255
221 235 255
221 235 255
221 235 255
221 235 255
221 235 255
221 235 255
221 235 255
221 235 255
221 235 255
221 235 255
221 235 255
221 235 255
221 235 255
221 235 255
221 235 255
221 235 255
221 235 255
221 235 255
221 235 255
221 235 255
221 235 255
221 235 255
221 235 255
221 235 255
221 235 255
221 235 255
221 235 255
221 235 255
221 235 255
221 235 255
221 235 255
221 235 255
221 235 255
221 235 255
221 235 255
221 235 255
221 235 255
221 235 255
221 235 255
221 235 255
220 235 255
221 235 255
221 235 255
221 235 255
221 235 255
221 235 255
221 235 255
221 235 255
221 235 255
220 235 255
220 235 255
220 235 255
220 235 255
219 234 254
218 232 253
219 232 254
218 231 254
219 232 254
219 232 254
215 228 250
218 230 254
217 230 252
215 228 251
219 231 255
218 232 254
215 227 251
218 232 254
218 231 254
216 230 250
219 233 254
221 235 255
221 235 255
221 235 255
221 235 255
221 235 255
221 235 255
221 235 255
221 235 255
221 235 255
221 235 255
221 235 255
221 235 255
221 235 255
221 235 255
221 235 255
221 235 255
221 235 255
221 235 255
221 235 255
221 235 255
221 235 255
220 234 254
221 235 255
221 235 255
221 235 255
221 235 255
220 234 254
201 197 245
174 136 231
173 141 232
175 146 230
172 144 226
160 131 217
166 140 223
173 144 231
168 142 226
160 129 218
166 142 219
157 131 211
159 133 213
165 144 218
159 134 216
158 138 208
147 119 201
152 131 202
151 132 201
157 130 211
160 136 213
161 142 212
161 136 216
160 134 216
157 134 211
155 138 203
145 128 192
150 123 206
145 124 196
111 107 168
180 182 221
220 234 255
213 227 250
215 229 250
219 233 255
149 161 197
119 120 178
164 143 217
137 122 188
141 107 200
123 96 175
117 93 164
133 101 186
139 104 194
137 103 191
129 99 181
130 100 183
128 98 180
129 99 181
136 103 191
123 96 182
77 84 154
87 96 170
83 93 162
92 102 180
90 102 173
84 96 162
88 100 168
87 100 164
87 101 167
87 101 165
89 102 168
80 94 152
82 96 157
83 97 157
75 88 140
83 95 157
83 94 158
76 88 143
113 123 157
221 235 255
221 235 255
221 235 255
221 235 255
221 235 255
221 235 255
221 235 255
221 235 255
221 235 255
221 235 255
221 235 255
221 235 255
221 235 255
221 235 255
221 235 255
221 235 255
221 235 255
221 235 255
221 235 255
221 235 255
221 235 255
221 235 255
221 235 255
221 235 255
221 235 255
221 235 255
221 235 255
221 235 255
221 235 255
221 235 255
221 235 255
221 235 255
221 235 255
221 235 255
221 235 255
221 235 255
221 235 255
221 235 255
221 235 255
221 235 255
221 235 255
221 235 255
221 235 255
221 235 255
221 235 255
221 235 255
221 235 255
221 235 255
221 235 255
221 235 255
221 235 255
221 235 255
221 235 255
221 235 255
221 235 255
221 235 255
221 235 255
221 235 255
221 235 255
221 235 255
221 235 255
221 235 255
221 235 255
221 235 255
221 235 255
221 235 255
221 235 255
221 235 255
221 235 255
221 235 255
221 235 255
221 235 255
221 235 255
221 235 255
221 235 255
221 235 255
221 235 255
221 235 255
221 235 255
221 235 255
221 235 255
221 235 255
221 235 255
221 235 255
221 235 255
221 235 255
221 235 255
221 235 255
221 235 255
221 235 255
221 235 255
221 235 255
221 235 255
221 235 255
221 235 255
221 235 255
221 235 255
221 235 255
221 235 255
221 235 255
221 235 255
221 235 255
221 235 255
221 235 255
221 235 255
221 235 255
221 235 255
221 235 255
221 235 255
221 235 255
221 235 255
221 235 255
221 235 255
221 235 255
221 235 255
221 235 255
221 235 255
221 235 255
221 235 255
221 235 255
221 235 255
221 235 255
221 235 255
221 235 255
221 235 255
221 235 255
221 235 255
221 235 255
221 235 255
221 235 255
221 235 255
221 235 255
221 235 255
221 235 255
221 235 255
221 235 255
221 235 255
221 235 255
221 235 255
221 235 255
221 235 255
221 235 255
221 235 255
221 235 255
221 235 255
221 235 255
221 235 255
221 235 255
221 235 255
221 235 255
221 235 255
221 235 255
221 235 255
221 235 255
221 235 255
221 235 255
221 235 255
221 235 255
221 235 255
221 235 255
221 235 255
221 235 255
221 235 255
221 235 255
221 235 255
221 236 255
221 236 255
221 236 255
221 236 255
221 236 255
221 236 255
221 236 255
221 236 255
221 236 255
221 236 255
221 236 255
221 236 255
221 236 255
221 236 255
221 236 255
221 236 255
221 236 255
221 236 255
221 236 255
221 236 255
221 236 255
221 236 255
221 236 255
221 236 255
221 236 255
221 236 255
221 236 255
221 236 255
221 236 255
221 236 255
221 236 255
221 236 255
221 236 255
221 236 255
221 236 255
221 236 255
221 236 255
221 236 255
221 236 255
221 236 255
221 236 255
221 236 255
221 236 255
221 236 255
221 236 255
221 236 255
221 236 255
221 236 255
221 236 255
221 236 255
221 236 255
221 236 255
221 236 255
221 236 255
221 236 255
221 236 255
221 236 255
221 236 255
221 236 255
221 236 255
221 236 255
221 236 255
221 236 255
221 236 255
221 236 255
221 236 255
221 236 255
221 236 255
221 236 255
221 236 255
221 236 255
221 236 255
221 236 255
221 236 255
221 236 255
221 236 255
221 236 255
221 236 255
221 236 255
221 236 255
221 236 255
221 236 255
221 236 255
221 236 255
221 236 255
221 236 255
221 236 255
221 236 255
221 236 255
221 236 255
221 236 255
221 236 255
221 236 255
221 236 255
221 236 255
221 236 255
221 236 255
221 236 255
221 236 255
221 236 255
221 236 255
221 236 255
221 236 255
221 236 255
221 236 255
221 236 255
221 236 255
221 236 255
221 235 255
221 236 255
221 236 255
221 236 255
221 236 255
221 236 255
221 236 255
221 236 255
221 236 255
221 236 255
221 236 255
221 236 255
221 236 255
220 234 255
221 235 255
221 236 255
218 231 254
221 235 255
220 232 255
214 224 250
214 223 250
218 231 253
219 230 255
216 228 251
217 230 252
218 230 252
217 228 252
219 233 254
220 233 254
221 235 255
221 236 255
221 235 255
221 236 255
221 236 255
221 236 255
221 236 255
221 236 255
221 235 255
221 236 255
221 235 255
221 236 255
221 236 255
221 235 255
221 236 255
221 236 255
221 236 255
221 236 255
221 236 255
221 236 255
221 236 255
221 236 255
221 236 255
221 236 255
221 236 255
221 236 255
221 235 255
221 236 255
204 204 247
170 146 224
171 139 229
172 139 228
164 126 223
168 132 226
174 147 231
161 135 213
165 139 219
163 134 218
161 130 219
166 142 219
157 123 215
165 142 216
147 123 197
161 137 213
154 134 205
153 130 205
160 139 214
165 139 219
162 137 216
153 131 203
154 129 210
159 133 213
148 126 197
153 132 204
162 145 211
139 117 188
143 123 192
121 121 183
185 189 228
220 233 254
213 227 249
217 230 251
219 232 253
144 154 191
121 125 175
158 147 203
140 126 191
139 106 195
134 102 188
140 105 195
131 100 184
128 99 180
141 106 195
139 105 195
128 99 181
131 100 181
127 98 178
133 101 188
113 92 164
74 84 147
80 90 156
83 93 160
79 90 152
83 94 161
82 94 158
85 98 162
84 96 159
83 97 158
72 87 137
83 97 155
84 98 161
80 94 149
82 95 154
78 91 146
68 82 130
73 86 137
74 86 138
84 94 136
221 236 255
221 236 255
221 236 255
221 236 255
221 236 255
221 236 255
221 236 255
221 236 255
221 236 255
221 236 255
221 236 255
221 236 255
221 236 255
221 236 255
221 236 255
221 236 255
221 236 255
221 236 255
221 236 255
221 236 255
221 236 255
221 236 255
221 236 255
221 236 255
221 236 255
221 236 255
221 236 255
221 236 255
221 236 255
221 236 255
221 236 255
221 236 255
221 236 255
221 236 255
221 236 255
221 236 255
221 236 255
221 236 255
221 236 255
221 236 255
221 236 255
221 236 255
221 236 255
221 236 255
221 236 255
221 236 255
221 236 255
221 236 255
221 236 255
221 236 255
221 236 255
221 236 255
221 236 255
221 236 255
221 236 255
221 236 255
221 236 255
221 236 255
221 236 255
221 236 255
221 236 255
221 236 255
221 236 255
221 236 255
221 236 255
221 236 255
221 236 255
221 236 255
221 236 255
221 236 255
221 236 255
221 236 255
221 236 255
221 236 255
221 236 255
221 236 255
221 236 255
221 236 255
221 236 255
221 236 255
221 236 255
221 236 255
221 236 255
221 236 255
221 236 255
221 236 255
221 236 255
221 236 255
221 236 255
221 236 255
221 236 255
221 236 255
221 236 255
221 236 255
221 236 255
221 236 255
221 236 255
221 236 255
221 236 255
221 236 255
221 236 255
221 236 255
221 236 255
221 236 255
221 236 255
221 236 255
221 236 255
221 236 255
221 236 255
221 236 255
221 236 255
221 236 255
221 236 255
221 236 255
221 236 255
221 236 255
221 236 255
221 236 255
221 236 255
221 236 255
221 236 255
221 236 255
221 236 255
221 236 255
221 236 255
221 236 255
221 236 255
221 236 255
221 236 255
221 236 255
221 236 255
221 236 255
221 236 255
221 236 255
221 236 255
221 236 255
221 236 255
221 236 255
221 236 255
221 236 255
221 236 255
221 236 255
221 236 255
221 236 255
221 236 255
221 236 255
221 236 255
221 236 255
221 236 255
221 236 255
221 236 255
221 236 255
221 236 255
221 236 255
221 236 255
221 236 255
221 236 255
221 236 255
221 236 255
221 236 255
221 236 255
221 236 255
221 236 255
221 236 255
221 236 255
221 236 255
221 236 255
221 236 255
221 236 255
221 236 255
221 236 255
221 236 255
221 236 255
221 236 255
221 236 255
221 236 255
221 236 255
221 236 255
221 236 255
221 236 255
221 236 255
221 236 255
221 236 255
221 236 255
221 236 255
221 236 255
221 236 255
221 236 255
221 236 255
221 236 255
221 236 255
221 236 255
221 236 255
221 236 255
221 236 255
221 236 255
221 236 255
221 236 255
221 236 255
221 236 255
221 236 255
221 236 255
221 236 255
221 236 255
221 236 255
221 236 255
221 236 255
221 236 255
221 236 255
221 236 255
221 236 255
221 236 255
221 236 255
221 236 255
221 236 255
221 236 255
221 236 255
221 236 255
221 236 255
221 236 255
221 236 255
221 236 255
221 236 255
221 236 255
221 236 255
221 236 255
221 236 255
221 236 255
221 236 255
221 236 255
221 236 255
221 236 255
221 236 255
221 236 255
221 236 255
221 236 255
221 236 255
221 236 255
221 236 255
221 236 255
221 236 255
221 236 255
221 236 255
221 236 255
221 236 255
221 236 255
221 236 255
221 236 255
221 236 255
221 236 255
221 236 255
221 236 255
221 236 255
221 236 255
221 236 255
221 236 255
221 236 255
221 236 255
221 236 255
221 236 255
221 236 255
221 236 255
221 236 255
221 236 255
221 236 255
221 236 255
221 236 255
221 236 255
221 236 255
221 236 255
221 236 255
221 236 255
221 236 255
221 236 255
222 236 255
221 235 255
222 236 255
222 236 255
222 236 255
222 236 255
222 236 255
222 236 255
222 236 255
222 236 255
222 236 255
222 236 255
222 235 255
221 235 255
221 234 255
221 235 255
221 235 254
218 230 252
219 230 255
217 226 254
217 230 251
217 227 253
216 227 251
218 227 254
219 230 254
218 230 253
220 233 255
217 230 252
217 231 251
222 236 255
222 236 255
222 236 255
222 236 255
222 236 255
221 236 255
222 236 255
222 236 255
221 236 255
222 236 255
222 236 255
220 235 254
222 236 255
222 236 255
222 236 255
221 236 255
222 236 255
220 235 254
222 236 255
220 235 254
222 236 255
221 236 255
220 234 254
220 235 254
222 236 255
222 236 255
222 236 255
201 199 243
171 140 224
173 146 225
174 144 227
165 134 220
154 128 206
167 136 223
168 140 220
166 130 224
154 126 210
155 129 209
162 137 215
166 144 217
166 141 219
158 142 207
151 129 199
160 131 214
159 130 213
157 133 209
147 123 195
157 132 209
157 139 204
158 143 206
141 121 190
148 132 192
157 139 207
156 138 204
145 123 194
145 127 193
117 120 167
188 193 225
221 234 254
217 231 251
218 231 250
220 234 254
133 144 179
130 132 181
149 134 197
137 125 182
132 100 186
114 91 159
131 101 184
136 103 189
133 102 186
133 102 188
132 100 181
120 94 168
124 96 175
127 98 178
126 97 177
121 94 176
72 77 144
77 88 149
77 86 151
78 89 149
77 91 148
78 91 148
75 89 141
74 89 143
80 93 151
77 91 145
79 93 148
81 95 151
68 83 128
81 94 151
72 86 137
71 85 133
75 87 142
74 86 140
108 119 161
222 236 255
222 236 255
222 236 255
222 236 255
222 236 255
222 236 255
222 236 255
222 236 255
222 236 255
222 236 255
222 236 255
222 236 255
222 236 255
221 236 255
222 236 255
222 236 255
221 236 255
222 236 255
222 236 255
221 236 255
221 236 255
221 236 255
221 236 255
221 236 255
221 236 255
221 236 255
221 236 255
221 236 255
221 236 255
221 236 255
221 236 255
221 236 255
221 236 255
221 236 255
221 236 255
221 236 255
221 236 255
221 236 255
221 236 255
221 236 255
221 236 255
221 236 255
221 236 255
221 236 255
221 236 255
221 236 255
221 236 255
221 236 255
221 236 255
221 236 255
221 236 255
221 236 255
221 236 255
221 236 255
221 236 255
221 236 255
221 236 255
221 236 255
221 236 255
221 236 255
221 236 255
221 236 255
221 236 255
221 236 255
221 236 255
221 236 255
221 236 255
221 236 255
221 236 255
221 236 255
221 236 255
221 236 255
221 236 255
221 236 255
221 236 255
221 236 255
221 236 255
221 236 255
221 236 255
221 236 255
221 236 255
221 236 255
221 236 255
221 236 255
221 236 255
221 236 255
221 236 255
221 236 255
221 236 255
221 236 255
221 236 255
221 236 255
221 236 255
221 236 255
221 236 255
221 236 255
221 236 255
221 236 255
221 236 255
221 236 255
221 236 255
221 236 255
221 236 255
221 236 255
221 236 255
221 236 255
221 236 255
221 236 255
221 236 255
221 236 255
221 236 255
221 236 255
221 236 255
221 236 255
221 236 255
221 236 255
221 236 255
221 236 255
221 236 255
221 236 255
221 236 255
221 236 255
221 236 255
221 236 255
221 236 255
221 236 255
221 236 255
221 236 255
221 236 255
221 236 255
221 236 255
221 236 255
221 236 255
221 236 255
221 236 255
221 236 255
221 236 255
221 236 255
221 236 255
221 236 255
221 236 255
221 236 255
221 236 255
221 236 255
221 236 255
221 236 255
221 236 255
221 236 255
221 236 255
221 236 255
221 236 255
221 236 255
221 236 255
221 236 255
221 236 255
221 236 255
221 236 255
221 236 255
221 236 255
221 236 255
221 236 255
221 236 255
221 236 255
221 236 255
221 236 255
222 236 255
222 236 255
222 236 255
222 236 255
222 236 255
222 236 255
222 236 255
222 236 255
222 236 255
222 236 255
222 236 255
222 236 255
222 236 255
222 236 255
222 236 255
222 236 255
222 236 255
222 236 255
222 236 255
222 236 255
222 236 255
222 236 255
222 236 255
222 236 255
222 236 255
222 236 255
222 236 255
222 236 255
222 236 255
222 236 255
222 236 255
222 236 255
222 236 255
222 236 255
222 236 255
222 236 255
222 236 255
222 236 255
222 236 255
222 236 255
222 236 255
222 236 255
222 236 255
222 236 255
222 236 255
222 236 255
222 236 255
222 236 255
222 236 255
222 236 255
222 236 255
222 236 255
222 236 255
222 236 255
222 236 255
222 236 255
222 236 255
222 236 255
222 236 255
222 236 255
222 236 255
222 236 255
222 236 255
222 236 255
222 236 255
222 236 255
222 236 255
222 236 255
222 236 255
222 236 255
222 236 255
222 236 255
222 236 255
222 236 255
222 236 255
222 236 255
222 236 255
222 236 255
222 236 255
222 236 255
222 236 255
222 236 255
222 236 255
222 236 255
222 236 255
222 236 255
222 236 255
222 236 255
222 236 255
222 236 255
222 236 255
222 236 255
222 236 255
222 236 255
222 236 255
222 236 255
222 236 255
222 236 255
222 236 255
222 236 255
222 236 255
222 236 255
222 236 255
222 236 255
222 236 255
222 236 255
222 236 255
222 236 255
222 236 255
222 236 255
222 236 255
222 236 255
222 236 255
222 236 255
222 236 255
222 236 255
223 236 255
223 236 255
223 236 255
223 236 255
223 236 255
223 236 255
220 233 254
222 235 255
222 235 255
222 235 255
219 232 253
219 231 253
219 231 252
219 229 254
216 227 250
215 223 252
219 230 253
217 228 251
216 228 250
219 231 254
220 233 254
219 232 254
222 236 255
222 236 255
222 236 255
222 236 255
222 236 255
222 236 255
222 236 255
220 234 253
222 236 255
221 235 254
221 235 254
222 236 255
222 236 255
222 236 255
222 236 255
222 236 255
222 236 255
221 235 254
222 236 255
221 235 254
221 235 254
222 236 255
221 235 254
220 234 253
222 236 255
220 234 253
221 235 254
208 211 247
165 133 218
169 142 223
167 138 221
134 122 177
140 127 185
123 105 167
137 121 182
155 135 204
152 131 203
153 127 205
151 127 203
147 120 201
156 139 203
145 124 192
145 126 194
147 122 198
148 132 194
147 129 196
145 128 196
147 132 193
134 117 181
141 122 188
135 120 179
142 123 190
163 138 215
155 134 204
154 131 205
138 123 181
116 119 169
188 189 226
222 235 254
223 237 255
219 232 251
222 234 255
168 177 208
117 118 167
162 144 212
146 127 195
135 104 192
126 97 176
131 100 183
134 102 184
115 91 161
120 94 168
128 98 178
125 97 173
132 100 183
116 91 161
122 95 171
104 88 159
67 75 132
67 78 132
78 87 152
73 83 143
74 87 142
79 92 148
71 84 133
72 86 133
79 92 148
74 88 138
69 85 130
66 81 123
83 95 154
65 81 123
70 84 132
71 84 133
74 85 137
66 79 124
132 142 169
222 236 255
222 236 255
222 236 255
222 236 255
222 236 255
222 236 255
222 236 255
222 236 255
222 236 255
222 236 255
222 236 255
222 236 255
222 236 255
222 236 255
222 236 255
222 236 255
222 236 255
222 236 255
222 236 255
222 236 255
222 236 255
222 236 255
222 236 255
222 236 255
222 236 255
222 236 255
222 236 255
222 236 255
222 236 255
222 236 255
222 236 255
222 236 255
222 236 255
222 236 255
222 236 255
222 236 255
222 236 255
222 236 255
222 236 255
222 236 255
222 236 255
222 236 255
222 236 255
222 236 255
222 236 255
222 236 255
222 236 255
222 236 255
222 236 255
222 236 255
222 236 255
222 236 255
222 236 255
222 236 255
222 236 255
222 236 255
222 236 255
222 236 255
222 236 255
222 236 255
222 236 255
222 236 255
222 236 255
222 236 255
222 236 255
222 236 255
222 236 255
222 236 255
222 236 255
222 236 255
222 236 255
222 236 255
222 236 255
222 236 255
222 236 255
222 236 255
222 236 255
222 236 255
222 236 255
222 236 255
222 236 255
222 236 255
222 236 255
222 236 255
222 236 255
222 236 255
222 236 255
222 236 255
222 236 255
222 236 255
222 236 255
222 236 255
222 236 255
222 236 255
222 236 255
222 236 255
222 236 255
222 236 255
222 236 255
222 236 255
222 236 255
222 236 255
222 236 255
222 236 255
222 236 255
222 236 255
222 236 255
222 236 255
222 236 255
222 236 255
222 236 255
222 236 255
222 236 255
222 236 255
222 236 255
222 236 255
222 236 255
222 236 255
222 236 255
222 236 255
222 236 255
222 236 255
222 236 255
222 236 255
222 236 255
222 236 255
222 236 255
222 236 255
222 236 255
222 236 255
222 236 255
222 236 255
222 236 255
222 236 255
222 236 255
222 236 255
222 236 255
222 236 255
222 236 255
222 236 255
222 236 255
222 236 255
222 236 255
222 236 255
222 236 255
222 236 255
222 236 255
222 236 255
222 236 255
222 236 255
222 236 255
222 236 255
222 236 255
222 236 255
222 236 255
222 236 255
222 236 255
222 236 255
222 236 255
222 236 255
222 236 255
222 236 255
222 236 255
222 236 255
222 236 255
222 236 255
222 236 255
222 236 255
222 236 255
222 236 255
222 236 255
222 236 255
222 236 255
222 236 255
222 236 255
222 236 255
222 236 255
222 236 255
222 236 255
222 236 255
222 236 255
222 236 255
222 236 255
222 236 255
222 236 255
222 236 255
222 236 255
222 236 255
222 236 255
222 236 255
222 236 255
222 236 255
222 236 255
222 236 255
222 236 255
222 236 255
222 236 255
222 236 255
222 236 255
222 236 255
222 236 255
222 236 255
222 236 255
222 236 255
222 236 255
222 236 255
222 236 255
222 236 255
222 236 255
222 236 255
222 236 255
222 236 255
222 236 255
222 236 255
222 236 255
222 236 255
222 236 255
222 236 255
222 236 255
222 236 255
222 236 255
222 236 255
222 236 255
222 236 255
222 236 255
222 236 255
222 236 255
222 236 255
222 236 255
222 236 255
222 236 255
222 236 255
222 236 255
222 236 255
222 236 255
222 236 255
222 236 255
222 236 255
222 236 255
222 236 255
222 236 255
222 236 255
222 236 255
222 236 255
222 236 255
222 236 255
222 236 255
222 236 255
222 236 255
222 236 255
222 236 255
222 236 255
222 236 255
222 236 255
222 236 255
222 236 255
222 236 255
222 236 255
222 236 255
222 236 255
222 236 255
222 236 255
222 236 255
222 236 255
222 236 255
222 236 255
222 236 255
222 236 255
222 236 255
222 236 255
222 236 255
222 236 255
222 236 255
222 236 255
222 236 255
222 236 255
222 236 255
223 236 255
223 236 255
223 236 255
223 237 255
223 237 255
223 237 255
223 237 255
224 237 255
224 237 255
224 237 255
221 234 254
223 237 255
221 233 255
221 234 255
219 232 253
219 230 253
219 228 254
220 232 254
218 227 254
215 227 248
216 227 249
219 231 252
217 228 252
217 230 249
216 229 249
220 233 253
218 231 250
219 233 252
218 232 250
217 231 249
216 230 248
215 230 248
221 235 254
217 231 249
215 230 248
212 227 244
211 226 242
214 229 246
217 231 249
211 226 242
216 231 249
219 233 252
216 231 249
215 230 248
216 231 249
217 231 249
216 231 249
215 230 248
217 231 249
215 230 248
217 232 250
216 231 249
209 225 241
191 199 226
128 118 172
114 104 154
116 103 160
129 112 176
117 112 159
126 114 169
127 105 177
130 107 179
134 113 187
137 118 187
125 106 177
129 114 174
120 104 167
126 105 177
118 98 163
128 114 174
125 109 172
117 106 158
121 110 164
126 107 174
134 119 180
123 108 167
127 119 168
129 117 172
134 121 177
135 122 179
131 115 176
133 111 181
110 123 149
179 187 213
161 184 184
199 215 228
217 230 249
217 230 248
123 134 166
117 117 160
151 134 197
124 110 168
120 94 169
124 96 173
120 93 168
120 94 170
122 95 170
135 101 184
124 96 173
126 97 178
127 98 178
130 100 183
131 100 181
94 82 149
63 74 124
61 71 122
70 82 133
69 80 132
68 82 129
63 79 120
76 88 142
65 81 122
69 83 129
71 87 135
69 85 128
68 83 128
69 83 130
71 85 135
75 88 142
73 86 137
68 80 128
71 84 133
140 151 177
222 236 255
222 236 255
222 236 255
222 236 255
222 236 255
222 236 255
222 236 255
222 236 255
222 236 255
222 236 255
222 236 255
222 236 255
222 236 255
222 236 255
222 236 255
222 236 255
222 236 255
222 236 255
222 236 255
222 236 255
222 236 255
222 236 255
222 236 255
222 236 255
222 236 255
222 236 255
222 236 255
222 236 255
222 236 255
222 236 255
222 236 255
222 236 255
222 236 255
222 236 255
222 236 255
222 236 255
222 236 255
222 236 255
222 236 255
222 236 255
222 236 255
222 236 255
222 236 255
222 236 255
222 236 255
222 236 255
222 236 255
222 236 255
222 236 255
222 236 255
222 236 255
222 236 255
222 236 255
222 236 255
222 236 255
222 236 255
222 236 255
222 236 255
222 236 255
222 236 255
222 236 255
222 236 255
222 236 255
222 236 255
222 236 255
222 236 255
222 236 255
222 236 255
222 236 255
222 236 255
222 236 255
222 236 255
222 236 255
222 236 255
222 236 255
222 236 255
222 236 255
222 236 255
222 236 255
222 236 255
222 236 255
222 236 255
222 236 255
222 236 255
222 236 255
222 236 255
222 236 255
222 236 255
222 236 255
222 236 255
222 236 255
222 236 255
222 236 255
222 236 255
222 236 255
222 236 255
222 236 255
222 236 255
222 236 255
222 236 255
222 236 255
222 236 255
222 236 255
222 236 255
222 236 255
222 236 255
222 236 255
222 236 255
222 236 255
222 236 255
222 236 255
222 236 255
222 236 255
222 236 255
222 236 255
222 236 255
222 236 255
222 236 255
222 236 255
222 236 255
222 236 255
222 236 255
222 236 255
222 236 255
222 236 255
222 236 255
222 236 255
222 236 255
222 236 255
222 236 255
222 236 255
222 236 255
222 236 255
222 236 255
222 236 255
222 236 255
222 236 255
222 236 255
222 236 255
222 236 255
222 236 255
222 236 255
222 236 255
222 236 255
222 236 255
222 236 255
222 236 255
222 236 255
222 236 255
222 236 255
222 236 255
222 236 255
222 236 255
222 236 255
222 236 255
222 236 255
222 236 255
222 236 255
222 236 255
222 236 255
222 236 255
222 236 255
222 236 255
222 236 255
222 236 255
222 236 255
222 236 255
222 236 255
222 236 255
222 236 255
222 236 255
222 236 255
222 236 255
222 236 255
222 236 255
222 236 255
222 236 255
222 236 255
222 236 255
222 236 255
222 236 255
222 236 255
222 236 255
222 236 255
222 236 255
222 236 255
222 236 255
222 236 255
222 236 255
222 236 255
222 236 255
222 236 255
222 236 255
222 236 255
222 236 255
222 236 255
222 236 255
222 236 255
222 236 255
222 236 255
222 236 255
222 236 255
222 236 255
222 236 255
222 236 255
222 236 255
222 236 255
222 236 255
222 236 255
222 236 255
222 236 255
222 236 255
222 236 255
222 236 255
222 236 255
222 236 255
222 236 255
222 236 255
222 236 255
222 236 255
222 236 255
222 236 255
222 236 255
222 236 255
222 236 255
222 236 255
222 236 255
222 236 255
222 236 255
222 236 255
222 236 255
222 236 255
222 236 255
222 236 255
222 236 255
222 236 255
222 236 255
222 236 255
222 236 255
222 236 255
222 236 255
222 236 255
222 236 255
222 236 255
222 236 255
222 236 255
222 236 255
222 236 255
222 236 255
222 236 255
222 236 255
222 236 255
222 236 255
222 236 255
222 236 255
222 236 255
222 236 255
222 236 255
222 236 255
222 236 255
222 236 255
222 236 255
222 236 255
222 236 255
222 236 255
222 236 255
222 236 255
222 236 255
222 236 255
222 236 255
222 236 255
222 236 255
222 236 255
222 236 255
222 236 255
223 236 255
223 236 255
223 236 255
223 237 255
223 237 255
224 237 255
224 237 255
224 237 255
222 235 253
224 237 255
223 236 254
194 211 221
214 227 246
221 233 254
217 229 249
218 231 250
215 228 247
215 228 246
211 222 244
203 212 238
215 227 247
214 225 249
211 223 243
214 225 248
210 223 242
215 226 249
205 219 235
211 225 242
210 225 241
214 228 245
215 230 246
211 226 242
210 225 241
214 229 246
214 229 246
213 228 245
215 230 248
214 228 245
205 221 236
216 230 248
215 230 248
211 226 242
208 224 240
212 227 244
212 227 244
214 229 246
214 229 246
216 231 249
207 223 238
215 230 248
216 230 248
214 228 245
216 231 249
217 232 250
209 225 241
207 220 239
117 103 162
115 104 160
113 106 153
132 116 181
115 102 160
121 107 165
122 110 169
119 106 162
124 107 172
125 110 172
108 103 147
116 101 161
115 104 158
119 108 163
120 105 165
121 107 167
118 106 160
127 116 171
125 111 171
119 105 164
126 110 172
134 123 177
126 112 169
120 107 162
124 112 169
116 106 158
122 104 165
109 99 150
64 82 101
62 102 81
22 100 25
17 98 30
84 126 95
155 179 177
109 124 149
97 93 141
139 130 179
123 110 171
128 98 181
123 95 173
116 92 164
120 94 168
127 97 175
131 100 183
130 99 183
123 95 170
123 96 171
131 100 181
116 91 162
82 73 127
63 72 122
63 72 121
58 72 112
63 77 118
67 80 127
62 75 117
66 80 126
66 82 124
70 85 131
65 80 121
64 79 119
76 90 140
68 84 126
68 82 130
66 80 123
64 79 121
60 73 113
49 64 93
172 183 204
222 236 255
222 236 255
222 236 255
222 236 255
222 236 255
222 236 255
222 236 255
222 236 255
222 236 255
222 236 255
222 236 255
222 236 255
222 236 255
222 236 255
222 236 255
222 236 255
222 236 255
222 236 255
222 236 255
222 236 255
222 236 255
222 236 255
222 236 255
222 236 255
222 236 255
222 236 255
222 236 255
222 236 255
222 236 255
222 236 255
222 236 255
222 236 255
222 236 255
222 236 255
222 236 255
222 236 255
222 236 255
222 236 255
222 236 255
222 236 255
222 236 255
222 236 255
222 236 255
222 236 255
222 236 255
222 236 255
222 236 255
222 236 255
222 236 255
222 236 255
222 236 255
222 236 255
222 236 255
222 236 255
222 236 255
222 236 255
222 236 255
222 236 255
222 236 255
222 236 255
222 236 255
222 236 255
222 236 255
222 236 255
222 236 255
222 236 255
222 236 255
222 236 255
222 236 255
222 236 255
222 236 255
222 236 255
222 236 255
222 236 255
222 236 255
222 236 255
222 236 255
222 236 255
222 236 255
222 236 255
222 236 255
222 236 255
222 236 255
222 236 255
222 236 255
222 236 255
222 236 255
222 236 255
222 236 255
222 236 255
222 236 255
222 236 255
222 236 255
222 236 255
222 236 255
222 236 255
222 236 255
222 236 255
222 236 255
222 236 255
222 236 255
222 236 255
222 236 255
222 236 255
222 236 255
222 236 255
222 236 255
222 236 255
222 236 255
222 236 255
222 236 255
222 236 255
222 236 255
222 236 255
222 236 255
222 236 255
222 236 255
222 236 255
222 236 255
222 236 255
222 236 255
222 236 255
222 236 255
222 236 255
222 236 255
222 236 255
222 236 255
222 236 255
222 236 255
222 236 255
222 236 255
222 236 255
222 236 255
222 236 255
222 236 255
222 236 255
222 236 255
222 236 255
222 236 255
222 236 255
222 236 255
222 236 255
222 236 255
222 236 255
222 236 255
222 236 255
222 236 255
222 236 255
222 236 255
222 236 255
222 236 255
222 236 255
222 236 255
222 236 255
222 236 255
222 236 255
222 236 255
222 236 255
222 236 255
222 236 255
222 236 255
222 236 255
222 236 255
222 236 255
222 236 255
222 236 255
222 236 255
222 236 255
222 236 255
222 236 255
222 236 255
222 236 255
222 236 255
222 236 255
222 236 255
222 236 255
222 236 255
222 236 255
222 236 255
222 236 255
222 236 255
222 236 255
222 236 255
222 236 255
222 236 255
222 236 255
222 236 255
222 236 255
222 236 255
222 236 255
222 236 255
222 236 255
222 236 255
222 236 255
222 236 255
222 236 255
222 236 255
222 236 255
222 236 255
222 236 255
222 236 255
222 236 255
222 236 255
222 236 255
222 236 255
222 236 255
222 236 255
222 236 255
222 236 255
222 236 255
222 236 255
222 236 255
222 236 255
222 236 255
222 236 255
222 236 255
222 236 255
222 236 255
222 236 255
222 236 255
222 236 255
222 236 255
222 236 255
222 236 255
222 236 255
222 236 255
222 236 255
222 236 255
222 236 255
222 236 255
222 236 255
222 236 255
222 236 255
222 236 255
222 236 255
222 236 255
222 236 255
222 236 255
222 236 255
222 236 255
222 236 255
222 236 255
222 236 255
222 236 255
222 236 255
222 236 255
222 236 255
222 236 255
222 236 255
222 236 255
222 236 255
222 236 255
222 236 255
222 236 255
222 236 255
222 236 255
222 236 255
222 236 255
222 236 255
222 236 255
222 236 255
222 236 255
222 236 255
222 236 255
222 236 255
222 236 255
222 236 255
222 236 255
222 236 255
222 236 255
222 236 255
222 236 255
222 236 255
222 236 255
222 236 255
223 236 255
223 237 255
223 237 255
224 237 255
219 233 250
221 234 252
216 230 246
194 211 221
154 178 175
98 136 111
31 103 36
22 101 25
160 183 184
151 175 173
191 205 220
203 219 233
213 226 245
213 226 245
206 218 239
211 222 244
209 219 242
211 223 243
209 221 242
210 222 243
205 218 236
210 222 243
213 225 246
217 230 249
214 229 246
209 224 240
219 233 250
217 231 249
216 231 248
217 231 249
220 234 252
208 224 238
211 226 242
211 226 242
213 228 244
213 228 245
212 227 244
215 229 246
210 225 241
218 232 250
214 229 246
214 229 246
215 230 248
213 228 245
216 230 248
217 231 249
217 231 249
212 227 244
210 225 241
206 222 237
214 228 245
211 226 242
121 110 161
131 120 177
115 105 158
128 116 173
120 106 163
114 103 154
108 103 149
118 107 162
118 105 161
109 100 152
103 93 147
128 112 173
115 100 159
103 92 143
107 93 149
122 108 167
121 111 163
130 109 179
121 109 162
119 105 160
103 101 139
117 105 160
115 104 156
127 123 167
130 117 175
119 102 161
99 91 139
97 90 134
81 101 113
49 97 65
0 96 0
0 97 0
18 97 24
0 98 0
47 75 85
76 82 114
102 94 141
102 89 146
113 90 155
119 93 166
117 92 164
120 94 166
112 89 155
126 97 175
105 86 145
122 94 168
118 92 164
123 95 173
117 91 161
68 64 110
65 74 126
60 68 116
61 72 115
53 67 99
64 79 121
70 83 129
63 78 117
61 77 115
58 74 107
75 89 138
63 78 117
59 74 109
55 72 102
60 76 111
68 81 126
69 82 130
66 78 124
55 69 102
205 218 237
223 236 255
223 236 255
223 236 255
223 236 255
223 236 255
223 236 255
223 236 255
223 236 255
223 236 255
223 236 255
223 236 255
223 236 255
223 236 255
223 236 255
223 236 255
223 236 255
223 236 255
223 236 255
223 236 255
223 236 255
223 236 255
223 236 255
223 236 255
223 236 255
223 236 255
223 236 255
223 236 255
223 236 255
223 236 255
223 236 255
223 236 255
223 236 255
223 236 255
223 236 255
223 236 255
223 236 255
223 236 255
223 236 255
223 236 255
223 236 255
223 236 255
223 236 255
223 236 255
223 236 255
223 236 255
223 236 255
223 236 255
223 236 255
223 236 255
223 236 255
222 236 255
223 236 255
222 236 255
222 236 255
222 236 255
222 236 255
222 236 255
222 236 255
222 236 255
222 236 255
222 236 255
222 236 255
222 236 255
222 236 255
222 236 255
222 236 255
222 236 255
222 236 255
222 236 255
222 236 255
222 236 255
222 236 255
222 236 255
222 236 255
222 236 255
222 236 255
222 236 255
222 236 255
222 236 255
222 236 255
222 236 255
222 236 255
222 236 255
222 236 255
222 236 255
222 236 255
222 236 255
222 236 255
222 236 255
222 236 255
222 236 255
222 236 255
222 236 255
222 236 255
222 236 255
222 236 255
222 236 255
222 236 255
222 236 255
222 236 255
222 236 255
222 236 255
222 236 255
222 236 255
222 236 255
222 236 255
222 236 255
222 236 255
222 236 255
222 236 255
222 236 255
222 236 255
222 236 255
222 236 255
222 236 255
222 236 255
222 236 255
222 236 255
222 236 255
222 236 255
222 236 255
222 236 255
222 236 255
222 236 255
222 236 255
222 236 255
222 236 255
222 236 255
222 236 255
222 236 255
222 236 255
222 236 255
222 236 255
222 236 255
222 236 255
222 236 255
222 236 255
222 236 255
222 236 255
222 236 255
222 236 255
222 236 255
222 236 255
222 236 255
222 236 255
222 236 255
222 236 255
222 236 255
222 236 255
222 236 255
222 236 255
222 236 255
222 236 255
222 236 255
222 236 255
222 236 255
222 236 255
222 236 255
222 236 255
222 236 255
222 236 255
222 236 255
222 236 255
222 236 255
222 236 255
222 236 255
222 236 255
222 236 255
222 236 255
222 236 255
222 236 255
222 236 255
222 236 255
222 236 255
222 236 255
222 236 255
222 236 255
222 236 255
222 236 255
222 236 255
222 236 255
222 236 255
222 236 255
222 236 255
222 236 255
222 236 255
222 236 255
222 236 255
222 236 255
222 236 255
222 236 255
222 236 255
222 236 255
222 236 255
222 236 255
222 236 255
222 236 255
222 236 255
222 236 255
222 236 255
222 236 255
222 236 255
222 236 255
222 236 255
222 236 255
222 236 255
222 236 255
222 236 255
222 236 255
222 236 255
222 236 255
222 236 255
222 236 255
222 236 255
222 236 255
222 236 255
222 236 255
222 236 255
222 236 255
222 236 255
222 236 255
222 236 255
222 236 255
222 236 255
222 236 255
222 236 255
222 236 255
222 236 255
222 236 255
222 236 255
222 236 255
222 236 255
222 236 255
222 236 255
222 236 255
222 236 255
222 236 255
223 236 255
223 236 255
223 236 255
223 236 255
223 236 255
223 236 255
223 236 255
223 236 255
223 236 255
223 236 255
223 236 255
223 236 255
223 236 255
223 236 255
223 236 255
223 236 255
223 236 255
223 236 255
223 236 255
223 236 255
223 236 255
223 236 255
223 236 255
223 236 255
223 236 255
223 236 255
223 236 255
223 236 255
223 236 255
223 236 255
223 236 255
223 236 255
223 236 255
223 236 255
223 236 255
223 236 255
223 236 255
223 236 255
223 236 255
214 229 245
211 226 241
208 223 237
203 219 231
150 175 171
84 127 95
44 108 51
31 103 36
38 106 44
31 103 36
0 99 0
112 145 130
120 151 139
107 141 127
100 137 117
95 132 113
116 147 134
147 165 174
152 173 176
164 181 191
179 195 208
184 200 212
195 209 224
197 210 226
210 223 241
212 224 243
214 227 245
215 229 246
216 230 246
212 227 242
214 228 245
211 226 242
216 230 248
215 229 246
212 227 244
215 230 246
216 230 248
210 225 241
219 234 252
215 229 246
219 233 252
216 231 248
214 229 246
212 227 244
216 230 248
210 225 241
211 226 242
212 227 244
215 230 248
215 230 246
211 226 242
213 227 244
215 229 246
217 231 249
219 233 250
166 168 202
110 104 147
99 101 133
121 115 165
121 105 165
115 110 153
107 101 149
130 110 180
122 114 166
119 106 162
115 101 156
114 104 156
118 107 162
123 112 166
107 103 145
125 108 169
117 106 160
111 103 152
118 108 160
109 96 148
114 100 156
133 115 178
119 108 157
120 116 158
109 99 146
114 110 150
116 97 161
76 79 105
81 100 111
50 98 65
0 97 0
11 98 21
25 98 34
24 98 34
37 66 62
90 84 125
95 91 133
97 80 138
117 92 162
117 92 162
122 95 168
120 94 164
115 92 161
112 89 157
109 87 151
117 92 162
120 94 168
124 94 170
121 93 168
55 63 101
53 65 102
45 58 87
54 68 102
60 72 111
56 69 102
64 79 119
61 76 113
55 72 102
59 74 111
61 77 113
50 66 93
56 72 104
59 75 109
60 74 111
61 74 111
51 65 95
55 68 102
76 87 116
223 237 255
223 237 255
223 237 255
223 237 255
223 237 255
223 237 255
223 237 255
223 237 255
223 237 255
223 237 255
223 237 255
223 237 255
223 237 255
223 237 255
223 237 255
223 237 255
223 237 255
223 237 255
223 237 255
223 237 255
223 237 255
223 237 255
223 237 255
223 237 255
223 237 255
223 237 255
223 237 255
223 236 255
223 236 255
223 236 255
223 236 255
223 236 255
223 236 255
223 236 255
223 236 255
223 236 255
223 236 255
223 236 255
223 236 255
223 236 255
223 236 255
223 236 255
223 236 255
223 236 255
223 236 255
223 236 255
223 236 255
223 236 255
223 236 255
223 236 255
223 236 255
223 236 255
223 236 255
223 236 255
223 236 255
223 236 255
223 236 255
223 236 255
223 236 255
223 236 255
223 236 255
223 236 255
223 236 255
223 236 255
223 236 255
223 236 255
223 236 255
223 236 255
223 236 255
223 236 255
223 236 255
223 236 255
223 236 255
223 236 255
223 236 255
223 236 255
223 236 255
223 236 255
223 236 255
223 236 255
223 236 255
223 236 255
223 236 255
223 236 255
223 236 255
223 236 255
223 236 255
223 236 255
223 236 255
223 236 255
223 236 255
223 236 255
223 236 255
223 236 255
222 236 255
223 236 255
222 236 255
222 236 255
222 236 255
222 236 255
222 236 255
222 236 255
222 236 255
222 236 255
222 236 255
222 236 255
222 236 255
222 236 255
222 236 255
222 236 255
222 236 255
222 236 255
222 236 255
222 236 255
222 236 255
222 236 255
222 236 255
222 236 255
222 236 255
222 236 255
222 236 255
222 236 255
222 236 255
222 236 255
222 236 255
222 236 255
222 236 255
222 236 255
222 236 255
222 236 255
222 236 255
222 236 255
222 236 255
222 236 255
222 236 255
222 236 255
222 236 255
222 236 255
222 236 255
222 236 255
222 236 255
222 236 255
222 236 255
222 236 255
222 236 255
222 236 255
222 236 255
222 236 255
222 236 255
222 236 255
222 236 255
222 236 255
222 236 255
222 236 255
222 236 255
222 236 255
222 236 255
222 236 255
222 236 255
222 236 255
222 236 255
222 236 255
222 236 255
222 236 255
222 236 255
222 236 255
222 236 255
222 236 255
222 236 255
222 236 255
222 236 255
222 236 255
222 236 255
222 236 255
222 236 255
222 236 255
222 236 255
222 236 255
222 236 255
222 236 255
222 236 255
222 236 255
222 236 255
222 236 255
222 236 255
222 236 255
222 236 255
222 236 255
222 236 255
222 236 255
222 236 255
222 236 255
222 236 255
222 236 255
222 236 255
222 236 255
222 236 255
222 236 255
222 236 255
222 236 255
222 236 255
222 236 255
222 236 255
223 236 255
223 236 255
223 236 255
223 236 255
223 236 255
223 236 255
223 236 255
223 236 255
223 236 255
223 236 255
223 236 255
223 236 255
223 236 255
223 236 255
223 236 255
223 236 255
223 236 255
223 236 255
223 236 255
223 236 255
223 236 255
223 236 255
223 236 255
223 236 255
223 236 255
223 236 255
223 236 255
223 236 255
223 236 255
223 236 255
223 236 255
223 236 255
223 236 255
223 236 255
223 236 255
223 236 255
223 236 255
223 236 255
223 236 255
223 236 255
223 236 255
223 236 255
223 236 255
223 236 255
223 236 255
223 236 255
223 236 255
223 236 255
223 236 255
223 236 255
223 236 255
223 236 255
223 236 255
223 236 255
223 236 255
223 236 255
223 236 255
223 236 255
223 236 255
223 236 255
223 236 255
223 236 255
223 236 255
223 236 255
223 236 255
223 236 255
223 237 255
223 237 255
223 237 255
223 237 255
223 237 255
223 237 255
223 236 255
203 219 233
196 213 224
204 220 233
204 220 233
116 149 133
38 105 44
44 108 51
38 105 44
31 103 36
0 99 0
0 99 0
0 99 0
80 125 92
113 145 132
108 144 125
88 128 104
65 116 76
86 127 101
50 103 69
48 101 64
53 104 69
32 98 47
60 103 84
41 102 54
29 99 42
71 108 95
83 124 101
89 129 104
116 149 135
118 151 135
124 155 142
134 163 155
127 158 147
134 163 155
133 162 153
148 174 171
139 166 159
141 168 161
137 165 159
144 171 165
136 165 157
140 167 161
137 165 157
137 166 159
154 179 179
147 173 169
143 170 165
132 161 153
147 173 169
119 152 137
137 165 157
125 157 147
118 152 140
124 156 144
102 140 117
96 135 111
97 129 118
105 98 142
110 106 149
110 105 151
111 102 151
107 100 147
111 105 151
105 100 145
129 110 176
97 97 132
115 109 157
110 99 149
120 109 164
131 115 179
112 105 152
121 111 164
109 99 148
119 104 162
116 107 156
102 95 140
104 95 142
112 108 147
120 112 163
104 103 139
111 109 144
111 102 151
111 97 150
70 84 89
78 96 108
40 97 54
0 93 0
0 95 0
24 95 34
17 94 24
46 65 72
95 85 132
86 86 118
101 84 142
119 93 164
112 90 157
115 91 161
107 87 149
120 93 168
119 93 168
110 88 153
113 89 155
115 91 161
115 90 160
114 87 159
36 51 69
51 61 96
48 61 89
46 63 85
53 69 97
59 72 109
55 71 100
52 68 95
52 68 95
53 70 98
60 76 111
57 74 104
51 68 93
58 71 107
55 70 100
58 73 107
53 69 100
51 65 95
174 186 206
223 237 255
223 237 255
223 237 255
223 237 255
223 237 255
223 237 255
223 237 255
223 237 255
223 237 255
223 237 255
223 237 255
223 237 255
223 237 255
223 237 255
223 237 255
223 237 255
223 237 255
223 237 255
223 237 255
223 237 255
223 237 255
223 237 255
223 237 255
223 237 255
223 237 255
223 237 255
223 237 255
223 237 255
223 237 255
223 237 255
223 237 255
223 237 255
223 237 255
223 237 255
223 237 255
223 237 255
223 237 255
223 237 255
223 237 255
223 237 255
223 237 255
223 237 255
223 237 255
223 237 255
223 237 255
223 237 255
223 237 255
223 237 255
223 237 255
223 237 255
223 237 255
223 237 255
223 237 255
223 237 255
223 237 255
223 237 255
223 237 255
223 237 255
223 237 255
223 237 255
223 237 255
223 237 255
223 236 255
223 237 255
223 236 255
223 236 255
223 236 255
223 236 255
223 236 255
223 236 255
223 236 255
223 236 255
223 236 255
223 236 255
223 236 255
223 236 255
223 236 255
223 236 255
223 236 255
223 236 255
223 236 255
223 236 255
223 236 255
223 236 255
223 236 255
223 236 255
223 236 255
223 236 255
223 236 255
223 236 255
223 236 255
223 236 255
223 236 255
223 236 255
223 236 255
223 236 255
223 236 255
223 236 255
223 236 255
223 236 255
223 236 255
223 236 255
223 236 255
223 236 255
223 236 255
223 236 255
223 236 255
223 236 255
223 236 255
223 236 255
223 236 255
223 236 255
223 236 255
223 236 255
223 236 255
223 236 255
223 236 255
223 236 255
223 236 255
223 236 255
223 236 255
223 236 255
223 236 255
223 236 255
223 236 255
223 236 255
223 236 255
223 236 255
223 236 255
222 236 255
222 236 255
222 236 255
222 236 255
222 236 255
222 236 255
222 236 255
222 236 255
222 236 255
222 236 255
222 236 255
222 236 255
222 236 255
222 236 255
222 236 255
222 236 255
222 236 255
222 236 255
222 236 255
222 236 255
222 236 255
222 236 255
222 236 255
222 236 255
222 236 255
222 236 255
222 236 255
222 236 255
222 236 255
222 236 255
222 236 255
222 236 255
222 236 255
222 236 255
222 236 255
222 236 255
222 236 255
222 236 255
222 236 255
223 236 255
223 236 255
223 236 255
223 236 255
223 236 255
223 236 255
223 236 255
223 236 255
223 236 255
223 236 255
223 236 255
223 236 255
223 236 255
223 236 255
223 236 255
223 236 255
223 236 255
223 236 255
223 236 255
223 236 255
223 236 255
223 236 255
223 236 255
223 236 255
223 236 255
223 236 255
223 236 255
223 236 255
223 236 255
223 236 255
223 236 255
223 236 255
223 236 255
223 236 255
223 236 255
223 236 255
223 236 255
223 236 255
223 236 255
223 236 255
223 236 255
223 236 255
223 236 255
223 236 255
223 236 255
223 236 255
223 236 255
223 236 255
223 236 255
223 236 255
223 236 255
223 236 255
223 236 255
223 236 255
223 236 255
223 236 255
223 236 255
223 236 255
223 236 255
223 236 255
223 236 255
223 236 255
223 236 255
223 236 255
223 236 255
223 236 255
223 236 255
223 236 255
223 236 255
223 236 255
223 237 255
223 237 255
223 237 255
223 237 255
223 237 255
223 237 255
223 237 255
223 237 255
223 237 255
223 237 255
223 237 255
223 237 255
223 237 255
223 237 255
223 237 255
223 237 255
223 237 255
223 237 255
223 237 255
223 237 255
223 237 255
223 237 255
223 237 255
223 237 255
223 237 255
223 237 255
223 237 255
223 237 255
223 237 255
223 237 255
223 237 255
223 237 255
223 237 255
223 237 255
223 237 255
223 237 255
223 237 255
217 232 249
183 203 211
198 215 227
200 216 228
102 139 117
44 108 51
44 107 51
38 105 44
31 103 36
0 98 0
0 99 0
22 101 25
0 98 0
44 108 51
93 133 108
108 140 129
98 133 116
86 124 103
65 117 76
64 107 85
59 106 78
58 101 80
59 104 81
34 99 48
43 102 60
45 99 64
40 101 54
38 101 54
60 111 75
44 107 56
62 116 76
46 109 57
35 104 44
35 104 44
62 116 76
68 120 84
65 118 80
45 108 57
54 112 67
50 110 62
50 110 62
40 107 51
50 111 62
46 109 57
40 107 51
64 117 80
45 108 57
68 120 84
28 103 36
49 110 62
53 112 67
46 108 57
54 112 67
63 116 80
53 112 67
34 104 44
60 115 76
69 121 88
110 105 151
100 99 139
93 92 129
108 104 145
104 96 140
102 98 140
98 96 134
121 107 165
97 96 132
109 101 149
106 98 144
108 97 146
107 99 146
108 93 148
119 108 164
102 95 138
117 104 160
98 96 132
108 103 145
118 104 158
108 95 146
112 107 147
110 109 144
113 114 146
119 100 163
90 89 120
63 74 87
56 88 77
0 91 0
18 94 24
0 92 0
17 92 24
18 93 24
32 59 53
96 86 133
93 89 128
98 79 135
120 93 166
113 90 157
113 90 157
106 86 145
107 87 149
103 84 143
90 78 126
116 91 162
108 87 149
113 88 155
91 76 129
39 51 75
48 60 90
50 64 94
38 55 70
47 61 87
48 66 88
45 61 82
51 67 93
49 67 90
56 72 102
53 69 98
56 72 102
58 73 107
60 74 111
49 65 90
50 68 93
53 67 98
77 88 118
213 226 244
224 237 255
224 237 255
224 237 255
224 237 255
224 237 255
224 237 255
224 237 255
224 237 255
224 237 255
224 237 255
224 237 255
224 237 255
224 237 255
224 237 255
224 237 255
224 237 255
224 237 255
224 237 255
224 237 255
224 237 255
224 237 255
224 237 255
224 237 255
224 237 255
224 237 255
223 237 255
223 237 255
223 237 255
223 237 255
223 237 255
223 237 255
223 237 255
223 237 255
223 237 255
223 237 255
223 237 255
223 237 255
223 237 255
223 237 255
223 237 255
223 237 255
223 237 255
223 237 255
223 237 255
223 237 255
223 237 255
223 237 255
223 237 255
223 237 255
223 237 255
223 237 255
223 237 255
223 237 255
223 237 255
223 237 255
223 237 255
223 237 255
223 237 255
223 237 255
223 237 255
223 237 255
223 237 255
223 237 255
223 237 255
223 237 255
223 237 255
223 237 255
223 237 255
223 237 255
223 237 255
223 237 255
223 237 255
223 237 255
223 237 255
223 237 255
223 237 255
223 237 255
223 237 255
223 237 255
223 237 255
223 237 255
223 237 255
223 237 255
223 237 255
223 237 255
223 237 255
223 237 255
223 237 255
223 237 255
223 237 255
223 237 255
223 237 255
223 237 255
223 237 255
223 236 255
223 236 255
223 236 255
223 236 255
223 236 255
223 236 255
223 236 255
223 236 255
223 236 255
223 236 255
223 236 255
223 236 255
223 236 255
223 236 255
223 236 255
223 236 255
223 236 255
223 236 255
223 236 255
223 236 255
223 236 255
223 236 255
223 236 255
223 236 255
223 236 255
223 236 255
223 236 255
223 236 255
223 236 255
223 236 255
223 236 255
223 236 255
223 236 255
223 236 255
223 236 255
223 236 255
223 236 255
223 236 255
223 236 255
223 236 255
223 236 255
223 236 255
223 236 255
223 236 255
223 236 255
223 236 255
223 236 255
223 236 255
223 236 255
223 236 255
223 236 255
223 236 255
223 236 255
223 236 255
223 236 255
223 236 255
223 236 255
223 236 255
223 236 255
223 236 255
223 236 255
223 236 255
223 236 255
223 236 255
223 236 255
223 236 255
223 236 255
223 236 255
223 236 255
222 236 255
222 236 255
222 236 255
223 236 255
223 236 255
223 236 255
223 236 255
223 236 255
223 236 255
223 236 255
223 236 255
223 236 255
223 236 255
223 236 255
223 236 255
223 236 255
223 236 255
223 236 255
223 236 255
223 236 255
223 236 255
223 236 255
223 236 255
223 236 255
223 236 255
223 236 255
223 236 255
223 236 255
223 236 255
223 236 255
223 236 255
223 236 255
223 236 255
223 236 255
223 236 255
223 236 255
223 236 255
223 236 255
223 236 255
223 236 255
223 236 255
223 236 255
223 236 255
223 236 255
223 236 255
223 236 255
223 236 255
223 236 255
223 236 255
223 237 255
223 237 255
223 237 255
223 237 255
223 237 255
223 237 255
223 237 255
223 237 255
223 237 255
223 237 255
223 237 255
223 237 255
223 237 255
223 237 255
223 237 255
223 237 255
223 237 255
223 237 255
223 237 255
223 237 255
223 237 255
223 237 255
223 237 255
223 237 255
223 237 255
223 237 255
223 237 255
223 237 255
223 237 255
223 237 255
223 237 255
223 237 255
223 237 255
223 237 255
223 237 255
223 237 255
223 237 255
223 237 255
223 237 255
223 237 255
223 237 255
223 237 255
223 237 255
223 237 255
223 237 255
223 237 255
223 237 255
223 237 255
223 237 255
223 237 255
223 237 255
223 237 255
223 237 255
223 237 255
223 237 255
223 237 255
223 237 255
223 237 255
223 237 255
223 237 255
223 237 255
223 237 255
223 237 255
197 214 226
169 191 194
207 223 237
171 192 194
38 105 44
31 103 36
38 106 44
22 101 25
22 101 25
0 99 0
0 98 0
0 98 0
0 99 0
22 102 25
72 119 84
112 145 130
94 133 110
87 127 104
53 108 66
59 112 71
53 103 73
45 104 60
52 104 69
59 101 83
41 99 59
38 100 54
38 103 49
42 101 60
49 109 62
43 105 56
52 111 62
52 111 62
41 107 51
45 109 57
61 116 76
59 114 72
40 106 51
35 105 44
57 114 72
65 118 80
40 107 51
34 104 44
70 121 88
49 110 62
44 108 57
39 106 51
34 105 44
69 121 88
44 107 57
63 117 80
63 117 80
49 109 62
45 108 57
63 118 80
34 105 44
39 105 51
48 110 62
45 108 57
76 110 102
104 96 142
97 92 134
96 93 132
105 98 144
107 103 145
91 86 126
98 97 134
110 103 149
105 95 144
115 108 155
95 91 131
103 91 144
105 95 146
114 102 156
109 105 147
95 87 131
120 114 160
109 102 147
116 115 152
109 104 143
111 107 148
115 110 153
118 116 156
110 104 143
68 70 91
54 82 72
59 85 84
0 90 0
0 92 0
26 90 34
0 91 0
34 90 48
46 61 66
93 87 128
92 86 132
118 92 162
111 88 153
104 84 143
117 90 161
100 83 139
102 83 141
106 85 145
110 88 153
96 81 135
112 89 155
109 86 149
43 50 66
23 43 42
35 52 64
23 43 42
31 54 56
28 48 52
36 56 67
29 51 52
48 63 88
48 65 88
42 60 77
47 64 85
45 61 82
46 63 85
46 61 85
46 62 85
49 61 90
51 64 95
164 175 196
224 237 255
224 237 255
224 237 255
224 237 255
224 237 255
224 237 255
224 237 255
224 237 255
224 237 255
224 237 255
224 237 255
224 237 255
224 237 255
224 237 255
224 237 255
224 237 255
224 237 255
224 237 255
224 237 255
224 237 255
224 237 255
224 237 255
224 237 255
224 237 255
224 237 255
224 237 255
224 237 255
224 237 255
224 237 255
224 237 255
224 237 255
224 237 255
224 237 255
224 237 255
224 237 255
224 237 255
224 237 255
224 237 255
224 237 255
224 237 255
224 237 255
224 237 255
224 237 255
224 237 255
224 237 255
224 237 255
224 237 255
224 237 255
224 237 255
224 237 255
224 237 255
224 237 255
224 237 255
224 237 255
224 237 255
223 237 255
223 237 255
223 237 255
223 237 255
223 237 255
223 237 255
223 237 255
223 237 255
223 237 255
223 237 255
223 237 255
223 237 255
223 237 255
223 237 255
223 237 255
223 237 255
223 237 255
223 237 255
223 237 255
223 237 255
223 237 255
223 237 255
223 237 255
223 237 255
223 237 255
223 237 255
223 237 255
223 237 255
223 237 255
223 237 255
223 237 255
223 237 255
223 237 255
223 237 255
223 237 255
223 237 255
223 237 255
223 237 255
223 237 255
223 237 255
223 237 255
223 237 255
223 237 255
223 237 255
223 237 255
223 237 255
223 237 255
223 237 255
223 237 255
223 237 255
223 237 255
223 237 255
223 237 255
223 237 255
223 237 255
223 237 255
223 237 255
223 237 255
223 237 255
223 237 255
223 237 255
223 237 255
223 237 255
223 237 255
223 237 255
223 237 255
223 236 255
223 236 255
223 236 255
223 236 255
223 236 255
223 236 255
223 236 255
223 236 255
223 236 255
223 236 255
223 236 255
223 236 255
223 236 255
223 236 255
223 236 255
223 236 255
223 236 255
223 236 255
223 236 255
223 236 255
223 236 255
223 236 255
223 236 255
223 236 255
223 236 255
223 236 255
223 236 255
223 236 255
223 236 255
223 236 255
223 236 255
223 236 255
223 236 255
223 236 255
223 236 255
223 236 255
223 236 255
223 236 255
223 236 255
223 236 255
223 236 255
223 236 255
223 236 255
223 236 255
223 236 255
223 236 255
223 236 255
223 236 255
223 236 255
223 236 255
223 236 255
223 236 255
223 236 255
223 236 255
223 236 255
223 236 255
223 236 255
223 236 255
223 236 255
223 236 255
223 236 255
223 236 255
223 236 255
223 236 255
223 236 255
223 237 255
223 236 255
223 237 255
223 237 255
223 237 255
223 237 255
223 237 255
223 237 255
223 237 255
223 237 255
223 237 255
223 237 255
223 237 255
223 237 255
223 237 255
223 237 255
223 237 255
223 237 255
223 237 255
223 237 255
223 237 255
223 237 255
223 237 255
223 237 255
223 237 255
223 237 255
223 237 255
223 237 255
223 237 255
223 237 255
223 237 255
223 237 255
223 237 255
223 237 255
223 237 255
223 237 255
223 237 255
223 237 255
223 237 255
223 237 255
223 237 255
223 237 255
223 237 255
223 237 255
223 237 255
223 237 255
223 237 255
223 237 255
223 237 255
223 237 255
223 237 255
223 237 255
223 237 255
223 237 255
223 237 255
223 237 255
223 237 255
223 237 255
223 237 255
223 237 255
223 237 255
223 237 255
223 237 255
223 237 255
223 237 255
223 237 255
223 237 255
224 237 255
224 237 255
224 237 255
224 237 255
224 237 255
224 237 255
224 237 255
224 237 255
224 237 255
224 237 255
224 237 255
224 237 255
224 237 255
224 237 255
224 237 255
224 237 255
224 237 255
224 237 255
224 237 255
224 237 255
224 237 255
224 237 255
224 237 255
197 214 226
171 192 196
180 200 206
134 163 153
38 105 44
44 108 51
50 109 57
38 105 44
0 98 0
0 99 0
22 100 25
0 98 0
0 99 0
0 99 0
70 119 80
92 131 108
99 134 116
83 124 101
74 120 88
70 118 84
71 114 90
45 101 60
60 105 81
62 105 84
39 99 54
16 98 24
43 99 64
43 102 60
61 110 78
50 107 66
53 110 67
35 104 44
47 108 57
46 108 57
57 114 72
61 116 76
54 112 67
57 114 72
53 112 67
60 115 76
60 116 76
44 107 57
34 103 44
48 109 62
56 113 72
65 118 84
50 110 62
48 110 62
48 110 62
68 120 88
52 112 67
55 113 72
28 102 36
59 115 76
61 116 80
34 103 44
40 105 51
51 110 67
52 109 67
86 92 117
105 97 143
93 92 130
109 96 148
98 96 134
105 98 142
103 98 140
98 100 134
102 100 139
100 95 136
110 108 148
98 93 132
97 95 130
106 107 140
103 102 139
104 95 140
99 87 139
106 100 141
108 105 145
109 102 145
107 108 140
109 107 142
110 106 143
93 88 124
34 61 48
78 89 103
45 92 64
0 93 0
0 91 0
0 85 0
17 83 24
24 71 34
31 49 42
92 85 128
82 74 113
100 84 137
117 92 162
111 89 153
112 88 155
111 89 153
112 90 155
120 93 166
102 84 143
103 83 141
100 83 139
92 75 127
15 36 29
31 45 61
36 51 66
31 46 56
44 55 79
20 46 37
41 56 74
29 52 52
48 63 88
41 59 74
45 63 82
26 47 47
50 64 90
36 53 67
41 57 74
55 70 100
52 65 95
37 68 67
12 97 21
31 103 36
38 105 44
44 108 51
74 122 84
63 116 72
87 129 99
102 140 117
116 149 133
129 158 147
97 136 111
143 170 163
142 168 161
143 170 163
150 175 171
155 179 177
165 187 188
178 198 203
181 200 206
172 193 196
193 210 220
189 207 215
207 222 236
200 217 228
211 226 241
222 235 253
222 235 253
224 237 255
224 237 255
224 237 255
224 237 255
224 237 255
224 237 255
224 237 255
224 237 255
224 237 255
224 237 255
224 237 255
224 237 255
224 237 255
224 237 255
224 237 255
224 237 255
224 237 255
224 237 255
224 237 255
224 237 255
224 237 255
224 237 255
224 237 255
224 237 255
224 237 255
224 237 255
224 237 255
224 237 255
224 237 255
224 237 255
224 237 255
224 237 255
224 237 255
224 237 255
224 237 255
224 237 255
224 237 255
224 237 255
224 237 255
224 237 255
224 237 255
224 237 255
224 237 255
224 237 255
224 237 255
224 237 255
224 237 255
224 237 255
224 237 255
224 237 255
224 237 255
224 237 255
224 237 255
224 237 255
224 237 255
223 237 255
223 237 255
223 237 255
223 237 255
223 237 255
223 237 255
223 237 255
223 237 255
223 237 255
223 237 255
223 237 255
223 237 255
223 237 255
223 237 255
223 237 255
223 237 255
223 237 255
223 237 255
223 237 255
223 237 255
223 237 255
223 237 255
223 237 255
223 237 255
223 237 255
223 237 255
223 237 255
223 237 255
223 237 255
223 237 255
223 237 255
223 237 255
223 237 255
223 237 255
223 237 255
223 237 255
223 237 255
223 237 255
223 237 255
223 237 255
223 237 255
223 237 255
223 237 255
223 237 255
223 237 255
223 237 255
223 237 255
223 237 255
223 237 255
223 237 255
223 237 255
223 237 255
223 237 255
223 237 255
223 237 255
223 237 255
223 237 255
223 237 255
223 237 255
223 237 255
223 237 255
223 237 255
223 237 255
223 237 255
223 237 255
223 236 255
223 236 255
223 236 255
223 236 255
223 236 255
223 236 255
223 236 255
223 236 255
223 236 255
223 236 255
223 236 255
223 236 255
223 236 255
223 236 255
223 236 255
223 236 255
223 236 255
223 236 255
223 236 255
223 236 255
223 236 255
223 237 255
223 237 255
223 237 255
223 237 255
223 237 255
223 237 255
223 237 255
223 237 255
223 237 255
223 237 255
223 237 255
223 237 255
223 237 255
223 237 255
223 237 255
223 237 255
223 237 255
223 237 255
223 237 255
223 237 255
223 237 255
223 237 255
223 237 255
223 237 255
223 237 255
223 237 255
223 237 255
223 237 255
223 237 255
223 237 255
223 237 255
223 237 255
223 237 255
223 237 255
223 237 255
223 237 255
223 237 255
223 237 255
223 237 255
223 237 255
223 237 255
223 237 255
223 237 255
223 237 255
223 237 255
223 237 255
223 237 255
223 237 255
223 237 255
223 237 255
223 237 255
223 237 255
223 237 255
223 237 255
223 237 255
223 237 255
223 237 255
223 237 255
223 237 255
223 237 255
223 237 255
223 237 255
223 237 255
223 237 255
223 237 255
224 237 255
224 237 255
224 237 255
224 237 255
224 237 255
224 237 255
224 237 255
224 237 255
224 237 255
224 237 255
224 237 255
224 237 255
224 237 255
224 237 255
224 237 255
224 237 255
224 237 255
224 237 255
224 237 255
224 237 255
224 237 255
224 237 255
224 237 255
224 237 255
224 237 255
224 237 255
224 237 255
224 237 255
224 237 255
224 237 255
224 237 255
224 237 255
224 237 255
224 237 255
224 237 255
224 237 255
224 237 255
224 237 255
224 237 255
224 237 255
224 237 255
224 237 255
224 237 255
224 237 255
213 228 244
154 178 177
186 204 212
120 152 137
44 108 51
22 101 25
54 111 62
22 101 25
0 98 0
0 98 0
0 98 0
0 98 0
0 98 0
0 99 0
49 110 57
67 116 80
99 137 114
87 128 102
74 118 90
83 123 101
66 109 85
50 102 69
54 103 73
46 98 64
45 103 64
26 101 35
45 99 68
37 99 54
37 103 49
49 107 66
71 117 91
40 106 51
64 118 80
45 108 57
36 104 44
66 119 84
63 117 80
59 114 76
34 105 44
48 109 62
39 106 51
48 110 62
29 102 36
43 107 57
66 119 84
51 111 67
51 112 67
58 114 76
38 106 51
38 105 51
43 107 57
70 121 92
47 109 62
51 111 67
61 116 80
72 121 92
51 112 67
48 109 62
58 113 76
90 116 120
105 100 145
92 91 125
100 97 136
78 86 107
104 96 140
95 91 129
101 93 138
96 95 130
83 93 111
90 87 124
104 100 141
104 104 138
98 93 134
104 99 140
89 94 118
99 94 134
94 95 125
110 100 150
101 101 133
87 91 115
114 113 146
100 92 134
82 89 107
65 83 89
63 90 82
36 91 48
0 92 0
0 89 0
0 86 0
0 79 0
21 68 32
73 73 97
66 76 90
82 75 113
99 82 137
113 89 155
101 83 139
97 81 135
102 83 141
107 85 149
103 84 143
105 84 145
110 86 147
93 79 128
45 46 68
0 31 0
12 37 21
23 41 44
23 42 42
17 42 30
23 44 42
16 42 30
31 51 56
36 52 64
33 52 60
26 46 47
39 56 71
33 53 60
48 62 88
50 65 90
43 58 80
46 64 85
16 91 30
0 98 0
0 99 0
0 99 0
0 99 0
0 99 0
0 99 0
0 99 0
0 99 0
0 98 0
0 99 0
0 98 0
0 99 0
0 99 0
0 99 0
0 99 0
0 98 0
0 98 0
0 99 0
0 99 0
0 99 0
0 98 0
0 99 0
0 99 0
0 98 0
0 99 0
0 99 0
0 99 0
22 101 25
59 114 67
84 127 95
67 118 76
107 143 122
105 142 120
125 155 142
143 170 163
131 160 149
149 174 169
169 190 193
174 194 198
178 198 203
185 204 211
202 218 230
207 222 236
210 225 240
217 231 248
224 237 255
224 237 255
224 237 255
224 237 255
224 237 255
224 237 255
224 237 255
224 237 255
224 237 255
224 237 255
224 237 255
224 237 255
224 237 255
224 237 255
224 237 255
224 237 255
224 237 255
224 237 255
224 237 255
224 237 255
224 237 255
224 237 255
224 237 255
224 237 255
224 237 255
224 237 255
224 237 255
224 237 255
224 237 255
224 237 255
224 237 255
224 237 255
224 237 255
224 237 255
224 237 255
224 237 255
224 237 255
224 237 255
224 237 255
224 237 255
224 237 255
224 237 255
224 237 255
224 237 255
224 237 255
224 237 255
224 237 255
224 237 255
224 237 255
224 237 255
224 237 255
224 237 255
224 237 255
224 237 255
224 237 255
224 237 255
224 237 255
224 237 255
223 237 255
223 237 255
223 237 255
223 237 255
223 237 255
223 237 255
223 237 255
223 237 255
223 237 255
223 237 255
223 237 255
223 237 255
223 237 255
223 237 255
223 237 255
223 237 255
223 237 255
223 237 255
223 237 255
223 237 255
223 237 255
223 237 255
223 237 255
223 237 255
223 237 255
223 237 255
223 237 255
223 237 255
223 237 255
223 237 255
223 237 255
223 237 255
223 237 255
223 237 255
223 237 255
223 237 255
223 237 255
223 237 255
223 237 255
223 237 255
223 237 255
223 237 255
223 237 255
223 237 255
223 237 255
223 237 255
223 237 255
223 237 255
223 237 255
223 237 255
223 237 255
223 237 255
223 237 255
223 237 255
223 237 255
223 237 255
223 237 255
223 237 255
223 237 255
223 237 255
223 237 255
223 237 255
223 237 255
223 237 255
223 237 255
223 237 255
223 237 255
223 237 255
223 237 255
223 237 255
223 237 255
223 237 255
223 237 255
223 237 255
223 237 255
223 237 255
223 237 255
223 237 255
223 237 255
223 237 255
223 237 255
223 237 255
223 237 255
223 237 255
223 237 255
223 237 255
223 237 255
223 237 255
223 237 255
223 237 255
223 237 255
223 237 255
223 237 255
223 237 255
223 237 255
223 237 255
223 237 255
223 237 255
223 237 255
223 237 255
223 237 255
223 237 255
223 237 255
223 237 255
223 237 255
223 237 255
223 237 255
223 237 255
223 237 255
223 237 255
223 237 255
224 237 255
224 237 255
224 237 255
224 237 255
224 237 255
224 237 255
224 237 255
224 237 255
224 237 255
224 237 255
224 237 255
224 237 255
224 237 255
224 237 255
224 237 255
224 237 255
224 237 255
224 237 255
224 237 255
224 237 255
224 237 255
224 237 255
224 237 255
224 237 255
224 237 255
224 237 255
224 237 255
224 237 255
224 237 255
224 237 255
224 237 255
224 237 255
224 237 255
224 237 255
224 237 255
224 237 255
224 237 255
224 237 255
224 237 255
224 237 255
224 237 255
224 237 255
224 237 255
224 237 255
224 237 255
224 237 255
224 237 255
224 237 255
224 237 255
224 237 255
224 237 255
224 237 255
224 237 255
224 237 255
224 237 255
224 237 255
224 237 255
224 237 255
224 237 255
224 237 255
224 237 255
207 222 236
209 224 238
200 217 228
133 162 153
173 194 198
104 141 120
38 106 44
38 106 44
44 108 51
0 97 0
0 98 0
0 98 0
0 98 0
22 101 25
0 98 0
0 98 0
0 98 0
102 138 119
97 131 115
76 118 90
76 121 91
74 120 91
56 107 70
55 108 70
60 105 81
49 100 68
35 100 48
33 99 48
37 99 54
48 104 65
41 103 55
26 100 35
64 117 80
65 118 80
30 101 36
49 109 62
67 119 84
57 114 72
56 113 72
39 105 51
59 114 76
59 114 76
68 119 88
48 109 62
38 105 51
54 113 72
60 115 76
33 103 44
51 111 67
47 108 62
47 109 62
65 117 84
47 109 62
51 109 67
47 108 62
54 112 72
57 112 76
55 112 72
50 110 67
54 111 72
52 109 67
65 117 84
84 104 113
104 101 141
105 103 146
84 88 113
92 92 125
103 101 141
92 93 125
87 86 120
97 97 133
93 94 127
89 91 120
90 92 120
96 96 130
105 102 139
85 83 117
96 94 127
89 87 120
104 95 140
103 101 137
102 100 135
104 102 135
69 83 89
63 85 82
54 88 70
61 97 78
0 94 0
0 93 0
0 87 0
0 86 0
24 81 34
25 60 34
74 70 103
86 84 118
85 78 116
92 79 128
104 84 143
98 81 135
100 82 137
111 87 151
100 82 139
87 75 118
103 84 141
106 85 145
85 71 118
5 30 17
17 36 39
0 35 0
24 42 42
19 38 36
20 39 37
27 46 47
27 46 47
29 48 52
20 45 37
17 42 30
37 53 67
41 57 74
36 53 64
36 50 64
40 55 74
40 53 74
20 85 37
0 98 0
0 98 0
0 97 0
0 99 0
0 98 0
0 98 0
0 98 0
0 98 0
0 98 0
0 98 0
0 99 0
0 98 0
0 98 0
0 98 0
0 98 0
0 98 0
0 98 0
0 98 0
0 99 0
0 98 0
0 98 0
0 99 0
0 98 0
0 99 0
0 98 0
0 99 0
0 99 0
0 99 0
0 99 0
0 99 0
0 99 0
0 99 0
0 99 0
0 99 0
0 98 0
0 99 0
0 98 0
0 99 0
0 99 0
0 99 0
0 99 0
0 99 0
0 99 0
0 99 0
0 99 0
0 99 0
22 101 25
63 116 72
81 125 92
92 133 105
114 148 130
95 135 108
131 160 149
150 175 171
149 174 169
158 182 181
168 189 191
178 198 203
181 200 206
194 211 221
207 222 236
215 229 245
223 236 254
224 237 255
224 237 255
224 237 255
224 237 255
224 237 255
224 237 255
224 237 255
224 237 255
224 237 255
224 237 255
224 237 255
224 237 255
224 237 255
224 237 255
224 237 255
224 237 255
224 237 255
224 237 255
224 237 255
224 237 255
224 237 255
224 237 255
224 237 255
224 237 255
224 237 255
224 237 255
224 237 255
224 237 255
224 237 255
224 237 255
224 237 255
224 237 255
224 237 255
224 237 255
224 237 255
224 237 255
224 237 255
224 237 255
224 237 255
224 237 255
224 237 255
224 237 255
224 237 255
224 237 255
224 237 255
224 237 255
224 237 255
224 237 255
224 237 255
224 237 255
224 237 255
224 237 255
224 237 255
224 237 255
224 237 255
224 237 255
224 237 255
224 237 255
224 237 255
224 237 255
224 237 255
223 237 255
223 237 255
223 237 255
223 237 255
223 237 255
223 237 255
223 237 255
223 237 255
223 237 255
223 237 255
223 237 255
223 237 255
223 237 255
223 237 255
223 237 255
223 237 255
223 237 255
223 237 255
223 237 255
223 237 255
223 237 255
223 237 255
223 237 255
223 237 255
223 237 255
223 237 255
223 237 255
223 237 255
223 237 255
223 237 255
223 237 255
223 237 255
223 237 255
223 237 255
223 237 255
223 237 255
223 237 255
223 237 255
223 237 255
223 237 255
223 237 255
223 237 255
223 237 255
223 237 255
223 237 255
223 237 255
223 237 255
223 237 255
223 237 255
223 237 255
223 237 255
223 237 255
223 237 255
223 237 255
223 237 255
223 237 255
223 237 255
223 237 255
223 237 255
223 237 255
223 237 255
223 237 255
223 237 255
223 237 255
223 237 255
223 237 255
223 237 255
223 237 255
223 237 255
223 237 255
224 237 255
224 237 255
224 237 255
224 237 255
224 237 255
224 237 255
224 237 255
224 237 255
224 237 255
224 237 255
224 237 255
224 237 255
224 237 255
224 237 255
224 237 255
224 237 255
224 237 255
224 237 255
224 237 255
224 237 255
224 237 255
224 237 255
224 237 255
224 237 255
224 237 255
224 237 255
224 237 255
224 237 255
224 237 255
224 237 255
224 237 255
224 237 255
224 237 255
224 237 255
224 237 255
224 237 255
224 237 255
224 237 255
224 237 255
224 237 255
224 237 255
224 237 255
224 237 255
224 237 255
224 237 255
224 237 255
224 237 255
224 237 255
224 237 255
224 237 255
224 237 255
224 237 255
224 237 255
224 237 255
224 237 255
224 237 255
224 237 255
224 237 255
224 237 255
224 237 255
224 237 255
224 237 255
224 237 255
224 237 255
224 237 255
224 237 255
224 237 255
220 233 250
207 222 236
206 221 234
189 207 215
188 206 214
158 182 181
154 178 175
158 182 181
152 176 173
129 158 147
107 143 122
97 136 111
89 131 102
44 108 51
0 98 0
0 99 0
0 99 0
0 99 0
91 132 105
159 182 182
116 149 133
31 103 36
38 105 44
59 113 67
0 98 0
22 101 25
0 98 0
0 97 0
0 97 0
0 99 0
0 99 0
0 98 0
66 117 76
76 119 94
83 124 98
87 124 106
72 117 87
64 114 79
69 114 86
44 101 60
54 98 76
48 102 65
37 100 54
29 97 42
50 100 72
43 100 64
44 103 60
37 103 49
45 107 57
51 110 62
56 113 72
39 106 51
63 116 80
39 105 51
48 109 62
51 111 67
51 110 67
55 112 72
64 117 84
67 119 88
65 116 84
47 110 62
52 111 67
54 110 72
54 112 72
50 110 67
50 110 67
54 109 72
58 113 76
57 111 76
66 119 88
37 104 51
47 108 62
67 117 88
52 107 67
46 105 62
60 112 80
53 106 71
82 87 112
88 89 120
87 95 118
86 88 118
89 93 120
81 83 110
91 93 123
92 93 125
86 94 116
82 83 111
96 95 130
94 98 128
100 105 132
104 108 138
81 81 107
87 87 117
95 94 127
98 100 130
99 100 128
80 88 102
69 94 90
54 86 70
56 87 77
36 98 44
0 91 0
0 88 0
0 86 0
17 86 24
17 78 24
18 55 24
71 75 97
84 81 116
80 68 111
95 79 133
93 79 128
100 83 137
105 84 145
98 80 135
98 80 135
97 79 133
95 78 130
115 88 157
18 31 24
0 31 0
0 30 0
0 32 0
0 35 0
0 36 0
12 34 21
20 42 37
20 42 37
27 45 47
20 41 37
0 34 0
26 44 47
31 49 56
33 50 60
34 49 64
35 52 64
28 86 52
0 97 0
0 98 0
0 98 0
0 99 0
0 98 0
0 98 0
0 98 0
0 98 0
0 97 0
0 98 0
0 98 0
0 99 0
0 98 0
0 98 0
0 99 0
0 98 0
0 99 0
0 98 0
0 98 0
0 99 0
0 98 0
0 99 0
0 98 0
0 99 0
0 99 0
0 98 0
0 98 0
0 98 0
0 98 0
0 98 0
0 99 0
0 99 0
0 99 0
0 99 0
0 99 0
0 98 0
0 98 0
0 98 0
0 99 0
0 98 0
0 98 0
0 99 0
0 98 0
0 99 0
0 99 0
0 99 0
0 99 0
0 99 0
0 99 0
0 99 0
0 99 0
0 99 0
0 99 0
0 99 0
0 99 0
0 99 0
0 99 0
0 99 0
0 99 0
0 99 0
0 99 0
0 99 0
0 99 0
22 101 25
38 105 44
59 114 67
87 129 99
92 133 105
134 163 153
129 159 147
149 174 169
149 174 169
172 193 196
172 193 196
189 207 215
202 218 230
203 219 231
219 232 249
223 236 254
224 237 255
224 237 255
224 237 255
224 237 255
224 237 255
224 237 255
224 237 255
224 237 255
224 237 255
224 237 255
224 237 255
224 237 255
224 237 255
224 237 255
224 237 255
224 237 255
224 237 255
224 237 255
224 237 255
224 237 255
224 237 255
224 237 255
224 237 255
224 237 255
224 237 255
224 237 255
224 237 255
224 237 255
224 237 255
224 237 255
224 237 255
224 237 255
224 237 255
224 237 255
224 237 255
224 237 255
224 237 255
224 237 255
224 237 255
224 237 255
224 237 255
224 237 255
224 237 255
224 237 255
224 237 255
224 237 255
224 237 255
224 237 255
224 237 255
224 237 255
224 237 255
224 237 255
224 237 255
224 237 255
224 237 255
224 237 255
224 237 255
224 237 255
224 237 255
224 237 255
224 237 255
224 237 255
224 237 255
224 237 255
224 237 255
223 237 255
223 237 255
223 237 255
223 237 255
223 237 255
223 237 255
223 237 255
223 237 255
223 237 255
223 237 255
223 237 255
223 237 255
223 237 255
223 237 255
223 237 255
223 237 255
223 237 255
223 237 255
223 237 255
223 237 255
223 237 255
223 237 255
223 237 255
223 237 255
223 237 255
223 237 255
223 237 255
223 237 255
223 237 255
223 237 255
223 237 255
223 237 255
223 237 255
224 237 255
224 237 255
224 237 255
224 237 255
224 237 255
224 237 255
224 237 255
224 237 255
224 237 255
224 237 255
224 237 255
224 237 255
224 237 255
224 237 255
224 237 255
224 237 255
224 237 255
224 237 255
224 237 255
224 237 255
224 237 255
224 237 255
224 237 255
224 237 255
224 237 255
224 237 255
224 237 255
224 237 255
224 237 255
224 237 255
224 237 255
224 237 255
224 237 255
224 237 255
224 237 255
224 237 255
224 237 255
224 237 255
224 237 255
224 237 255
224 237 255
224 237 255
224 237 255
224 237 255
224 237 255
224 237 255
224 237 255
224 237 255
224 237 255
224 237 255
224 237 255
224 237 255
224 237 255
224 237 255
224 237 255
224 237 255
224 237 255
224 237 255
224 237 255
224 237 255
224 237 255
224 237 255
224 237 255
224 237 255
224 237 255
224 237 255
224 237 255
224 237 255
224 237 255
224 237 255
224 237 255
222 235 253
216 230 246
203 219 231
184 202 209
179 199 204
178 198 203
160 183 182
155 179 177
129 158 147
112 146 128
107 143 122
71 120 80
71 120 80
22 101 25
0 99 0
0 98 0
0 98 0
0 98 0
0 99 0
0 99 0
0 98 0
0 99 0
0 99 0
0 99 0
0 99 0
0 98 0
0 98 0
0 98 0
0 99 0
0 99 0
0 99 0
0 98 0
54 112 62
159 182 182
116 149 133
44 107 51
22 101 25
44 107 51
22 101 25
0 99 0
0 99 0
0 97 0
0 99 0
0 97 0
0 98 0
0 99 0
49 109 57
73 121 84
58 113 67
104 139 122
70 119 84
74 121 88
55 107 70
55 105 74
62 106 85
50 101 69
37 99 54
43 99 59
36 99 54
51 99 72
43 104 56
41 101 54
40 102 55
53 111 67
44 107 57
39 105 51
52 111 67
51 110 67
39 105 51
55 112 72
61 115 80
52 110 67
47 106 62
52 108 67
50 110 67
50 109 67
50 109 67
50 110 67
50 108 67
46 107 62
62 116 84
37 104 51
61 114 80
49 110 67
53 109 72
61 114 80
68 119 92
65 115 88
32 98 44
37 101 51
54 107 72
56 109 76
62 110 84
85 92 116
85 92 116
90 95 121
82 88 113
83 93 113
87 94 118
91 91 123
86 92 115
90 93 120
82 82 112
87 85 117
88 91 118
75 83 101
91 100 119
86 87 113
99 99 130
82 88 108
87 92 113
63 76 85
62 98 76
53 81 69
53 90 69
17 93 24
0 92 0
0 89 0
0 87 0
16 85 24
0 72 0
43 69 59
88 81 121
70 73 97
106 84 145
101 81 137
94 79 128
86 75 118
94 78 128
94 77 128
97 80 133
102 82 141
89 75 121
56 54 79
0 31 0
0 29 0
0 30 0
0 30 0
0 32 0
0 30 0
0 32 0
20 39 37
0 30 0
12 34 21
20 40 37
26 41 47
0 38 0
23 40 42
33 49 60
33 52 60
20 85 37
0 95 0
0 97 0
0 97 0
0 95 0
0 97 0
0 95 0
0 97 0
0 96 0
0 97 0
0 98 0
0 98 0
0 97 0
0 97 0
0 98 0
0 98 0
0 98 0
0 98 0
0 98 0
0 99 0
0 98 0
0 98 0
0 98 0
0 97 0
0 98 0
0 97 0
0 98 0
0 97 0
0 99 0
0 98 0
0 98 0
0 99 0
0 98 0
0 99 0
0 99 0
0 98 0
0 98 0
0 99 0
0 99 0
0 98 0
0 99 0
0 99 0
0 99 0
0 98 0
0 99 0
0 98 0
0 99 0
0 99 0
0 99 0
0 98 0
0 98 0
0 99 0
0 98 0
0 98 0
0 98 0
0 99 0
0 99 0
0 99 0
0 99 0
0 99 0
0 99 0
0 99 0
0 98 0
0 98 0
0 99 0
0 99 0
0 99 0
0 98 0
0 98 0
0 99 0
0 99 0
0 99 0
0 98 0
0 98 0
0 98 0
0 99 0
0 99 0
0 99 0
0 98 0
0 99 0
0 98 0
59 114 67
81 126 92
98 136 111
118 151 135
134 163 153
154 178 175
154 178 175
162 184 184
188 206 214
190 208 217
199 216 227
214 228 244
222 235 253
224 237 255
224 237 255
224 237 255
224 237 255
224 237 255
224 237 255
224 237 255
224 237 255
224 237 255
224 237 255
224 237 255
224 237 255
224 237 255
224 237 255
224 237 255
224 237 255
224 237 255
224 237 255
224 237 255
224 237 255
224 237 255
224 237 255
224 237 255
224 237 255
224 237 255
224 237 255
224 237 255
224 237 255
224 237 255
224 237 255
224 237 255
224 237 255
224 237 255
224 237 255
224 237 255
224 237 255
224 237 255
224 237 255
224 237 255
224 237 255
224 237 255
224 237 255
224 237 255
224 237 255
224 237 255
224 237 255
224 237 255
224 237 255
224 237 255
224 237 255
224 237 255
224 237 255
224 237 255
224 237 255
224 237 255
224 237 255
224 237 255
224 237 255
224 237 255
224 237 255
224 237 255
224 237 255
224 237 255
224 237 255
224 237 255
224 237 255
224 237 255
224 237 255
224 237 255
224 237 255
224 237 255
223 237 255
223 237 255
223 237 255
223 237 255
223 237 255
223 237 255
223 237 255
224 237 255
224 237 255
224 237 255
224 237 255
224 237 255
224 237 255
224 237 255
224 237 255
224 237 255
224 237 255
224 237 255
224 237 255
224 237 255
224 237 255
224 237 255
224 237 255
224 237 255
224 237 255
224 237 255
224 237 255
224 237 255
224 237 255
224 237 255
224 237 255
224 237 255
224 237 255
224 237 255
224 237 255
224 237 255
224 237 255
224 237 255
224 237 255
224 237 255
224 237 255
224 237 255
224 237 255
224 237 255
224 237 255
224 237 255
224 237 255
224 237 255
224 237 255
224 237 255
224 237 255
224 237 255
224 237 255
224 237 255
224 237 255
224 237 255
224 237 255
224 237 255
224 237 255
224 237 255
224 237 255
224 237 255
224 237 255
224 237 255
224 237 255
224 237 255
224 237 255
224 237 255
224 237 255
224 237 255
224 237 255
224 237 255
221 234 252
210 225 240
189 207 215
194 211 221
177 196 201
162 184 184
159 182 181
131 160 149
134 163 153
107 143 122
92 133 105
87 129 99
55 112 62
0 98 0
0 98 0
0 99 0
0 99 0
0 98 0
0 98 0
0 99 0
0 99 0
0 99 0
0 98 0
0 98 0
0 98 0
0 99 0
0 98 0
0 99 0
0 98 0
0 98 0
0 99 0
0 99 0
0 99 0
0 99 0
0 99 0
0 98 0
0 99 0
0 99 0
0 98 0
0 98 0
0 98 0
0 99 0
0 99 0
0 99 0
0 99 0
0 98 0
144 170 165
166 188 189
44 107 51
49 110 57
54 110 62
0 98 0
0 98 0
0 98 0
0 98 0
0 98 0
0 99 0
0 98 0
0 98 0
0 98 0
44 105 56
76 120 91
83 122 101
83 125 98
72 120 84
75 120 91
51 104 65
57 104 77
58 104 81
54 101 73
39 99 54
49 99 72
52 103 73
45 100 64
40 102 55
56 109 75
49 108 62
44 107 57
48 108 62
39 104 51
43 106 57
72 122 95
54 112 72
47 106 62
42 105 57
58 113 76
53 110 72
59 114 80
53 111 72
50 108 67
32 100 44
53 107 72
56 109 76
59 113 80
52 110 72
52 107 72
55 110 76
59 112 80
41 104 57
54 109 72
45 103 62
49 104 67
32 96 44
56 108 76
46 100 62
41 100 57
59 103 80
78 84 106
97 99 131
78 82 107
69 81 93
96 98 131
83 84 112
82 90 111
93 96 126
82 91 111
75 83 102
79 85 104
66 78 88
81 91 105
93 97 121
84 94 108
62 76 79
61 82 76
53 81 70
66 91 89
53 87 70
45 88 60
0 87 0
0 93 0
0 87 0
17 85 24
17 77 24
17 73 24
56 73 76
66 76 90
89 77 123
88 74 121
79 71 108
93 77 126
98 80 135
94 78 130
82 71 111
79 71 108
100 81 135
70 61 97
12 29 21
0 25 0
0 28 0
0 26 0
0 28 0
0 30 0
0 28 0
0 31 0
17 34 30
12 34 21
0 33 0
12 36 21
20 39 37
31 45 56
31 46 56
36 60 64
16 92 30
0 95 0
0 94 0
0 95 0
0 93 0
0 96 0
0 97 0
0 93 0
0 94 0
0 96 0
0 96 0
0 96 0
0 96 0
0 95 0
0 96 0
0 97 0
0 98 0
0 98 0
0 98 0
0 95 0
0 98 0
0 98 0
0 98 0
0 97 0
0 98 0
0 97 0
0 98 0
0 98 0
0 97 0
0 98 0
0 97 0
0 98 0
0 97 0
0 98 0
0 96 0
0 99 0
0 97 0
0 98 0
0 98 0
0 99 0
0 98 0
0 97 0
0 98 0
0 99 0
0 98 0
0 97 0
0 98 0
0 98 0
0 99 0
0 99 0
0 99 0
0 98 0
0 98 0
0 98 0
0 98 0
0 98 0
0 99 0
0 98 0
0 99 0
0 99 0
0 98 0
0 99 0
0 98 0
0 98 0
0 99 0
0 98 0
0 99 0
0 99 0
0 99 0
0 99 0
0 99 0
0 99 0
0 98 0
0 99 0
0 98 0
0 98 0
0 98 0
0 99 0
0 98 0
0 99 0
0 99 0
0 99 0
0 99 0
0 99 0
0 99 0
0 98 0
0 99 0
0 98 0
0 99 0
0 98 0
0 99 0
0 98 0
0 99 0
0 99 0
0 99 0
31 103 36
81 126 92
95 135 108
121 152 137
134 162 153
140 167 159
160 183 182
169 191 193
185 203 211
197 213 224
199 216 227
213 227 242
219 232 249
224 237 255
224 237 255
224 237 255
224 237 255
224 237 255
224 237 255
224 237 255
224 237 255
224 237 255
224 237 255
224 237 255
224 237 255
224 237 255
224 237 255
224 237 255
224 237 255
224 237 255
224 237 255
224 237 255
224 237 255
224 237 255
224 237 255
224 237 255
224 237 255
224 237 255
224 237 255
224 237 255
224 237 255
224 237 255
224 237 255
224 237 255
224 237 255
224 237 255
224 237 255
224 237 255
224 237 255
224 237 255
224 237 255
224 237 255
224 237 255
224 237 255
224 237 255
224 237 255
224 237 255
224 237 255
224 237 255
224 237 255
224 237 255
224 237 255
224 237 255
224 237 255
224 237 255
224 237 255
224 237 255
224 237 255
224 237 255
224 237 255
224 237 255
224 237 255
224 237 255
224 237 255
224 237 255
224 237 255
224 237 255
224 237 255
224 237 255
224 237 255
224 237 255
224 237 255
224 237 255
224 237 255
224 237 255
224 237 255
224 237 255
224 237 255
224 237 255
224 237 255
224 237 255
224 237 255
224 237 255
224 237 255
224 237 255
224 237 255
224 237 255
224 237 255
224 237 255
224 237 255
224 237 255
224 237 255
224 237 255
224 237 255
224 237 255
224 237 255
224 237 255
224 237 255
224 237 255
224 237 255
224 237 255
224 237 255
224 237 255
224 237 255
224 237 255
224 237 255
224 237 255
224 237 255
224 237 255
224 237 255
224 237 255
224 237 255
224 237 255
224 237 255
224 237 255
224 237 255
224 237 255
224 237 255
224 237 255
224 237 255
223 236 254
216 230 246
203 219 231
193 210 220
174 194 198
175 195 199
159 182 181
133 161 151
140 167 159
105 141 120
87 129 99
87 129 99
50 110 57
0 99 0
0 99 0
0 99 0
0 99 0
0 99 0
0 98 0
0 99 0
0 99 0
0 99 0
0 99 0
0 99 0
0 99 0
0 99 0
0 98 0
0 99 0
0 99 0
0 98 0
0 99 0
0 99 0
0 98 0
0 99 0
0 98 0
0 99 0
0 99 0
0 98 0
0 99 0
0 99 0
0 99 0
0 98 0
0 98 0
0 98 0
0 98 0
0 99 0
0 99 0
0 98 0
0 97 0
0 99 0
0 99 0
0 99 0
0 98 0
0 99 0
0 99 0
0 98 0
0 98 0
0 98 0
0 99 0
76 123 88
153 177 175
49 110 57
44 107 51
49 109 57
38 104 44
0 99 0
0 99 0
31 103 36
0 98 0
0 97 0
0 98 0
0 98 0
0 98 0
35 103 43
81 124 95
81 124 95
78 123 91
80 123 95
80 122 98
62 112 75
65 109 85
51 102 73
59 110 78
52 101 77
24 97 34
36 98 54
33 97 48
53 103 73
43 102 56
28 96 42
52 110 67
33 100 44
58 114 76
66 117 84
51 107 67
57 114 76
63 115 84
42 104 57
32 101 44
56 112 76
32 103 44
37 103 51
42 105 57
52 110 72
41 105 57
45 106 62
58 113 80
32 99 44
49 105 67
58 112 80
48 107 67
49 104 67
41 102 57
41 101 57
52 105 72
52 105 72
48 102 67
45 99 62
45 97 62
41 90 57
56 103 76
55 88 75
71 81 96
75 82 101
74 82 99
76 91 100
82 90 111
85 87 113
73 85 96
83 90 110
78 84 102
70 82 92
59 70 78
86 92 111
62 78 79
58 81 72
63 88 79
42 83 55
55 82 77
50 93 65
0 90 0
0 93 0
17 87 24
0 88 0
0 83 0
0 76 0
17 77 24
76 78 103
63 75 87
70 67 97
82 72 113
73 67 100
100 80 137
84 72 116
79 70 108
75 67 100
83 71 113
79 67 108
17 31 30
20 31 37
0 22 0
0 22 0
0 23 0
0 24 0
0 24 0
0 21 0
0 21 0
0 27 0
0 21 0
0 28 0
0 27 0
20 37 37
11 42 21
17 71 30
0 85 0
0 88 0
0 88 0
0 89 0
0 93 0
0 89 0
0 89 0
0 92 0
0 93 0
0 92 0
0 96 0
0 94 0
0 96 0
0 93 0
0 95 0
0 96 0
0 95 0
0 97 0
0 97 0
0 96 0
0 97 0
0 96 0
0 95 0
0 96 0
0 96 0
0 97 0
0 97 0
0 98 0
0 96 0
0 97 0
0 98 0
0 98 0
0 98 0
0 97 0
0 98 0
0 98 0
0 98 0
0 98 0
0 97 0
0 97 0
0 98 0
0 99 0
0 98 0
0 98 0
0 98 0
0 99 0
0 98 0
0 99 0
0 98 0
0 98 0
0 98 0
0 98 0
0 99 0
0 97 0
0 99 0
0 99 0
0 99 0
0 97 0
0 99 0
0 99 0
0 98 0
0 99 0
0 98 0
0 98 0
0 98 0
0 98 0
0 98 0
0 98 0
0 99 0
0 98 0
0 98 0
0 99 0
0 99 0
0 99 0
0 99 0
0 98 0
0 99 0
0 98 0
0 98 0
0 98 0
0 99 0
0 99 0
0 97 0
0 99 0
0 99 0
0 98 0
0 98 0
0 99 0
0 99 0
0 98 0
0 99 0
0 99 0
0 99 0
0 99 0
0 99 0
0 99 0
0 99 0
0 99 0
0 98 0
0 99 0
0 99 0
0 98 0
0 98 0
0 99 0
0 99 0
0 99 0
0 99 0
0 99 0
0 99 0
50 110 57
59 114 67
112 146 128
119 151 135
136 164 155
140 167 159
160 183 182
175 195 199
185 203 211
198 215 226
204 220 233
215 229 245
222 235 253
224 237 255
224 237 255
224 237 255
224 237 255
224 237 255
224 237 255
224 237 255
224 237 255
224 237 255
224 237 255
224 237 255
224 237 255
224 237 255
224 237 255
224 237 255
224 237 255
224 237 255
224 237 255
224 237 255
224 237 255
224 237 255
224 237 255
224 237 255
224 237 255
224 237 255
224 237 255
224 237 255
224 237 255
224 237 255
224 237 255
224 237 255
224 237 255
224 237 255
224 237 255
224 237 255
224 237 255
224 237 255
224 237 255
224 237 255
224 237 255
224 237 255
224 237 255
224 237 255
224 237 255
224 237 255
224 237 255
224 237 255
224 237 255
224 237 255
224 237 255
224 237 255
224 237 255
224 237 255
224 237 255
224 237 255
224 237 255
224 237 255
224 237 255
224 237 255
224 237 255
224 237 255
224 237 255
224 237 255
224 237 255
224 237 255
224 237 255
224 237 255
224 237 255
224 237 255
224 237 255
224 237 255
224 237 255
224 237 255
224 237 255
224 237 255
224 237 255
224 237 255
224 237 255
224 237 255
224 237 255
224 237 255
224 237 255
224 237 255
224 237 255
224 237 255
224 237 255
224 237 255
224 237 255
224 237 255
224 237 255
224 237 255
224 237 255
223 236 254
213 227 242
209 224 238
189 207 215
188 206 214
182 201 207
165 187 188
150 175 171
134 163 153
105 141 120
107 143 122
77 124 88
38 106 44
0 99 0
0 99 0
0 99 0
0 98 0
0 99 0
0 99 0
0 98 0
0 99 0
0 98 0
0 98 0
0 99 0
0 99 0
0 99 0
0 98 0
0 99 0
0 99 0
0 99 0
0 98 0
0 99 0
0 99 0
0 98 0
0 99 0
0 99 0
0 98 0
0 99 0
0 99 0
0 98 0
0 99 0
0 99 0
0 99 0
0 99 0
0 99 0
0 99 0
0 99 0
0 99 0
0 98 0
0 99 0
0 98 0
0 98 0
0 98 0
0 99 0
0 98 0
0 98 0
0 99 0
0 98 0
0 99 0
0 98 0
0 99 0
0 98 0
0 98 0
0 99 0
0 98 0
0 99 0
0 99 0
0 98 0
0 98 0
0 98 0
0 98 0
22 101 25
166 188 191
89 130 102
58 113 67
31 103 36
0 98 0
0 98 0
0 98 0
0 97 0
0 97 0
0 97 0
0 97 0
0 99 0
0 98 0
0 96 0
52 108 62
72 116 87
71 119 84
94 132 110
73 118 91
92 130 113
68 116 84
41 101 54
53 100 73
49 98 68
42 98 59
40 96 59
46 97 68
46 102 65
46 104 61
38 102 50
52 110 67
56 111 72
48 109 62
47 109 62
50 107 67
46 108 62
58 112 76
50 109 67
42 104 57
49 107 67
59 112 80
67 115 92
32 99 44
64 116 88
41 105 57
48 107 67
45 102 62
52 109 72
48 107 67
32 97 44
36 97 51
52 109 72
44 100 62
58 108 80
41 91 57
58 106 80
45 99 62
52 104 72
37 88 51
55 100 76
52 98 71
49 93 67
49 82 66
49 80 66
65 84 86
74 84 99
66 75 89
65 78 86
71 83 93
69 80 90
79 89 103
72 83 93
51 62 66
73 89 91
72 95 88
54 71 70
42 77 55
44 91 56
40 83 54
27 94 35
0 92 0
0 89 0
0 88 0
0 88 0
26 81 34
16 82 24
39 73 54
61 68 84
68 73 94
75 68 103
86 73 118
85 72 113
88 75 121
88 74 121
87 74 118
78 69 105
75 68 103
43 55 59
12 29 21
12 25 21
17 27 30
0 20 0
0 16 0
0 22 0
0 19 0
0 26 0
0 20 0
12 26 21
0 21 0
20 31 37
11 46 21
11 63 21
0 71 0
0 76 0
0 77 0
0 77 0
0 80 0
0 81 0
0 87 0
0 86 0
0 84 0
0 85 0
0 87 0
0 88 0
0 87 0
0 93 0
0 92 0
0 93 0
0 93 0
0 95 0
0 93 0
0 91 0
0 94 0
0 96 0
0 95 0
0 94 0
0 98 0
0 96 0
0 96 0
0 96 0
0 95 0
0 97 0
0 97 0
0 97 0
0 96 0
0 96 0
0 97 0
0 96 0
0 97 0
0 98 0
0 98 0
0 96 0
0 96 0
0 97 0
0 98 0
0 98 0
0 99 0
0 97 0
0 99 0
0 97 0
0 98 0
0 98 0
0 97 0
0 98 0
0 97 0
0 98 0
0 98 0
0 98 0
0 98 0
0 98 0
0 97 0
0 98 0
0 99 0
0 98 0
0 97 0
0 97 0
0 99 0
0 99 0
0 98 0
0 98 0
0 99 0
0 98 0
0 99 0
0 98 0
0 98 0
0 98 0
0 98 0
0 99 0
0 99 0
0 99 0
0 98 0
0 98 0
0 99 0
0 99 0
0 99 0
0 99 0
0 98 0
0 99 0
0 98 0
0 99 0
0 99 0
0 98 0
0 99 0
0 98 0
0 99 0
0 99 0
0 99 0
0 98 0
0 98 0
0 99 0
0 99 0
0 98 0
0 99 0
0 99 0
0 99 0
0 99 0
0 98 0
0 99 0
0 98 0
0 98 0
0 99 0
0 99 0
0 99 0
0 99 0
0 99 0
0 98 0
0 99 0
0 98 0
0 99 0
0 98 0
0 99 0
0 98 0
0 99 0
0 99 0
0 99 0
0 99 0
87 129 99
100 138 114
107 143 122
119 151 135
149 174 169
162 184 184
174 194 198
190 208 217
194 211 221
198 215 226
223 236 254
224 237 255
224 237 255
224 237 255
224 237 255
224 237 255
224 237 255
224 237 255
224 237 255
224 237 255
224 237 255
224 237 255
224 237 255
224 237 255
224 237 255
224 237 255
224 237 255
224 237 255
224 237 255
224 237 255
224 237 255
224 237 255
224 237 255
224 237 255
224 237 255
224 237 255
224 237 255
224 237 255
224 237 255
224 237 255
224 237 255
224 237 255
224 237 255
224 237 255
224 237 255
224 237 255
224 237 255
224 237 255
224 237 255
224 237 255
224 237 255
224 237 255
224 237 255
224 237 255
224 237 255
224 237 255
224 237 255
224 237 255
224 237 255
224 237 255
224 237 255
224 237 255
224 237 255
224 237 255
224 237 255
224 237 255
224 237 255
224 237 255
224 237 255
224 237 255
224 237 255
224 237 255
224 237 255
224 237 255
224 237 255
224 237 255
224 237 255
224 237 255
224 237 255
224 237 255
223 236 254
216 230 246
209 224 238
198 215 226
184 202 209
185 204 211
163 186 186
144 170 163
127 157 144
116 149 133
84 127 95
71 120 80
22 101 25
0 99 0
0 99 0
0 99 0
0 99 0
0 98 0
0 99 0
0 99 0
0 99 0
0 98 0
0 99 0
0 99 0
0 99 0
0 99 0
0 99 0
0 98 0
0 99 0
0 99 0
0 98 0
0 98 0
0 99 0
0 98 0
0 99 0
0 98 0
0 98 0
0 99 0
0 99 0
0 99 0
0 99 0
0 99 0
0 98 0
0 99 0
0 99 0
0 98 0
0 98 0
0 98 0
0 99 0
0 99 0
0 98 0
0 98 0
0 99 0
0 98 0
0 99 0
0 98 0
0 99 0
0 99 0
0 99 0
0 99 0
0 98 0
0 98 0
0 99 0
0 98 0
0 98 0
0 99 0
0 99 0
0 98 0
0 98 0
0 99 0
0 98 0
0 99 0
0 98 0
0 99 0
0 99 0
0 99 0
0 98 0
0 99 0
0 98 0
0 98 0
0 98 0
0 98 0
0 99 0
0 98 0
104 141 120
128 158 147
49 110 57
30 103 36
44 106 51
0 97 0
21 100 25
0 97 0
22 100 25
0 98 0
0 96 0
0 98 0
0 98 0
0 97 0
18 98 24
71 117 87
67 117 80
93 131 110
80 123 98
76 121 91
49 107 61
77 118 97
58 102 80
32 98 48
50 101 69
53 104 70
44 98 64
37 96 54
35 100 49
51 107 66
47 106 62
50 108 62
47 108 62
47 107 62
51 108 67
57 112 76
42 104 57
46 106 62
56 110 76
45 106 62
52 110 72
67 117 92
52 108 72
45 103 62
63 114 88
60 112 84
63 113 88
0 90 0
44 102 62
36 96 51
51 105 72
31 92 44
54 103 76
36 94 51
40 95 57
44 97 62
36 89 51
31 85 44
37 90 51
61 99 84
52 90 72
32 77 44
46 83 62
51 79 67
39 69 51
53 78 71
58 69 78
61 81 80
55 70 71
61 75 79
35 53 44
69 86 88
82 100 102
71 98 88
56 85 71
25 77 34
33 82 43
49 87 65
55 94 71
0 90 0
0 93 0
0 90 0
0 87 0
0 84 0
0 77 0
31 70 42
51 71 68
64 75 87
69 70 94
68 62 94
77 68 105
65 62 87
84 72 113
89 74 121
97 77 130
71 65 97
25 53 34
0 47 0
0 39 0
0 36 0
17 33 30
0 21 0
0 7 0
0 11 0
0 14 0
0 15 0
0 17 0
0 24 0
12 42 21
0 44 0
0 46 0
0 53 0
0 58 0
0 72 0
0 71 0
0 77 0
0 74 0
0 73 0
0 74 0
0 79 0
0 79 0
0 84 0
0 83 0
0 87 0
0 86 0
0 88 0
0 87 0
0 89 0
0 90 0
0 89 0
0 91 0
0 91 0
0 92 0
0 91 0
0 92 0
0 91 0
0 94 0
0 95 0
0 95 0
0 95 0
0 95 0
0 96 0
0 94 0
0 96 0
0 95 0
0 95 0
0 96 0
0 97 0
0 95 0
0 97 0
0 97 0
0 97 0
0 98 0
0 96 0
0 97 0
0 97 0
0 97 0
0 96 0
0 98 0
0 97 0
0 97 0
0 98 0
0 98 0
0 97 0
0 97 0
0 98 0
0 98 0
0 98 0
0 98 0
0 98 0
0 97 0
0 98 0
0 99 0
0 98 0
0 99 0
0 99 0
0 98 0
0 98 0
0 99 0
0 98 0
0 98 0
0 98 0
0 97 0
0 98 0
0 98 0
0 99 0
0 98 0
0 98 0
0 98 0
0 99 0
0 99 0
0 99 0
0 99 0
0 98 0
0 98 0
0 99 0
0 98 0
0 98 0
0 99 0
0 98 0
0 99 0
0 99 0
0 98 0
0 98 0
0 99 0
0 98 0
0 99 0
0 98 0
0 98 0
0 98 0
0 98 0
0 99 0
0 99 0
0 99 0
0 98 0
0 99 0
0 98 0
0 99 0
0 98 0
0 99 0
0 99 0
0 99 0
0 99 0
0 99 0
0 99 0
0 98 0
0 99 0
0 99 0
0 99 0
0 98 0
0 98 0
0 99 0
0 99 0
0 99 0
0 99 0
0 99 0
0 99 0
0 99 0
0 99 0
0 98 0
0 99 0
0 99 0
0 99 0
0 99 0
0 99 0
0 99 0
0 99 0
22 101 25
67 118 76
112 146 128
103 140 117
123 154 140
159 182 181
162 184 184
177 196 201
185 204 211
194 211 221
207 222 236
212 226 241
224 237 255
224 237 255
224 237 255
224 237 255
224 237 255
224 237 255
224 237 255
224 237 255
224 237 255
224 237 255
224 237 255
224 237 255
224 237 255
224 237 255
224 237 255
224 237 255
224 237 255
224 237 255
224 237 255
224 237 255
224 237 255
224 237 255
224 237 255
224 237 255
224 237 255
224 237 255
224 237 255
224 237 255
224 237 255
224 237 255
224 237 255
224 237 255
224 237 255
224 237 255
224 237 255
224 237 255
224 237 255
224 237 255
224 237 255
224 237 255
224 237 255
224 237 255
224 237 255
224 237 255
224 237 255
224 237 255
216 230 246
208 223 237
208 223 237
186 205 212
177 196 201
154 178 175
159 182 181
133 161 151
129 158 147
105 141 120
67 118 76
38 106 44
0 99 0
0 98 0
0 99 0
0 98 0
0 99 0
0 99 0
0 99 0
0 99 0
0 98 0
0 99 0
0 98 0
0 99 0
0 99 0
0 99 0
0 99 0
0 99 0
0 99 0
0 98 0
0 98 0
0 99 0
0 98 0
0 98 0
0 99 0
0 99 0
0 99 0
0 99 0
0 99 0
0 99 0
0 99 0
0 98 0
0 98 0
0 99 0
0 98 0
0 98 0
0 99 0
0 99 0
0 99 0
0 99 0
0 98 0
0 98 0
0 99 0
0 98 0
0 99 0
0 98 0
0 99 0
0 98 0
0 99 0
0 99 0
0 98 0
0 98 0
0 99 0
0 99 0
0 98 0
0 99 0
0 98 0
0 99 0
0 98 0
0 99 0
0 98 0
0 98 0
0 98 0
0 98 0
0 99 0
0 98 0
0 99 0
0 99 0
0 99 0
0 98 0
0 99 0
0 99 0
0 98 0
0 98 0
0 97 0
0 98 0
0 98 0
0 98 0
0 98 0
0 98 0
0 98 0
0 97 0
0 98 0
0 98 0
0 98 0
49 109 57
149 174 171
44 107 51
31 103 36
31 102 36
44 107 51
0 96 0
0 98 0
22 100 25
0 97 0
0 97 0
0 97 0
0 98 0
0 98 0
0 98 0
62 114 72
72 119 84
69 116 84
72 119 84
91 132 108
83 123 101
80 121 98
49 107 62
55 102 77
46 99 68
55 100 80
52 100 72
47 97 68
36 96 54
36 100 49
55 103 74
43 106 57
51 108 67
43 103 57
38 103 51
57 111 76
32 98 44
37 102 51
45 106 62
55 110 76
41 101 57
49 107 67
41 103 57
45 102 62
58 110 80
44 101 62
48 100 67
40 100 57
60 109 84
48 104 67
48 103 67
54 104 76
44 97 62
40 89 57
54 103 76
40 90 57
31 84 44
52 96 72
73 111 102
37 83 51
32 76 44
45 80 62
56 89 76
32 71 44
42 76 57
38 65 51
47 74 62
61 85 80
55 80 72
52 75 67
69 92 88
63 88 80
62 95 76
53 87 67
43 84 56
57 91 75
48 88 65
47 91 60
18 91 24
0 90 0
0 88 0
0 84 0
17 87 24
17 88 24
17 75 24
18 64 24
65 73 87
56 68 76
91 76 123
77 68 105
80 69 108
65 61 87
57 60 80
78 67 105
53 56 72
26 58 34
0 41 0
0 38 0
0 48 0
0 31 0
0 43 0
0 35 0
0 34 0
0 38 0
0 37 0
0 34 0
0 47 0
0 38 0
0 42 0
0 44 0
0 49 0
0 54 0
0 66 0
0 68 0
0 62 0
0 68 0
0 69 0
0 72 0
0 76 0
0 77 0
0 77 0
0 74 0
0 82 0
0 78 0
0 79 0
0 86 0
0 86 0
0 86 0
0 87 0
0 89 0
0 90 0
0 91 0
0 91 0
0 91 0
0 89 0
0 88 0
0 94 0
0 92 0
0 94 0
0 91 0
0 95 0
0 96 0
0 95 0
0 96 0
0 94 0
0 96 0
0 97 0
0 95 0
0 96 0
0 94 0
0 96 0
0 95 0
0 98 0
0 97 0
0 97 0
0 97 0
0 96 0
0 95 0
0 97 0
0 97 0
0 97 0
0 97 0
0 97 0
0 97 0
0 99 0
0 98 0
0 97 0
0 98 0
0 98 0
0 98 0
0 98 0
0 98 0
0 99 0
0 98 0
0 97 0
0 99 0
0 97 0
0 98 0
0 97 0
0 99 0
0 99 0
0 97 0
0 98 0
0 99 0
0 99 0
0 98 0
0 99 0
0 97 0
0 99 0
0 98 0
0 97 0
0 98 0
0 98 0
0 98 0
0 98 0
0 98 0
0 99 0
0 99 0
0 98 0
0 98 0
0 98 0
0 99 0
0 99 0
0 98 0
0 99 0
0 99 0
0 97 0
0 99 0
0 99 0
0 99 0
0 99 0
0 98 0
0 98 0
0 99 0
0 99 0
0 98 0
0 99 0
0 98 0
0 99 0
0 99 0
0 98 0
0 98 0
0 98 0
0 99 0
0 99 0
0 99 0
0 98 0
0 99 0
0 98 0
0 99 0
0 99 0
0 98 0
0 99 0
0 99 0
0 99 0
0 98 0
0 98 0
0 98 0
0 99 0
0 99 0
0 99 0
0 99 0
0 98 0
0 99 0
0 99 0
0 98 0
0 99 0
0 99 0
0 99 0
0 99 0
0 99 0
0 99 0
0 98 0
0 98 0
0 99 0
0 99 0
0 98 0
0 99 0
0 99 0
44 108 51
67 118 76
116 149 133
112 146 128
133 161 151
152 177 173
188 206 214
179 199 204
190 208 217
207 222 236
207 222 236
223 236 254
224 237 255
224 237 255
224 237 255
224 237 255
224 237 255
224 237 255
224 237 255
224 237 255
224 237 255
224 237 255
224 237 255
224 237 255
224 237 255
224 237 255
224 237 255
224 237 255
224 237 255
224 237 255
224 237 255
224 237 255
224 237 255
224 237 255
224 237 255
215 229 245
201 217 228
202 218 230
193 210 220
166 188 189
152 176 173
147 172 167
136 164 155
92 133 105
90 131 102
50 110 57
0 98 0
0 99 0
0 99 0
0 99 0
0 99 0
0 99 0
0 99 0
0 99 0
0 98 0
0 99 0
0 99 0
0 99 0
0 99 0
0 99 0
0 99 0
0 99 0
0 98 0
0 99 0
0 99 0
0 98 0
0 98 0
0 99 0
0 99 0
0 99 0
0 99 0
0 98 0
0 98 0
0 99 0
0 99 0
0 98 0
0 99 0
0 99 0
0 99 0
0 99 0
0 99 0
0 98 0
0 98 0
0 98 0
0 99 0
0 98 0
0 99 0
0 99 0
0 99 0
0 98 0
0 98 0
0 99 0
0 98 0
0 98 0
0 98 0
0 99 0
0 99 0
0 98 0
0 99 0
0 98 0
0 99 0
0 99 0
0 98 0
0 99 0
0 98 0
0 98 0
0 98 0
0 99 0
0 99 0
0 98 0
0 99 0
0 99 0
0 99 0
0 98 0
0 98 0
0 98 0
0 98 0
0 98 0
0 99 0
0 99 0
0 98 0
0 99 0
0 98 0
0 99 0
0 98 0
0 98 0
0 99 0
0 98 0
0 99 0
0 98 0
0 98 0
0 98 0
0 98 0
0 98 0
0 98 0
0 99 0
0 98 0
0 99 0
0 98 0
0 99 0
0 98 0
0 97 0
96 135 111
106 142 122
38 104 44
38 104 44
59 114 67
0 98 0
0 97 0
0 97 0
0 96 0
0 97 0
0 95 0
0 97 0
0 97 0
0 97 0
0 98 0
41 103 50
61 111 75
67 115 80
89 127 107
83 126 98
68 117 80
69 112 86
64 109 82
61 101 84
46 101 65
45 101 64
46 99 68
52 98 73
55 105 75
48 103 65
79 119 106
38 104 51
51 109 67
46 106 62
50 109 67
66 117 88
59 111 80
64 114 88
45 103 62
32 99 44
59 108 80
58 110 80
36 97 51
60 111 84
31 95 44
36 97 51
48 105 67
44 95 62
40 95 57
54 102 76
47 95 67
48 98 67
36 94 51
48 97 67
36 89 51
36 89 51
46 92 62
41 90 57
46 89 62
45 88 62
45 81 62
43 80 57
47 85 62
53 85 72
57 87 76
51 80 67
61 89 80
56 88 72
53 85 67
70 105 88
61 94 76
69 105 84
45 86 56
53 91 70
58 94 78
34 86 43
19 93 25
0 93 0
0 92 0
0 88 0
0 88 0
0 81 0
0 81 0
0 74 0
31 64 42
60 75 84
82 73 111
62 58 84
80 68 108
73 65 100
47 52 64
57 57 76
54 64 72
0 59 0
0 56 0
0 61 0
0 53 0
0 51 0
0 54 0
0 50 0
0 51 0
0 50 0
0 59 0
0 47 0
0 58 0
0 55 0
0 55 0
0 56 0
0 62 0
0 60 0
0 66 0
0 64 0
0 58 0
0 65 0
0 73 0
0 75 0
0 74 0
0 74 0
0 74 0
0 77 0
0 77 0
0 81 0
0 80 0
0 82 0
0 85 0
0 87 0
0 91 0
0 90 0
0 85 0
0 90 0
0 90 0
0 89 0
0 91 0
0 90 0
0 91 0
0 93 0
0 89 0
0 92 0
0 93 0
0 95 0
0 92 0
0 94 0
0 92 0
0 94 0
0 95 0
0 95 0
0 95 0
0 94 0
0 94 0
0 95 0
0 97 0
0 96 0
0 97 0
0 94 0
0 94 0
0 95 0
0 97 0
0 98 0
0 95 0
0 97 0
0 97 0
0 97 0
0 97 0
0 95 0
0 98 0
0 97 0
0 98 0
0 99 0
0 97 0
0 96 0
0 97 0
0 96 0
0 98 0
0 98 0
0 99 0
0 98 0
0 98 0
0 98 0
0 98 0
0 98 0
0 98 0
0 98 0
0 98 0
0 98 0
0 98 0
0 99 0
0 98 0
0 98 0
0 99 0
0 99 0
0 99 0
0 98 0
0 98 0
0 99 0
0 99 0
0 98 0
0 99 0
0 98 0
0 98 0
0 99 0
0 97 0
0 98 0
0 99 0
0 99 0
0 99 0
0 98 0
0 98 0
0 99 0
0 99 0
0 98 0
0 99 0
0 97 0
0 98 0
0 99 0
0 98 0
0 99 0
0 98 0
0 98 0
0 98 0
0 98 0
0 99 0
0 98 0
0 99 0
0 98 0
0 98 0
0 99 0
0 99 0
0 99 0
0 99 0
0 99 0
0 99 0
0 99 0
0 99 0
0 99 0
0 98 0
0 99 0
0 99 0
0 99 0
0 99 0
0 99 0
0 99 0
0 99 0
0 99 0
0 98 0
0 98 0
0 99 0
0 99 0
0 99 0
0 99 0
0 99 0
0 99 0
0 99 0
0 98 0
0 99 0
0 99 0
0 99 0
0 99 0
0 99 0
0 99 0
0 98 0
0 98 0
0 99 0
0 99 0
0 99 0
0 99 0
0 99 0
0 99 0
0 99 0
0 99 0
0 98 0
59 114 67
77 124 88
112 146 128
133 161 151
140 167 159
165 187 188
175 195 199
181 200 206
197 214 224
209 224 238
221 234 252
224 237 255
224 237 255
224 237 255
224 237 255
224 237 255
224 237 255
162 184 184
145 171 165
103 140 117
107 143 122
77 124 88
38 105 44
0 99 0
0 99 0
0 99 0
0 99 0
0 99 0
0 99 0
0 99 0
0 99 0
0 99 0
0 99 0
0 99 0
0 98 0
0 98 0
0 99 0
0 98 0
0 99 0
0 99 0
0 98 0
0 99 0
0 99 0
0 99 0
0 99 0
0 98 0
0 98 0
0 99 0
0 98 0
0 99 0
0 98 0
0 98 0
0 99 0
0 99 0
0 98 0
0 99 0
0 99 0
0 98 0
0 98 0
0 99 0
0 99 0
0 98 0
0 99 0
0 99 0
0 99 0
0 99 0
0 99 0
0 99 0
0 99 0
0 99 0
0 99 0
0 99 0
0 98 0
0 98 0
0 99 0
0 99 0
0 99 0
0 99 0
0 99 0
0 99 0
0 98 0
0 99 0
0 98 0
0 98 0
0 99 0
0 99 0
0 99 0
0 98 0
0 98 0
0 99 0
0 98 0
0 98 0
0 98 0
0 98 0
0 98 0
0 99 0
0 98 0
0 98 0
0 99 0
0 98 0
0 99 0
0 98 0
0 98 0
0 99 0
0 99 0
0 99 0
0 98 0
0 99 0
0 99 0
0 99 0
0 98 0
0 98 0
0 98 0
0 98 0
0 99 0
0 98 0
0 98 0
0 96 0
0 98 0
0 98 0
0 99 0
0 98 0
0 97 0
0 98 0
0 98 0
0 97 0
0 98 0
0 98 0
0 97 0
0 98 0
22 100 25
126 156 144
30 103 36
22 99 25
54 111 62
38 105 44
0 98 0
21 100 25
0 96 0
0 97 0
0 97 0
0 98 0
0 98 0
0 97 0
0 97 0
31 102 36
62 114 72
68 114 83
61 114 72
64 114 76
87 126 104
69 114 87
63 111 79
53 106 70
58 103 78
61 98 84
50 100 68
43 100 60
51 98 72
42 102 56
54 107 71
58 112 76
61 111 80
19 97 25
50 105 67
39 100 51
46 104 62
56 108 76
49 104 67
53 107 72
47 104 62
45 100 62
57 111 80
51 106 72
44 103 62
44 101 62
54 105 76
60 107 84
25 88 36
36 91 51
57 105 80
42 98 57
40 93 57
36 92 51
49 97 67
54 100 76
55 96 76
58 98 80
45 89 62
45 84 62
41 87 57
46 86 62
42 85 57
61 93 80
49 87 62
39 77 51
71 104 91
53 93 67
75 109 95
78 111 99
62 103 76
62 100 80
43 91 56
49 90 65
27 83 35
39 94 50
0 89 0
0 94 0
0 93 0
0 90 0
0 89 0
17 84 24
18 81 24
17 65 24
60 71 80
52 66 72
69 63 94
51 53 68
65 62 87
67 61 90
47 53 64
25 59 34
0 58 0
0 58 0
0 59 0
0 59 0
0 58 0
0 63 0
0 62 0
0 60 0
0 60 0
0 66 0
0 55 0
0 64 0
0 71 0
0 63 0
0 74 0
0 69 0
0 67 0
0 67 0
0 69 0
0 74 0
0 76 0
0 70 0
0 72 0
0 75 0
0 79 0
0 78 0
0 81 0
0 79 0
0 82 0
0 79 0
0 83 0
0 87 0
0 89 0
0 87 0
0 86 0
0 89 0
0 86 0
0 88 0
0 90 0
0 92 0
0 91 0
0 90 0
0 91 0
0 90 0
0 90 0
0 92 0
0 90 0
0 90 0
0 90 0
0 94 0
0 92 0
0 95 0
0 93 0
0 94 0
0 96 0
0 95 0
0 94 0
0 94 0
0 95 0
0 98 0
0 98 0
0 96 0
0 97 0
0 97 0
0 96 0
0 98 0
0 98 0
0 96 0
0 97 0
0 97 0
0 97 0
0 98 0
0 98 0
0 97 0
0 98 0
0 98 0
0 98 0
0 98 0
0 98 0
0 97 0
0 98 0
0 97 0
0 96 0
0 98 0
0 97 0
0 98 0
0 97 0
0 98 0
0 98 0
0 98 0
0 98 0
0 98 0
0 98 0
0 99 0
0 98 0
0 97 0
0 98 0
0 99 0
0 98 0
0 97 0
0 98 0
0 98 0
0 98 0
0 98 0
0 98 0
0 98 0
0 98 0
0 98 0
0 98 0
0 98 0
0 98 0
0 99 0
0 99 0
0 99 0
0 98 0
0 99 0
0 98 0
0 98 0
0 98 0
0 99 0
0 98 0
0 99 0
0 98 0
0 98 0
0 99 0
0 99 0
0 99 0
0 99 0
0 99 0
0 99 0
0 99 0
0 99 0
0 99 0
0 97 0
0 99 0
0 99 0
0 98 0
0 98 0
0 98 0
0 99 0
0 99 0
0 99 0
0 98 0
0 98 0
0 99 0
0 98 0
0 99 0
0 99 0
0 99 0
0 99 0
0 99 0
0 99 0
0 99 0
0 99 0
0 99 0
0 99 0
0 99 0
0 99 0
0 98 0
0 98 0
0 98 0
0 99 0
0 98 0
0 99 0
0 98 0
0 99 0
0 98 0
0 99 0
0 98 0
0 99 0
0 98 0
0 99 0
0 98 0
0 99 0
0 99 0
0 98 0
0 99 0
0 98 0
0 98 0
0 98 0
0 99 0
0 99 0
0 99 0
0 99 0
0 99 0
0 98 0
0 99 0
0 99 0
0 98 0
22 101 25
67 118 76
116 150 133
133 161 151
136 164 155
152 176 173
0 98 0
0 99 0
0 99 0
0 99 0
0 98 0
0 99 0
0 99 0
0 99 0
0 99 0
0 99 0
0 98 0
0 98 0
0 98 0
0 99 0
0 99 0
0 98 0
0 98 0
0 99 0
0 99 0
0 99 0
0 99 0
0 99 0
0 99 0
0 98 0
0 99 0
0 99 0
0 99 0
0 99 0
0 98 0
0 98 0
0 99 0
0 98 0
0 99 0
0 99 0
0 99 0
0 98 0
0 99 0
0 99 0
0 99 0
0 98 0
0 99 0
0 99 0
0 99 0
0 99 0
0 99 0
0 99 0
0 99 0
0 99 0
0 99 0
0 98 0
0 98 0
0 99 0
0 99 0
0 97 0
0 98 0
0 99 0
0 99 0
0 98 0
0 99 0
0 98 0
0 99 0
0 99 0
0 99 0
0 98 0
0 99 0
0 98 0
0 98 0
0 99 0
0 98 0
0 98 0
0 98 0
0 98 0
0 99 0
0 98 0
0 99 0
0 98 0
0 98 0
0 99 0
0 98 0
0 98 0
0 99 0
0 99 0
0 98 0
0 98 0
0 99 0
0 98 0
0 98 0
0 98 0
0 98 0
0 98 0
0 97 0
0 99 0
0 98 0
0 99 0
0 98 0
0 98 0
0 98 0
0 98 0
0 98 0
0 98 0
0 99 0
0 97 0
0 98 0
0 98 0
0 98 0
0 98 0
0 98 0
0 98 0
0 99 0
0 97 0
0 98 0
0 98 0
0 98 0
0 98 0
94 133 108
99 138 114
43 105 51
30 101 36
22 100 25
0 98 0
0 97 0
0 96 0
0 98 0
0 98 0
0 95 0
0 97 0
0 97 0
0 98 0
0 97 0
31 102 36
70 115 87
59 111 71
60 111 75
93 131 110
77 121 91
70 118 84
61 109 78
72 115 91
46 101 64
52 100 73
44 96 64
40 96 59
59 99 84
49 106 66
46 103 61
47 107 62
50 109 67
33 100 44
50 107 67
37 101 51
62 114 84
58 109 76
36 101 51
65 114 88
46 103 62
44 99 62
36 98 51
44 103 62
53 104 72
48 102 67
31 95 44
40 101 57
52 102 72
42 96 57
31 91 44
57 105 80
31 87 44
40 96 57
53 95 72
59 103 80
45 94 62
55 101 76
53 97 72
41 89 57
48 93 62
53 101 72
33 85 44
57 102 76
44 92 57
59 102 76
60 102 76
57 97 72
60 99 75
57 94 75
44 88 60
59 100 75
56 98 75
25 85 34
0 92 0
0 93 0
17 92 24
0 85 0
0 89 0
0 85 0
17 86 24
0 77 0
36 66 48
39 74 54
57 56 76
69 60 94
57 52 76
57 58 76
51 61 68
0 49 0
0 58 0
0 57 0
0 54 0
0 59 0
0 58 0
0 66 0
0 65 0
0 66 0
0 68 0
0 66 0
0 64 0
0 67 0
0 70 0
0 69 0
0 70 0
0 71 0
0 72 0
0 79 0
0 80 0
0 74 0
0 76 0
0 73 0
0 77 0
0 76 0
0 81 0
0 80 0
0 78 0
0 83 0
0 82 0
0 81 0
0 86 0
0 85 0
0 85 0
0 87 0
0 89 0
0 88 0
0 89 0
0 86 0
0 89 0
0 86 0
0 91 0
0 91 0
0 90 0
0 92 0
0 93 0
0 92 0
0 92 0
0 90 0
0 94 0
0 91 0
0 94 0
0 94 0
0 92 0
0 95 0
0 95 0
0 94 0
0 95 0
0 96 0
0 94 0
0 96 0
0 94 0
0 95 0
0 95 0
0 95 0
0 95 0
0 96 0
0 96 0
0 96 0
0 94 0
0 97 0
0 97 0
0 98 0
0 97 0
0 98 0
0 96 0
0 98 0
0 98 0
0 96 0
0 97 0
0 97 0
0 96 0
0 98 0
0 98 0
0 96 0
0 97 0
0 98 0
0 97 0
0 97 0
0 97 0
0 98 0
0 97 0
0 97 0
0 97 0
0 98 0
0 99 0
0 98 0
0 98 0
0 98 0
0 98 0
0 98 0
0 97 0
0 97 0
0 98 0
0 98 0
0 98 0
0 98 0
0 97 0
0 99 0
0 98 0
0 99 0
0 98 0
0 98 0
0 98 0
0 99 0
0 99 0
0 98 0
0 99 0
0 98 0
0 98 0
0 98 0
0 98 0
0 98 0
0 98 0
0 99 0
0 98 0
0 99 0
0 98 0
0 99 0
0 99 0
0 98 0
0 98 0
0 98 0
0 98 0
0 98 0
0 99 0
0 99 0
0 99 0
0 99 0
0 99 0
0 98 0
0 99 0
0 99 0
0 99 0
0 99 0
0 98 0
0 99 0
0 98 0
0 98 0
0 98 0
0 99 0
0 98 0
0 99 0
0 98 0
0 98 0
0 99 0
0 99 0
0 99 0
0 98 0
0 98 0
0 99 0
0 99 0
0 98 0
0 99 0
0 98 0
0 98 0
0 99 0
0 98 0
0 98 0
0 98 0
0 99 0
0 99 0
0 99 0
0 98 0
0 98 0
0 98 0
0 99 0
0 98 0
0 99 0
0 99 0
0 98 0
0 99 0
0 99 0
0 98 0
0 99 0
0 98 0
0 99 0
0 98 0
0 98 0
0 99 0
0 99 0
0 99 0
0 99 0
0 99 0
0 99 0
0 99 0
0 99 0
0 99 0
0 99 0
0 99 0
0 99 0
0 98 0
0 98 0
0 98 0
0 99 0
0 99 0
0 99 0
0 98 0
0 99 0
0 99 0
0 99 0
0 98 0
0 98 0
0 98 0
0 98 0
0 98 0
0 99 0
0 99 0
0 99 0
0 99 0
0 99 0
0 98 0
0 99 0
0 99 0
0 98 0
0 99 0
0 99 0
0 99 0
0 99 0
0 99 0
0 98 0
0 98 0
0 99 0
0 99 0
0 99 0
0 98 0
0 98 0
0 98 0
0 98 0
0 99 0
0 98 0
0 99 0
0 98 0
0 99 0
0 99 0
0 98 0
0 99 0
0 99 0
0 98 0
0 99 0
0 99 0
0 99 0
0 98 0
0 99 0
0 99 0
0 98 0
0 99 0
0 99 0
0 99 0
0 99 0
0 99 0
0 98 0
0 98 0
0 98 0
0 99 0
0 99 0
0 99 0
0 98 0
0 98 0
0 98 0
0 99 0
0 98 0
0 99 0
0 99 0
0 99 0
0 99 0
0 98 0
0 99 0
0 99 0
0 98 0
0 99 0
0 97 0
0 98 0
0 98 0
0 97 0
0 97 0
0 98 0
0 98 0
0 98 0
0 98 0
0 98 0
0 98 0
0 99 0
0 97 0
0 98 0
0 97 0
0 98 0
0 98 0
0 97 0
0 98 0
0 98 0
0 98 0
0 99 0
0 97 0
0 97 0
0 98 0
0 96 0
0 98 0
0 96 0
0 98 0
0 98 0
22 100 25
113 146 130
53 111 62
49 109 57
44 105 51
31 102 36
0 98 0
0 96 0
0 99 0
0 97 0
0 97 0
0 98 0
0 97 0
0 97 0
0 96 0
0 97 0
22 99 25
64 113 76
51 107 62
64 109 79
80 123 98
76 120 91
79 120 100
62 110 79
62 112 79
57 102 77
43 101 60
52 101 73
53 96 76
61 105 86
28 94 42
63 111 84
53 107 71
60 110 80
54 107 72
54 108 72
56 108 76
37 101 51
52 106 72
41 98 57
62 113 84
46 106 62
51 107 72
40 101 57
44 99 62
51 100 72
46 100 62
52 106 72
50 103 67
44 99 62
63 107 88
40 98 57
60 107 84
41 92 57
60 107 84
49 93 67
41 94 57
45 93 62
53 94 72
56 98 76
54 97 72
47 93 62
54 97 72
65 105 84
52 98 67
66 108 84
70 110 88
77 115 95
64 98 82
47 93 61
53 92 70
38 88 49
32 85 42
0 92 0
0 91 0
0 91 0
0 90 0
0 89 0
0 91 0
0 89 0
15 79 24
17 68 24
40 69 54
47 71 64
44 48 59
44 44 59
35 45 48
0 49 0
0 50 0
0 51 0
0 54 0
0 50 0
0 59 0
0 55 0
0 61 0
0 61 0
0 63 0
0 68 0
0 64 0
0 73 0
0 71 0
0 70 0
0 71 0
0 75 0
0 76 0
0 76 0
0 76 0
0 79 0
0 80 0
0 76 0
0 80 0
0 81 0
0 83 0
0 80 0
0 83 0
0 82 0
0 80 0
0 83 0
0 84 0
0 87 0
0 85 0
0 89 0
0 86 0
0 90 0
0 86 0
0 86 0
0 90 0
0 91 0
0 92 0
0 89 0
0 91 0
0 88 0
0 92 0
0 90 0
0 91 0
0 92 0
0 91 0
0 92 0
0 93 0
0 94 0
0 90 0
0 92 0
0 93 0
0 94 0
0 93 0
0 95 0
0 95 0
0 91 0
0 95 0
0 95 0
0 92 0
0 93 0
0 93 0
0 96 0
0 94 0
0 97 0
0 97 0
0 96 0
0 94 0
0 94 0
0 97 0
0 96 0
0 94 0
0 96 0
0 96 0
0 96 0
0 94 0
0 97 0
0 95 0
0 97 0
0 96 0
0 98 0
0 98 0
0 98 0
0 96 0
0 98 0
0 98 0
0 98 0
0 98 0
0 97 0
0 97 0
0 98 0
0 98 0
0 98 0
0 98 0
0 98 0
0 99 0
0 98 0
0 99 0
0 97 0
0 98 0
0 97 0
0 99 0
0 97 0
0 98 0
0 98 0
0 98 0
0 98 0
0 97 0
0 97 0
0 98 0
0 98 0
0 98 0
0 98 0
0 98 0
0 98 0
0 99 0
0 98 0
0 98 0
0 98 0
0 98 0
0 98 0
0 99 0
0 98 0
0 98 0
0 98 0
0 98 0
0 99 0
0 98 0
0 99 0
0 98 0
0 98 0
0 98 0
0 99 0
0 99 0
0 99 0
0 98 0
0 98 0
0 98 0
0 99 0
0 98 0
0 99 0
0 98 0
0 99 0
0 99 0
0 98 0
0 98 0
0 99 0
0 99 0
0 99 0
0 99 0
0 99 0
0 99 0
0 98 0
0 99 0
0 98 0
0 98 0
0 99 0
0 99 0
0 98 0
0 98 0
0 99 0
0 99 0
0 98 0
0 99 0
0 98 0
0 99 0
0 99 0
0 99 0
0 98 0
0 99 0
0 99 0
0 99 0
0 99 0
0 99 0
0 99 0
0 99 0
0 99 0
0 99 0
0 99 0
0 98 0
0 99 0
0 99 0
0 99 0
0 99 0
0 99 0
0 98 0
0 99 0
0 98 0
0 99 0
0 99 0
0 99 0
0 99 0
0 99 0
0 99 0
0 99 0
0 99 0
0 99 0
0 99 0
0 98 0
0 98 0
0 98 0
0 99 0
0 98 0
0 99 0
0 98 0
0 99 0
0 99 0
0 98 0
0 98 0
0 99 0
0 98 0
0 99 0
0 99 0
0 99 0
0 98 0
0 99 0
0 98 0
0 99 0
0 98 0
0 99 0
0 99 0
0 98 0
0 99 0
0 99 0
0 99 0
0 99 0
0 98 0
0 98 0
0 98 0
0 99 0
0 99 0
0 98 0
0 98 0
0 98 0
0 98 0
0 99 0
0 99 0
0 99 0
0 99 0
0 99 0
0 99 0
0 98 0
0 98 0
0 99 0
0 99 0
0 98 0
0 99 0
0 99 0
0 98 0
0 98 0
0 98 0
0 99 0
0 98 0
0 98 0
0 99 0
0 99 0
0 99 0
0 98 0
0 98 0
0 99 0
0 99 0
0 99 0
0 99 0
0 99 0
0 98 0
0 98 0
0 98 0
0 99 0
0 99 0
0 99 0
0 99 0
0 99 0
0 99 0
0 98 0
0 98 0
0 98 0
0 98 0
0 98 0
0 98 0
0 98 0
0 98 0
0 98 0
0 98 0
0 98 0
0 98 0
0 98 0
0 98 0
0 98 0
0 98 0
0 99 0
0 98 0
0 97 0
0 98 0
0 99 0
0 98 0
0 98 0
0 98 0
0 98 0
0 97 0
0 98 0
0 96 0
0 98 0
0 97 0
0 97 0
0 98 0
0 97 0
0 97 0
0 98 0
0 96 0
0 97 0
43 107 51
89 130 102
43 107 51
44 105 51
38 105 44
31 100 36
0 98 0
0 96 0
0 97 0
0 96 0
0 98 0
0 96 0
0 97 0
0 97 0
0 96 0
0 97 0
49 107 61
62 115 72
75 119 88
62 112 76
66 112 80
78 118 97
84 123 104
75 115 94
55 106 71
54 106 71
63 101 88
45 96 64
43 100 60
45 96 64
52 103 74
50 105 67
54 108 72
54 110 72
56 112 76
57 109 76
46 103 62
56 109 76
54 109 72
49 106 67
58 109 80
36 98 51
31 94 44
33 94 44
28 93 36
48 102 67
49 97 67
57 106 80
44 100 62
33 95 44
63 108 88
41 93 57
45 103 62
50 99 67
45 95 62
57 106 76
59 105 80
62 105 84
46 93 62
67 109 88
70 114 92
47 99 62
53 97 67
56 101 72
69 108 88
74 113 91
67 106 87
48 91 65
45 91 57
30 88 42
36 88 49
0 91 0
0 94 0
0 93 0
0 91 0
0 91 0
0 89 0
0 87 0
0 88 0
0 80 0
36 65 48
39 67 54
35 46 48
18 32 24
0 32 0
0 42 0
0 41 0
0 42 0
0 51 0
0 46 0
0 51 0
0 64 0
0 64 0
0 62 0
0 59 0
0 69 0
0 63 0
0 68 0
0 66 0
0 70 0
0 69 0
0 79 0
0 75 0
0 74 0
0 77 0
0 74 0
0 78 0
0 78 0
0 79 0
0 84 0
0 85 0
0 82 0
0 83 0
0 88 0
0 82 0
0 86 0
0 82 0
0 91 0
0 86 0
0 86 0
0 83 0
0 85 0
0 87 0
0 86 0
0 91 0
0 91 0
0 93 0
0 91 0
0 89 0
0 90 0
0 88 0
0 92 0
0 90 0
0 93 0
0 92 0
0 92 0
0 89 0
0 93 0
0 94 0
0 92 0
0 93 0
0 92 0
0 94 0
0 93 0
0 94 0
0 95 0
0 96 0
0 94 0
0 93 0
0 97 0
0 92 0
0 94 0
0 97 0
0 97 0
0 97 0
0 95 0
0 95 0
0 96 0
0 97 0
0 92 0
0 95 0
0 96 0
0 96 0
0 96 0
0 96 0
0 97 0
0 98 0
0 96 0
0 98 0
0 97 0
0 97 0
0 96 0
0 96 0
0 95 0
0 99 0
0 98 0
0 97 0
0 97 0
0 97 0
0 97 0
0 98 0
0 98 0
0 97 0
0 97 0
0 98 0
0 98 0
0 97 0
0 98 0
0 98 0
0 98 0
0 97 0
0 98 0
0 99 0
0 97 0
0 98 0
0 98 0
0 98 0
0 98 0
0 99 0
0 98 0
0 98 0
0 98 0
0 98 0
0 98 0
0 97 0
0 99 0
0 98 0
0 98 0
0 98 0
0 98 0
0 98 0
0 99 0
0 99 0
0 98 0
0 98 0
0 99 0
0 98 0
0 98 0
0 98 0
0 98 0
0 98 0
0 97 0
0 98 0
0 98 0
0 98 0
0 99 0
0 99 0
0 99 0
0 98 0
0 98 0
0 98 0
0 98 0
0 98 0
0 99 0
0 98 0
0 99 0
0 99 0
0 98 0
0 99 0
0 98 0
0 99 0
0 99 0
0 98 0
0 99 0
0 99 0
0 99 0
0 98 0
0 98 0
0 99 0
0 99 0
0 99 0
0 99 0
0 98 0
0 99 0
0 99 0
0 99 0
0 99 0
0 99 0
0 99 0
0 98 0
0 99 0
0 99 0
0 98 0
0 98 0
0 99 0
0 98 0
0 98 0
0 98 0
0 99 0
0 99 0
0 99 0
0 98 0
0 99 0
0 98 0
0 99 0
0 98 0
0 98 0
0 98 0
0 98 0
0 99 0
0 99 0
0 98 0
0 99 0
0 99 0
0 99 0
0 99 0
0 99 0
0 98 0
0 99 0
0 99 0
0 99 0
0 99 0
0 99 0
0 99 0
0 98 0
0 98 0
0 98 0
0 99 0
0 98 0
0 99 0
0 99 0
0 98 0
0 99 0
0 98 0
0 99 0
0 98 0
0 99 0
0 98 0
0 98 0
0 98 0
0 98 0
0 98 0
0 98 0
0 99 0
0 97 0
0 98 0
0 98 0
0 99 0
0 99 0
0 99 0
0 98 0
0 99 0
0 98 0
0 98 0
0 99 0
0 99 0
0 99 0
0 98 0
0 99 0
0 99 0
0 99 0
0 98 0
0 99 0
0 97 0
0 99 0
0 99 0
0 98 0
0 99 0
0 98 0
0 98 0
0 98 0
0 98 0
0 97 0
0 99 0
0 99 0
0 98 0
0 98 0
0 99 0
0 98 0
0 99 0
0 98 0
0 98 0
0 98 0
0 98 0
0 99 0
0 99 0
0 98 0
0 98 0
0 98 0
0 98 0
0 98 0
0 98 0
0 98 0
0 98 0
0 98 0
0 98 0
0 98 0
0 99 0
0 98 0
0 99 0
0 98 0
0 98 0
0 98 0
0 97 0
0 97 0
0 99 0
0 98 0
0 99 0
0 98 0
0 98 0
0 98 0
0 98 0
0 96 0
0 97 0
0 97 0
0 98 0
0 98 0
0 99 0
0 98 0
0 98 0
0 98 0
0 97 0
0 98 0
0 98 0
0 96 0
0 97 0
0 97 0
0 98 0
0 98 0
0 97 0
0 97 0
82 126 95
54 110 62
0 96 0
31 102 36
44 106 51
22 99 25
0 97 0
0 95 0
0 96 0
0 97 0
0 97 0
0 96 0
0 98 0
0 96 0
0 95 0
0 97 0
21 99 25
49 106 61
70 119 84
48 106 57
56 109 67
81 122 98
86 126 104
60 112 75
72 117 91
50 104 66
53 104 70
56 103 78
52 94 76
39 96 54
38 97 54
58 109 76
54 109 72
60 112 80
56 109 76
50 103 67
32 98 44
43 99 57
37 100 51
41 100 57
41 100 57
52 105 72
45 100 62
49 105 67
52 102 72
39 93 51
41 99 57
48 98 67
55 104 76
52 102 72
67 112 92
31 91 44
37 96 51
42 95 57
60 104 80
53 100 72
69 114 92
43 95 57
58 98 76
51 104 67
62 108 80
63 106 80
84 121 105
72 110 88
44 94 61
46 95 57
51 97 66
48 94 62
54 98 71
0 91 0
0 91 0
0 92 0
0 92 0
0 91 0
0 83 0
0 86 0
0 90 0
0 81 0
16 68 24
36 61 48
24 58 34
0 39 0
0 35 0
0 31 0
0 39 0
0 49 0
0 46 0
0 56 0
0 58 0
0 67 0
0 56 0
0 61 0
0 58 0
0 61 0
0 62 0
0 66 0
0 76 0
0 74 0
0 75 0
0 76 0
0 78 0
0 72 0
0 79 0
0 79 0
0 77 0
0 79 0
0 83 0
0 82 0
0 85 0
0 86 0
0 84 0
0 85 0
0 88 0
0 84 0
0 85 0
0 85 0
0 87 0
0 86 0
0 85 0
0 87 0
0 90 0
0 91 0
0 90 0
0 90 0
0 89 0
0 91 0
0 92 0
0 92 0
0 88 0
0 93 0
0 91 0
0 91 0
0 90 0
0 93 0
0 92 0
0 92 0
0 95 0
0 91 0
0 91 0
0 94 0
0 92 0
0 93 0
0 92 0
0 95 0
0 92 0
0 95 0
0 97 0
0 94 0
0 95 0
0 93 0
0 94 0
0 96 0
0 96 0
0 95 0
0 97 0
0 95 0
0 96 0
0 94 0
0 97 0
0 95 0
0 96 0
0 97 0
0 97 0
0 96 0
0 95 0
0 96 0
0 98 0
0 97 0
0 96 0
0 97 0
0 96 0
0 97 0
0 98 0
0 97 0
0 97 0
0 97 0
0 97 0
0 98 0
0 96 0
0 97 0
0 97 0
0 98 0
0 98 0
0 97 0
0 97 0
0 97 0
0 98 0
0 98 0
0 96 0
0 96 0
0 98 0
0 98 0
0 98 0
0 97 0
0 98 0
0 98 0
0 98 0
0 98 0
0 97 0
0 98 0
0 98 0
0 97 0
0 98 0
0 98 0
0 97 0
0 98 0
0 98 0
0 98 0
0 98 0
0 98 0
0 98 0
0 98 0
0 99 0
0 97 0
0 98 0
0 99 0
0 98 0
0 98 0
0 98 0
0 99 0
0 98 0
0 97 0
0 98 0
0 99 0
0 98 0
0 99 0
0 98 0
0 98 0
0 98 0
0 99 0
0 98 0
0 98 0
0 98 0
0 98 0
0 99 0
0 99 0
0 98 0
0 99 0
0 99 0
0 99 0
0 98 0
0 98 0
0 99 0
0 99 0
0 99 0
0 99 0
0 98 0
0 99 0
0 98 0
0 99 0
0 99 0
0 99 0
0 99 0
0 99 0
0 98 0
0 99 0
0 99 0
0 98 0
0 99 0
0 99 0
0 98 0
0 98 0
0 99 0
0 98 0
0 99 0
0 98 0
0 99 0
0 99 0
0 99 0
0 98 0
0 99 0
0 99 0
0 99 0
0 98 0
0 99 0
0 98 0
0 99 0
0 99 0
0 98 0
0 99 0
0 99 0
0 99 0
0 98 0
0 98 0
0 99 0
0 98 0
0 99 0
0 99 0
0 99 0
0 98 0
0 99 0
0 99 0
0 99 0
0 98 0
0 99 0
0 98 0
0 98 0
0 99 0
0 99 0
0 98 0
0 98 0
0 99 0
0 98 0
0 99 0
0 99 0
0 99 0
0 99 0
0 99 0
0 98 0
0 99 0
0 98 0
0 98 0
0 99 0
0 99 0
0 99 0
0 98 0
0 98 0
0 98 0
0 99 0
0 99 0
0 99 0
0 98 0
0 98 0
0 99 0
0 98 0
0 99 0
0 99 0
0 99 0
0 99 0
0 98 0
0 99 0
0 98 0
0 98 0
0 98 0
0 98 0
0 98 0
0 99 0
0 98 0
0 98 0
0 99 0
0 99 0
0 98 0
0 98 0
0 99 0
0 98 0
0 99 0
0 99 0
0 98 0
0 98 0
0 97 0
0 98 0
0 99 0
0 99 0
0 98 0
0 98 0
0 98 0
0 98 0
0 97 0
0 98 0
0 99 0
0 99 0
0 98 0
0 98 0
0 98 0
0 98 0
0 97 0
0 98 0
0 99 0
0 99 0
0 99 0
0 96 0
0 99 0
0 98 0
0 96 0
0 96 0
0 98 0
0 97 0
0 98 0
0 97 0
0 99 0
0 97 0
0 98 0
0 98 0
0 99 0
0 98 0
0 98 0
0 97 0
0 97 0
0 97 0
0 96 0
0 97 0
0 98 0
0 96 0
0 98 0
0 97 0
0 98 0
0 97 0
0 98 0
0 98 0
0 97 0
0 97 0
108 142 125
53 111 62
21 98 25
22 100 25
31 103 36
0 96 0
0 96 0
0 98 0
0 97 0
0 96 0
0 98 0
0 96 0
0 97 0
0 94 0
0 98 0
0 96 0
27 100 35
82 121 101
62 112 72
53 106 67
76 121 88
65 115 76
77 118 94
74 120 91
74 114 96
67 113 87
58 108 78
43 100 56
44 100 60
63 108 86
49 105 66
62 113 80
55 106 72
47 104 62
57 108 76
57 110 76
46 104 62
38 95 51
46 102 62
49 104 67
50 104 67
49 103 67
56 108 76
41 97 57
72 116 99
49 102 67
59 107 80
42 99 57
41 98 57
56 105 76
56 102 76
62 111 84
51 104 67
57 105 76
58 102 76
47 99 62
51 99 67
55 100 72
60 104 76
56 104 72
54 103 67
73 115 91
58 99 75
52 97 67
56 104 72
40 95 51
35 93 44
19 94 25
0 92 0
0 94 0
0 90 0
0 88 0
0 88 0
0 88 0
0 86 0
17 88 24
0 77 0
18 63 24
52 69 72
0 42 0
0 53 0
0 45 0
0 59 0
0 52 0
0 55 0
0 53 0
0 60 0
0 60 0
0 67 0
0 60 0
0 62 0
0 65 0
0 68 0
0 73 0
0 72 0
0 75 0
0 75 0
0 76 0
0 77 0
0 75 0
0 79 0
0 78 0
0 83 0
0 82 0
0 82 0
0 79 0
0 80 0
0 85 0
0 87 0
0 86 0
0 87 0
0 84 0
0 87 0
0 86 0
0 85 0
0 88 0
0 87 0
0 90 0
0 90 0
0 90 0
0 86 0
0 90 0
0 90 0
0 90 0
0 89 0
0 92 0
0 89 0
0 89 0
0 91 0
0 90 0
0 92 0
0 92 0
0 90 0
0 92 0
0 94 0
0 90 0
0 93 0
0 93 0
0 92 0
0 90 0
0 94 0
0 93 0
0 95 0
0 96 0
0 97 0
0 92 0
0 94 0
0 96 0
0 95 0
0 95 0
0 93 0
0 96 0
0 95 0
0 96 0
0 96 0
0 96 0
0 96 0
0 96 0
0 96 0
0 94 0
0 96 0
0 97 0
0 96 0
0 97 0
0 97 0
0 97 0
0 96 0
0 96 0
0 95 0
0 97 0
0 96 0
0 97 0
0 97 0
0 97 0
0 97 0
0 96 0
0 96 0
0 97 0
0 96 0
0 98 0
0 97 0
0 99 0
0 98 0
0 98 0
0 97 0
0 96 0
0 97 0
0 97 0
0 98 0
0 97 0
0 97 0
0 97 0
0 98 0
0 98 0
0 98 0
0 99 0
0 97 0
0 97 0
0 96 0
0 96 0
0 99 0
0 97 0
0 99 0
0 98 0
0 97 0
0 99 0
0 98 0
0 98 0
0 97 0
0 98 0
0 98 0
0 99 0
0 98 0
0 98 0
0 98 0
0 98 0
0 98 0
0 98 0
0 99 0
0 99 0
0 97 0
0 98 0
0 98 0
0 99 0
0 98 0
0 98 0
0 98 0
0 99 0
0 98 0
0 99 0
0 99 0
0 98 0
0 98 0
0 98 0
0 98 0
0 99 0
0 98 0
0 99 0
0 99 0
0 98 0
0 98 0
0 97 0
0 99 0
0 98 0
0 98 0
0 98 0
0 98 0
0 99 0
0 98 0
0 98 0
0 99 0
0 99 0
0 98 0
0 99 0
0 98 0
0 99 0
0 99 0
0 99 0
0 99 0
0 98 0
0 99 0
0 98 0
0 99 0
0 99 0
0 98 0
0 98 0
0 98 0
0 99 0
0 99 0
0 99 0
0 99 0
0 98 0
0 98 0
0 98 0
0 99 0
0 98 0
0 98 0
0 99 0
0 99 0
0 99 0
0 99 0
0 98 0
0 98 0
0 99 0
0 99 0
0 99 0
0 98 0
0 99 0
0 98 0
0 99 0
0 98 0
0 98 0
0 99 0
0 99 0
0 99 0
0 99 0
0 99 0
0 98 0
0 99 0
0 99 0
0 99 0
0 98 0
0 99 0
0 99 0
0 98 0
0 98 0
0 99 0
0 99 0
0 98 0
0 98 0
0 98 0
0 98 0
0 99 0
0 98 0
0 99 0
0 98 0
0 98 0
0 98 0
0 98 0
0 99 0
0 98 0
0 98 0
0 98 0
0 98 0
0 98 0
0 98 0
0 99 0
0 99 0
0 98 0
0 98 0
0 98 0
0 98 0
0 98 0
0 99 0
0 99 0
0 99 0
0 99 0
0 99 0
0 98 0
0 98 0
0 98 0
0 99 0
0 99 0
0 98 0
0 99 0
0 98 0
0 99 0
0 97 0
0 98 0
0 96 0
0 99 0
0 98 0
0 98 0
0 99 0
0 98 0
0 99 0
0 99 0
0 98 0
0 98 0
0 98 0
0 98 0
0 98 0
0 97 0
0 98 0
0 97 0
0 99 0
0 97 0
0 99 0
0 98 0
0 99 0
0 97 0
0 96 0
0 97 0
0 98 0
0 98 0
0 98 0
0 97 0
0 98 0
0 98 0
0 97 0
0 99 0
0 97 0
0 98 0
0 98 0
0 97 0
0 97 0
0 98 0
0 98 0
0 97 0
0 97 0
0 97 0
0 98 0
0 97 0
0 97 0
0 98 0
0 98 0
0 97 0
0 98 0
0 95 0
0 98 0
38 102 44
123 154 142
37 104 44
30 100 36
70 118 80
22 98 25
0 96 0
0 98 0
0 96 0
0 98 0
0 96 0
0 98 0
0 96 0
0 95 0
22 100 25
0 97 0
0 96 0
22 99 25
60 108 75
61 109 75
66 114 80
70 115 87
72 119 84
85 127 102
75 120 92
58 110 71
75 120 92
57 105 75
60 111 76
56 106 75
39 99 51
49 105 62
62 112 80
58 112 76
38 99 51
47 103 62
57 108 76
57 108 76
50 106 67
57 107 76
60 110 80
45 99 62
45 101 62
62 111 84
62 110 84
65 111 88
56 106 76
56 107 76
62 109 84
50 98 67
66 113 88
18 87 25
50 104 67
57 103 76
59 102 76
52 99 67
52 102 67
60 108 76
72 113 92
66 111 80
68 112 84
64 108 80
68 110 84
42 94 56
52 100 67
39 97 50
0 94 0
0 92 0
0 94 0
0 90 0
0 95 0
0 87 0
0 86 0
0 89 0
0 85 0
0 84 0
0 67 0
30 69 42
18 54 24
0 53 0
0 57 0
0 54 0
0 62 0
0 63 0
0 62 0
0 58 0
0 69 0
0 78 0
0 68 0
0 74 0
0 71 0
0 70 0
0 76 0
0 77 0
0 74 0
0 76 0
0 71 0
0 73 0
0 77 0
0 84 0
0 87 0
0 82 0
0 83 0
0 86 0
0 84 0
0 83 0
0 86 0
0 87 0
0 86 0
0 88 0
0 81 0
0 88 0
0 89 0
0 90 0
0 89 0
0 90 0
0 89 0
0 90 0
0 90 0
0 89 0
0 89 0
0 91 0
0 90 0
0 94 0
0 88 0
0 89 0
0 91 0
0 91 0
0 89 0
0 92 0
0 88 0
0 94 0
0 94 0
0 93 0
0 91 0
0 93 0
0 91 0
0 91 0
0 91 0
0 91 0
0 94 0
0 95 0
0 95 0
0 89 0
0 96 0
0 94 0
0 95 0
0 94 0
0 93 0
0 96 0
0 95 0
0 96 0
0 94 0
0 95 0
0 96 0
0 96 0
0 98 0
0 95 0
0 97 0
0 94 0
0 96 0
0 96 0
0 97 0
0 95 0
0 97 0
0 97 0
0 96 0
0 97 0
0 96 0
0 98 0
0 96 0
0 98 0
0 96 0
0 97 0
0 97 0
0 98 0
0 96 0
0 97 0
0 96 0
0 97 0
0 98 0
0 97 0
0 97 0
0 98 0
0 97 0
0 97 0
0 96 0
0 97 0
0 97 0
0 96 0
0 95 0
0 97 0
0 97 0
0 97 0
0 98 0
0 98 0
0 99 0
0 98 0
0 98 0
0 98 0
0 97 0
0 98 0
0 98 0
0 98 0
0 97 0
0 97 0
0 98 0
0 98 0
0 98 0
0 97 0
0 98 0
0 98 0
0 98 0
0 98 0
0 98 0
0 97 0
0 98 0
0 99 0
0 98 0
0 98 0
0 98 0
0 98 0
0 99 0
0 98 0
0 98 0
0 98 0
0 98 0
0 98 0
0 98 0
0 99 0
0 98 0
0 99 0
0 98 0
0 98 0
0 98 0
0 98 0
0 98 0
0 98 0
0 99 0
0 98 0
0 99 0
0 98 0
0 98 0
0 99 0
0 98 0
0 98 0
0 98 0
0 98 0
0 99 0
0 98 0
0 98 0
0 98 0
0 98 0
0 98 0
0 99 0
0 98 0
0 98 0
0 98 0
0 98 0
0 98 0
0 98 0
0 98 0
0 98 0
0 99 0
0 98 0
0 98 0
0 98 0
0 99 0
0 97 0
0 99 0
0 98 0
0 99 0
0 99 0
0 98 0
0 98 0
0 99 0
0 98 0
0 98 0
0 98 0
0 98 0
0 99 0
0 99 0
0 99 0
0 99 0
0 99 0
0 99 0
0 98 0
0 98 0
0 98 0
0 99 0
0 99 0
0 99 0
0 98 0
0 98 0
0 98 0
0 98 0
0 99 0
0 99 0
0 99 0
0 98 0
0 98 0
0 99 0
0 99 0
0 98 0
0 99 0
0 99 0
0 98 0
0 99 0
0 98 0
0 99 0
0 99 0
0 99 0
0 98 0
0 98 0
0 99 0
0 99 0
0 98 0
0 98 0
0 99 0
0 98 0
0 99 0
0 99 0
0 98 0
0 99 0
0 98 0
0 98 0
0 99 0
0 98 0
0 99 0
0 98 0
0 99 0
0 98 0
0 98 0
0 98 0
0 98 0
0 99 0
0 98 0
0 99 0
0 98 0
0 98 0
0 98 0
0 98 0
0 99 0
0 98 0
0 97 0
0 98 0
0 98 0
0 98 0
0 98 0
0 99 0
0 98 0
0 98 0
0 98 0
0 98 0
0 98 0
0 98 0
0 98 0
0 98 0
0 98 0
0 98 0
0 97 0
0 98 0
0 98 0
0 99 0
0 97 0
0 98 0
0 97 0
0 98 0
0 98 0
0 97 0
0 97 0
0 97 0
0 98 0
0 98 0
0 99 0
0 97 0
0 98 0
0 97 0
0 98 0
0 98 0
0 98 0
0 98 0
0 97 0
0 97 0
0 99 0
0 97 0
0 97 0
0 98 0
0 97 0
0 97 0
0 97 0
0 97 0
0 97 0
0 97 0
0 97 0
0 97 0
0 98 0
0 97 0
0 97 0
0 96 0
0 96 0
65 114 76
111 145 128
30 101 36
21 99 25
38 102 44
38 101 44
21 98 25
0 96 0
0 96 0
0 96 0
0 94 0
0 98 0
0 97 0
0 97 0
0 95 0
0 97 0
0 97 0
0 95 0
0 96 0
54 108 67
74 115 91
44 102 56
82 123 98
87 125 104
88 126 108
86 129 105
67 113 84
53 107 67
57 110 72
72 119 92
40 100 51
64 115 84
51 108 67
65 116 84
52 107 67
75 122 99
77 121 102
38 97 51
54 105 72
58 110 76
53 105 72
26 91 36
42 102 57
38 95 51
81 121 108
53 101 72
81 122 108
50 103 67
57 108 76
61 105 80
50 99 67
39 95 51
74 118 95
56 105 72
55 104 72
61 106 76
74 116 92
73 115 88
70 113 84
67 112 80
70 113 84
45 99 56
43 97 56
0 87 0
0 92 0
0 90 0
0 94 0
0 90 0
0 91 0
0 90 0
0 88 0
0 86 0
16 85 24
0 84 0
18 75 24
36 68 48
31 73 42
0 68 0
0 67 0
0 65 0
0 64 0
0 69 0
0 68 0
0 72 0
0 65 0
0 71 0
0 75 0
0 77 0
0 76 0
0 74 0
0 71 0
0 77 0
0 71 0
0 81 0
0 83 0
0 80 0
0 85 0
0 83 0
0 82 0
0 79 0
0 84 0
0 81 0
0 87 0
0 84 0
0 81 0
0 82 0
0 83 0
0 87 0
0 88 0
0 87 0
0 92 0
0 88 0
0 87 0
0 88 0
0 90 0
0 89 0
0 91 0
0 89 0
0 88 0
0 92 0
0 92 0
0 90 0
0 93 0
0 92 0
0 93 0
0 92 0
0 92 0
0 93 0
0 93 0
0 92 0
0 93 0
0 93 0
0 95 0
0 94 0
0 93 0
0 91 0
0 92 0
0 95 0
0 92 0
0 93 0
0 94 0
0 96 0
0 94 0
0 93 0
0 95 0
0 95 0
0 94 0
0 95 0
0 95 0
0 93 0
0 96 0
0 94 0
0 94 0
0 96 0
0 95 0
0 97 0
0 96 0
0 96 0
0 96 0
0 96 0
0 96 0
0 96 0
0 97 0
0 97 0
0 96 0
0 97 0
0 97 0
0 96 0
0 96 0
0 96 0
0 97 0
0 97 0
0 97 0
0 97 0
0 96 0
0 98 0
0 96 0
0 96 0
0 97 0
0 97 0
0 97 0
0 99 0
0 98 0
0 97 0
0 97 0
0 98 0
0 97 0
0 98 0
0 96 0
0 98 0
0 98 0
0 98 0
0 97 0
0 98 0
0 97 0
0 98 0
0 97 0
0 98 0
0 98 0
0 98 0
0 98 0
0 98 0
0 98 0
0 99 0
0 99 0
0 98 0
0 98 0
0 98 0
0 98 0
0 98 0
0 98 0
0 98 0
0 98 0
0 98 0
0 98 0
0 98 0
0 98 0
0 98 0
0 97 0
0 99 0
0 99 0
0 98 0
0 96 0
0 99 0
0 97 0
0 98 0
0 98 0
0 99 0
0 98 0
0 98 0
0 99 0
0 99 0
0 99 0
0 99 0
0 98 0
0 98 0
0 98 0
0 99 0
0 98 0
0 98 0
0 99 0
0 98 0
0 99 0
0 98 0
0 98 0
0 98 0
0 98 0
0 98 0
0 99 0
0 98 0
0 99 0
0 98 0
0 98 0
0 99 0
0 99 0
0 98 0
0 98 0
0 98 0
0 99 0
0 99 0
0 98 0
0 99 0
0 98 0
0 98 0
0 99 0
0 98 0
0 99 0
0 99 0
0 98 0
0 98 0
0 98 0
0 99 0
0 99 0
0 98 0
0 99 0
0 98 0
0 99 0
0 99 0
0 98 0
0 99 0
0 99 0
0 98 0
0 99 0
0 99 0
0 98 0
0 99 0
0 98 0
0 99 0
0 99 0
0 98 0
0 99 0
0 98 0
0 98 0
0 98 0
0 99 0
0 98 0
0 99 0
0 98 0
0 99 0
0 98 0
0 98 0
0 99 0
0 99 0
0 99 0
0 98 0
0 99 0
0 98 0
0 99 0
0 99 0
0 98 0
0 99 0
0 99 0
0 98 0
0 98 0
0 98 0
0 98 0
0 99 0
0 99 0
0 99 0
0 98 0
0 99 0
0 99 0
0 98 0
0 99 0
0 98 0
0 98 0
0 98 0
0 99 0
0 99 0
0 99 0
0 98 0
0 98 0
0 99 0
0 98 0
0 98 0
0 99 0
0 98 0
0 99 0
0 99 0
0 98 0
0 99 0
0 98 0
0 99 0
0 99 0
0 98 0
0 99 0
0 99 0
0 98 0
0 98 0
0 98 0
0 99 0
0 98 0
0 98 0
0 98 0
0 98 0
0 97 0
0 98 0
0 98 0
0 98 0
0 97 0
0 98 0
0 98 0
0 98 0
0 98 0
0 99 0
0 97 0
0 97 0
0 97 0
0 98 0
0 97 0
0 98 0
0 98 0
0 96 0
0 98 0
0 98 0
0 97 0
0 98 0
0 98 0
0 98 0
0 98 0
0 96 0
0 97 0
0 97 0
0 97 0
0 98 0
0 99 0
0 96 0
0 96 0
0 97 0
0 96 0
0 97 0
0 96 0
0 97 0
0 97 0
0 95 0
0 96 0
0 97 0
0 96 0
0 96 0
0 97 0
0 96 0
90 129 105
70 118 80
0 96 0
38 104 44
49 108 57
31 101 36
0 96 0
0 97 0
0 95 0
0 97 0
0 95 0
0 96 0
0 96 0
0 96 0
0 96 0
0 96 0
0 95 0
0 96 0
40 104 50
52 108 66
59 109 71
63 112 76
58 110 71
78 121 94
75 118 91
58 111 71
78 122 95
83 126 102
69 115 84
71 118 88
50 104 62
56 105 72
66 114 84
71 117 92
62 111 80
65 114 84
70 116 92
67 110 88
51 103 67
47 101 62
64 111 84
60 111 80
55 107 72
69 114 92
51 100 67
64 109 84
51 102 67
77 119 99
57 106 72
65 112 84
74 114 95
67 110 84
60 101 76
59 104 72
69 114 84
73 113 88
72 115 84
76 115 92
53 101 67
55 102 67
56 105 67
0 93 0
0 95 0
0 91 0
0 91 0
0 93 0
0 90 0
0 94 0
0 91 0
0 89 0
0 85 0
0 85 0
0 82 0
17 66 24
17 73 24
0 77 0
0 75 0
0 69 0
0 64 0
0 71 0
0 69 0
0 73 0
0 74 0
0 78 0
0 79 0
0 79 0
0 79 0
0 78 0
0 81 0
0 81 0
0 77 0
0 83 0
0 78 0
0 81 0
0 78 0
0 84 0
0 81 0
0 82 0
0 83 0
0 82 0
0 88 0
0 90 0
0 85 0
0 85 0
0 90 0
0 85 0
0 89 0
0 90 0
0 85 0
0 88 0
0 87 0
0 90 0
0 89 0
0 91 0
0 90 0
0 91 0
0 93 0
0 91 0
0 92 0
0 92 0
0 95 0
0 92 0
0 93 0
0 92 0
0 89 0
0 92 0
0 94 0
0 91 0
0 90 0
0 96 0
0 96 0
0 91 0
0 92 0
0 93 0
0 93 0
0 96 0
0 94 0
0 93 0
0 93 0
0 96 0
0 95 0
0 93 0
0 93 0
0 96 0
0 94 0
0 95 0
0 94 0
0 97 0
0 97 0
0 97 0
0 96 0
0 95 0
0 98 0
0 94 0
0 96 0
0 94 0
0 96 0
0 96 0
0 95 0
0 97 0
0 97 0
0 97 0
0 96 0
0 95 0
0 98 0
0 96 0
0 97 0
0 96 0
0 94 0
0 97 0
0 98 0
0 96 0
0 98 0
0 98 0
0 96 0
0 97 0
0 97 0
0 98 0
0 98 0
0 97 0
0 98 0
0 97 0
0 97 0
0 98 0
0 97 0
0 96 0
0 98 0
0 98 0
0 98 0
0 98 0
0 99 0
0 98 0
0 98 0
0 98 0
0 98 0
0 97 0
0 98 0
0 97 0
0 99 0
0 98 0
0 96 0
0 97 0
0 97 0
0 98 0
0 98 0
0 98 0
0 97 0
0 98 0
0 98 0
0 97 0
0 99 0
0 99 0
0 99 0
0 98 0
0 98 0
0 96 0
0 99 0
0 98 0
0 98 0
0 97 0
0 99 0
0 98 0
0 98 0
0 98 0
0 98 0
0 98 0
0 98 0
0 97 0
0 98 0
0 98 0
0 98 0
0 98 0
0 98 0
0 97 0
0 98 0
0 98 0
0 97 0
0 99 0
0 99 0
0 98 0
0 98 0
0 98 0
0 99 0
0 98 0
0 99 0
0 99 0
0 98 0
0 98 0
0 99 0
0 97 0
0 98 0
0 99 0
0 98 0
0 99 0
0 98 0
0 98 0
0 98 0
0 98 0
0 98 0
0 98 0
0 98 0
0 99 0
0 99 0
0 98 0
0 99 0
0 98 0
0 99 0
0 99 0
0 99 0
0 99 0
0 98 0
0 98 0
0 98 0
0 98 0
0 98 0
0 99 0
0 98 0
0 99 0
0 98 0
0 99 0
0 98 0
0 99 0
0 99 0
0 98 0
0 98 0
0 98 0
0 99 0
0 99 0
0 98 0
0 99 0
0 99 0
0 98 0
0 99 0
0 98 0
0 98 0
0 99 0
0 98 0
0 99 0
0 99 0
0 99 0
0 99 0
0 98 0
0 98 0
0 98 0
0 99 0
0 98 0
0 98 0
0 98 0
0 98 0
0 98 0
0 98 0
0 99 0
0 98 0
0 98 0
0 98 0
0 99 0
0 98 0
0 99 0
0 99 0
0 98 0
0 98 0
0 98 0
0 99 0
0 98 0
0 98 0
0 99 0
0 97 0
0 98 0
0 98 0
0 98 0
0 97 0
0 99 0
0 99 0
0 98 0
0 97 0
0 99 0
0 98 0
0 98 0
0 98 0
0 98 0
0 98 0
0 97 0
0 98 0
0 98 0
0 98 0
0 98 0
0 99 0
0 98 0
0 99 0
0 96 0
0 98 0
0 98 0
0 98 0
0 98 0
0 98 0
0 98 0
0 98 0
0 99 0
0 98 0
0 98 0
0 99 0
0 98 0
0 98 0
0 97 0
0 98 0
0 97 0
0 98 0
0 97 0
0 98 0
0 97 0
0 97 0
0 99 0
0 97 0
0 97 0
0 98 0
0 97 0
0 98 0
0 96 0
0 96 0
0 98 0
0 97 0
0 98 0
0 97 0
0 97 0
0 98 0
0 97 0
0 97 0
0 97 0
0 95 0
0 97 0
0 97 0
0 97 0
0 97 0
0 98 0
0 97 0
0 96 0
0 96 0
0 97 0
0 95 0
0 98 0
0 94 0
66 115 76
69 118 80
21 96 25
22 99 25
31 101 36
0 96 0
0 97 0
0 94 0
0 97 0
0 95 0
0 96 0
0 96 0
0 95 0
0 94 0
0 98 0
0 97 0
0 96 0
0 96 0
22 95 25
45 106 56
51 108 62
39 101 50
55 108 67
79 119 97
64 112 76
109 144 130
78 121 95
102 137 122
73 119 88
64 114 80
79 124 99
71 118 88
75 119 95
69 113 88
57 107 72
63 113 80
59 106 76
63 112 80
63 108 80
65 111 84
60 108 76
65 108 84
62 111 80
80 122 102
57 106 72
62 109 80
63 110 80
74 115 92
68 110 84
60 104 76
65 110 80
70 112 84
110 144 135
76 116 92
67 109 80
58 108 72
86 127 105
36 95 44
0 90 0
0 92 0
0 91 0
0 92 0
0 92 0
0 91 0
0 90 0
0 88 0
0 91 0
0 89 0
18 86 24
0 83 0
0 80 0
16 71 24
25 76 34
0 76 0
0 75 0
0 80 0
0 81 0
0 80 0
0 77 0
0 81 0
0 80 0
0 76 0
0 81 0
0 82 0
0 83 0
0 83 0
0 83 0
0 81 0
0 83 0
0 85 0
0 81 0
0 84 0
0 81 0
0 85 0
0 84 0
0 88 0
0 85 0
0 83 0
0 88 0
0 90 0
0 89 0
0 89 0
0 88 0
0 89 0
0 89 0
0 87 0
0 87 0
0 90 0
0 85 0
0 90 0
0 90 0
0 91 0
0 89 0
0 91 0
0 85 0
0 93 0
0 93 0
0 90 0
0 94 0
0 93 0
0 92 0
0 89 0
0 92 0
0 91 0
0 92 0
0 91 0
0 93 0
0 93 0
0 95 0
0 92 0
0 94 0
0 94 0
0 93 0
0 92 0
0 90 0
0 95 0
0 93 0
0 92 0
0 95 0
0 96 0
0 95 0
0 94 0
0 97 0
0 95 0
0 93 0
0 97 0
0 95 0
0 96 0
0 95 0
0 97 0
0 94 0
0 96 0
0 96 0
0 95 0
0 97 0
0 98 0
0 95 0
0 95 0
0 97 0
0 95 0
0 97 0
0 97 0
0 98 0
0 97 0
0 97 0
0 96 0
0 97 0
0 97 0
0 97 0
0 98 0
0 97 0
0 98 0
0 98 0
0 97 0
0 97 0
0 98 0
0 96 0
0 96 0
0 97 0
0 98 0
0 97 0
0 96 0
0 97 0
0 95 0
0 98 0
0 97 0
0 96 0
0 97 0
0 97 0
0 97 0
0 96 0
0 96 0
0 96 0
0 95 0
0 96 0
0 97 0
0 97 0
0 98 0
0 98 0
0 98 0
0 98 0
0 98 0
0 99 0
0 97 0
0 98 0
0 98 0
0 97 0
0 98 0
0 99 0
0 97 0
0 97 0
0 99 0
0 97 0
0 99 0
0 97 0
0 98 0
0 98 0
0 98 0
0 97 0
0 98 0
0 98 0
0 98 0
0 98 0
0 98 0
0 98 0
0 99 0
0 98 0
0 98 0
0 99 0
0 98 0
0 98 0
0 98 0
0 98 0
0 97 0
0 98 0
0 98 0
0 98 0
0 99 0
0 99 0
0 99 0
0 98 0
0 98 0
0 98 0
0 99 0
0 99 0
0 98 0
0 98 0
0 98 0
0 99 0
0 98 0
0 98 0
0 99 0
0 98 0
0 98 0
0 98 0
0 98 0
0 98 0
0 99 0
0 98 0
0 99 0
0 98 0
0 98 0
0 99 0
0 98 0
0 98 0
0 98 0
0 98 0
0 99 0
0 99 0
0 99 0
0 99 0
0 98 0
0 99 0
0 98 0
0 99 0
0 98 0
0 98 0
0 99 0
0 98 0
0 98 0
0 98 0
0 99 0
0 99 0
0 98 0
0 98 0
0 98 0
0 98 0
0 98 0
0 99 0
0 99 0
0 98 0
0 99 0
0 99 0
0 98 0
0 99 0
0 98 0
0 98 0
0 99 0
0 99 0
0 98 0
0 98 0
0 99 0
0 99 0
0 98 0
0 98 0
0 98 0
0 98 0
0 99 0
0 98 0
0 98 0
0 99 0
0 98 0
0 99 0
0 98 0
0 99 0
0 99 0
0 98 0
0 98 0
0 98 0
0 99 0
0 99 0
0 99 0
0 99 0
0 97 0
0 98 0
0 98 0
0 98 0
0 97 0
0 98 0
0 98 0
0 98 0
0 98 0
0 98 0
0 99 0
0 98 0
0 98 0
0 98 0
0 98 0
0 98 0
0 99 0
0 97 0
0 98 0
0 98 0
0 98 0
0 98 0
0 98 0
0 98 0
0 98 0
0 98 0
0 98 0
0 97 0
0 99 0
0 97 0
0 98 0
0 98 0
0 96 0
0 97 0
0 97 0
0 98 0
0 98 0
0 97 0
0 97 0
0 97 0
0 98 0
0 98 0
0 98 0
0 97 0
0 97 0
0 97 0
0 98 0
0 97 0
0 97 0
0 97 0
0 97 0
0 98 0
0 97 0
0 98 0
0 97 0
0 97 0
0 97 0
0 98 0
0 98 0
0 96 0
0 97 0
0 98 0
0 97 0
0 96 0
0 97 0
0 98 0
0 96 0
0 95 0
0 97 0
0 96 0
0 95 0
0 98 0
0 95 0
0 96 0
0 96 0
0 97 0
0 95 0
0 97 0
82 124 95
54 110 62
46 107 56
37 103 44
44 105 51
31 101 36
0 96 0
0 96 0
0 97 0
0 96 0
0 97 0
0 95 0
0 97 0
0 95 0
0 97 0
0 95 0
0 98 0
0 96 0
0 96 0
19 99 25
53 108 66
87 129 105
70 118 84
66 113 80
66 116 80
80 124 99
87 129 105
88 126 105
92 130 111
78 123 95
78 119 95
73 117 88
76 117 95
68 113 84
74 115 92
69 114 88
85 125 105
72 117 92
75 118 95
49 104 62
75 117 95
64 107 80
79 119 99
72 117 92
68 113 84
56 104 72
75 112 92
108 140 133
72 110 88
80 118 95
74 112 92
59 108 72
57 106 72
61 110 76
18 95 25
31 97 36
0 93 0
0 93 0
0 93 0
0 90 0
0 93 0
0 92 0
0 90 0
0 91 0
0 86 0
0 88 0
0 86 0
0 90 0
0 82 0
23 73 34
24 78 34
0 81 0
0 78 0
0 81 0
0 85 0
0 86 0
0 83 0
0 83 0
0 81 0
0 81 0
0 83 0
0 80 0
0 80 0
0 80 0
0 90 0
0 85 0
0 84 0
0 75 0
0 85 0
0 83 0
0 84 0
0 84 0
0 86 0
0 87 0
0 86 0
0 88 0
0 86 0
0 84 0
0 86 0
0 89 0
0 90 0
0 90 0
0 89 0
0 89 0
0 87 0
0 91 0
0 89 0
0 90 0
0 91 0
0 92 0
0 92 0
0 91 0
0 90 0
0 89 0
0 92 0
0 91 0
0 91 0
0 94 0
0 92 0
0 91 0
0 93 0
0 92 0
0 93 0
0 94 0
0 94 0
0 93 0
0 93 0
0 94 0
0 93 0
0 95 0
0 94 0
0 95 0
0 94 0
0 94 0
0 93 0
0 95 0
0 93 0
0 94 0
0 95 0
0 94 0
0 97 0
0 94 0
0 94 0
0 95 0
0 96 0
0 96 0
0 96 0
0 95 0
0 96 0
0 95 0
0 97 0
0 95 0
0 95 0
0 96 0
0 95 0
0 96 0
0 96 0
0 97 0
0 96 0
0 97 0
0 96 0
0 97 0
0 96 0
0 96 0
0 95 0
0 95 0
0 98 0
0 97 0
0 97 0
0 97 0
0 97 0
0 96 0
0 95 0
0 97 0
0 97 0
0 98 0
0 96 0
0 97 0
0 97 0
0 97 0
0 96 0
0 97 0
0 97 0
0 98 0
0 96 0
0 98 0
0 97 0
0 97 0
0 98 0
0 97 0
0 97 0
0 98 0
0 97 0
0 98 0
0 98 0
0 98 0
0 98 0
0 98 0
0 98 0
0 97 0
0 96 0
0 98 0
0 98 0
0 98 0
0 98 0
0 98 0
0 98 0
0 97 0
0 98 0
0 98 0
0 98 0
0 97 0
0 97 0
0 98 0
0 98 0
0 98 0
0 98 0
0 99 0
0 98 0
0 98 0
0 97 0
0 98 0
0 99 0
0 98 0
0 97 0
0 98 0
0 98 0
0 98 0
0 98 0
0 99 0
0 98 0
0 97 0
0 98 0
0 97 0
0 98 0
0 98 0
0 98 0
0 98 0
0 98 0
0 98 0
0 98 0
0 99 0
0 98 0
0 98 0
0 97 0
0 98 0
0 99 0
0 99 0
0 99 0
0 99 0
0 97 0
0 98 0
0 98 0
0 98 0
0 99 0
0 98 0
0 98 0
0 99 0
0 98 0
0 98 0
0 99 0
0 98 0
0 99 0
0 98 0
0 98 0
0 98 0
0 98 0
0 99 0
0 99 0
0 99 0
0 98 0
0 98 0
0 98 0
0 99 0
0 99 0
0 98 0
0 99 0
0 99 0
0 97 0
0 99 0
0 98 0
0 99 0
0 98 0
0 98 0
0 99 0
0 98 0
0 99 0
0 98 0
0 98 0
0 98 0
0 98 0
0 99 0
0 99 0
0 98 0
0 98 0
0 98 0
0 99 0
0 98 0
0 98 0
0 99 0
0 99 0
0 98 0
0 99 0
0 99 0
0 98 0
0 98 0
0 98 0
0 98 0
0 99 0
0 98 0
0 98 0
0 98 0
0 98 0
0 99 0
0 98 0
0 98 0
0 98 0
0 99 0
0 98 0
0 98 0
0 98 0
0 98 0
0 98 0
0 98 0
0 98 0
0 98 0
0 98 0
0 98 0
0 98 0
0 97 0
0 99 0
0 99 0
0 98 0
0 97 0
0 98 0
0 98 0
0 98 0
0 99 0
0 98 0
0 98 0
0 97 0
0 98 0
0 98 0
0 97 0
0 98 0
0 98 0
0 97 0
0 98 0
0 97 0
0 97 0
0 97 0
0 98 0
0 98 0
0 96 0
0 98 0
0 97 0
0 98 0
0 97 0
0 98 0
0 98 0
0 99 0
0 96 0
0 97 0
0 97 0
0 96 0
0 97 0
0 97 0
0 96 0
0 97 0
0 98 0
0 98 0
0 97 0
0 97 0
0 98 0
0 96 0
0 98 0
0 96 0
0 96 0
0 97 0
0 98 0
0 98 0
0 98 0
0 97 0
0 98 0
0 97 0
0 97 0
0 97 0
0 94 0
0 95 0
0 94 0
0 97 0
0 97 0
0 94 0
0 95 0
0 96 0
0 96 0
0 95 0
0 97 0
0 95 0
0 96 0
0 96 0
69 117 80
63 114 72
43 105 51
0 95 0
21 100 25
0 97 0
0 98 0
0 94 0
0 90 0
0 97 0
0 96 0
0 96 0
0 96 0
0 97 0
0 96 0
0 96 0
0 94 0
0 96 0
0 95 0
0 94 0
0 97 0
55 109 67
73 117 88
42 100 51
77 120 95
42 99 51
57 112 72
73 118 88
67 115 84
56 109 67
83 125 99
84 123 102
89 127 108
96 130 114
83 122 102
86 124 105
71 115 88
75 114 92
69 112 84
84 125 102
62 110 76
73 112 88
71 111 84
82 121 99
66 110 80
84 121 102
73 119 88
65 108 80
64 108 76
68 110 84
59 109 72
46 104 57
35 100 44
0 94 0
0 94 0
0 93 0
0 93 0
0 94 0
0 90 0
0 93 0
0 91 0
0 95 0
0 89 0
0 86 0
0 86 0
0 81 0
17 85 24
18 68 24
25 79 34
0 84 0
0 83 0
0 80 0
0 80 0
0 84 0
0 86 0
0 84 0
0 86 0
0 82 0
0 79 0
0 84 0
0 84 0
0 85 0
0 85 0
0 85 0
0 90 0
0 85 0
0 87 0
0 88 0
0 87 0
0 87 0
0 87 0
0 91 0
0 87 0
0 85 0
0 87 0
0 90 0
0 85 0
0 88 0
0 92 0
0 89 0
0 92 0
0 90 0
0 88 0
0 88 0
0 91 0
0 92 0
0 92 0
0 88 0
0 88 0
0 93 0
0 91 0
0 92 0
0 92 0
0 89 0
0 93 0
0 91 0
0 92 0
0 88 0
0 91 0
0 94 0
0 92 0
0 96 0
0 93 0
0 96 0
0 91 0
0 93 0
0 92 0
0 94 0
0 93 0
0 94 0
0 96 0
0 95 0
0 93 0
0 94 0
0 93 0
0 92 0
0 94 0
0 94 0
0 94 0
0 96 0
0 95 0
0 96 0
0 95 0
0 95 0
0 95 0
0 93 0
0 96 0
0 97 0
0 97 0
0 95 0
0 95 0
0 94 0
0 96 0
0 97 0
0 96 0
0 98 0
0 97 0
0 98 0
0 95 0
0 94 0
0 97 0
0 97 0
0 95 0
0 97 0
0 96 0
0 97 0
0 98 0
0 95 0
0 97 0
0 96 0
0 96 0
0 98 0
0 98 0
0 98 0
0 97 0
0 97 0
0 98 0
0 97 0
0 97 0
0 98 0
0 98 0
0 97 0
0 96 0
0 98 0
0 97 0
0 98 0
0 97 0
0 97 0
0 97 0
0 98 0
0 96 0
0 98 0
0 98 0
0 97 0
0 97 0
0 99 0
0 98 0
0 98 0
0 97 0
0 97 0
0 98 0
0 98 0
0 98 0
0 98 0
0 98 0
0 98 0
0 97 0
0 97 0
0 98 0
0 97 0
0 97 0
0 98 0
0 98 0
0 96 0
0 97 0
0 98 0
0 98 0
0 98 0
0 98 0
0 99 0
0 98 0
0 98 0
0 97 0
0 98 0
0 99 0
0 99 0
0 98 0
0 98 0
0 98 0
0 98 0
0 98 0
0 98 0
0 98 0
0 98 0
0 98 0
0 98 0
0 98 0
0 97 0
0 98 0
0 98 0
0 98 0
0 99 0
0 98 0
0 97 0
0 98 0
0 99 0
0 98 0
0 97 0
0 98 0
0 97 0
0 98 0
0 99 0
0 99 0
0 98 0
0 98 0
0 96 0
0 98 0
0 99 0
0 98 0
0 98 0
0 99 0
0 98 0
0 98 0
0 99 0
0 98 0
0 99 0
0 98 0
0 98 0
0 98 0
0 98 0
0 99 0
0 98 0
0 98 0
0 98 0
0 98 0
0 99 0
0 97 0
0 99 0
0 98 0
0 99 0
0 98 0
0 99 0
0 98 0
0 99 0
0 98 0
0 99 0
0 98 0
0 99 0
0 99 0
0 98 0
0 98 0
0 98 0
0 99 0
0 98 0
0 98 0
0 99 0
0 98 0
0 99 0
0 99 0
0 98 0
0 98 0
0 99 0
0 99 0
0 98 0
0 99 0
0 98 0
0 98 0
0 99 0
0 99 0
0 98 0
0 97 0
0 98 0
0 98 0
0 99 0
0 98 0
0 98 0
0 99 0
0 98 0
0 98 0
0 99 0
0 99 0
0 98 0
0 98 0
0 98 0
0 99 0
0 98 0
0 98 0
0 98 0
0 98 0
0 98 0
0 98 0
0 98 0
0 98 0
0 98 0
0 98 0
0 98 0
0 98 0
0 98 0
0 98 0
0 98 0
0 97 0
0 97 0
0 98 0
0 98 0
0 97 0
0 97 0
0 99 0
0 98 0
0 99 0
0 98 0
0 99 0
0 98 0
0 98 0
0 97 0
0 97 0
0 97 0
0 98 0
0 97 0
0 97 0
0 98 0
0 97 0
0 97 0
0 98 0
0 97 0
0 97 0
0 98 0
0 97 0
0 96 0
0 97 0
0 98 0
0 97 0
0 98 0
0 98 0
0 98 0
0 95 0
0 97 0
0 96 0
0 97 0
0 97 0
0 97 0
0 96 0
0 97 0
0 97 0
0 97 0
0 96 0
0 95 0
0 96 0
0 96 0
0 96 0
0 95 0
0 97 0
0 96 0
0 97 0
0 97 0
0 97 0
0 97 0
0 95 0
0 96 0
0 97 0
0 95 0
0 96 0
62 114 72
85 126 99
21 97 25
37 102 44
49 108 57
22 98 25
0 96 0
0 96 0
0 97 0
21 98 25
0 95 0
0 95 0
0 96 0
0 97 0
0 96 0
0 95 0
0 94 0
0 96 0
0 96 0
0 96 0
0 95 0
0 97 0
36 101 44
42 104 51
52 104 62
65 116 80
63 110 76
72 118 88
62 109 76
70 116 84
57 109 72
66 113 80
67 114 84
79 121 99
80 120 99
70 113 84
56 105 67
62 109 76
72 113 84
77 117 95
76 117 92
46 95 57
55 105 67
45 99 57
52 104 62
62 110 76
46 100 57
62 111 76
50 103 62
0 93 0
0 94 0
0 91 0
0 94 0
0 92 0
0 93 0
0 92 0
0 89 0
0 91 0
0 93 0
0 92 0
0 91 0
0 87 0
22 90 25
16 90 24
30 88 42
18 83 24
18 81 24
0 87 0
0 85 0
0 84 0
0 86 0
0 83 0
0 81 0
0 86 0
0 81 0
0 84 0
0 89 0
0 81 0
0 86 0
0 86 0
0 86 0
0 88 0
0 84 0
0 87 0
0 88 0
0 88 0
0 90 0
0 88 0
0 84 0
0 85 0
0 90 0
0 85 0
0 86 0
0 92 0
0 87 0
0 87 0
0 89 0
0 90 0
0 89 0
0 91 0
0 91 0
0 92 0
0 90 0
0 91 0
0 90 0
0 91 0
0 95 0
0 90 0
0 89 0
0 91 0
0 93 0
0 92 0
0 93 0
0 91 0
0 92 0
0 93 0
0 93 0
0 94 0
0 92 0
0 92 0
0 93 0
0 91 0
0 95 0
0 94 0
0 93 0
0 96 0
0 93 0
0 93 0
0 94 0
0 93 0
0 95 0
0 96 0
0 93 0
0 93 0
0 96 0
0 95 0
0 95 0
0 95 0
0 95 0
0 96 0
0 92 0
0 97 0
0 94 0
0 96 0
0 94 0
0 94 0
0 98 0
0 94 0
0 94 0
0 96 0
0 96 0
0 95 0
0 97 0
0 96 0
0 97 0
0 96 0
0 96 0
0 98 0
0 97 0
0 95 0
0 97 0
0 96 0
0 96 0
0 97 0
0 98 0
0 95 0
0 97 0
0 97 0
0 97 0
0 96 0
0 96 0
0 96 0
0 97 0
0 98 0
0 96 0
0 98 0
0 97 0
0 96 0
0 97 0
0 98 0
0 97 0
0 96 0
0 97 0
0 98 0
0 97 0
0 97 0
0 98 0
0 98 0
0 98 0
0 98 0
0 97 0
0 98 0
0 96 0
0 98 0
0 96 0
0 98 0
0 98 0
0 96 0
0 99 0
0 98 0
0 98 0
0 97 0
0 97 0
0 97 0
0 97 0
0 97 0
0 98 0
0 98 0
0 98 0
0 98 0
0 98 0
0 97 0
0 98 0
0 98 0
0 98 0
0 97 0
0 97 0
0 98 0
0 97 0
0 98 0
0 98 0
0 98 0
0 98 0
0 98 0
0 98 0
0 97 0
0 98 0
0 99 0
0 98 0
0 99 0
0 99 0
0 98 0
0 98 0
0 99 0
0 99 0
0 98 0
0 99 0
0 98 0
0 97 0
0 98 0
0 98 0
0 97 0
0 99 0
0 98 0
0 98 0
0 99 0
0 98 0
0 98 0
0 98 0
0 98 0
0 98 0
0 98 0
0 98 0
0 98 0
0 99 0
0 98 0
0 98 0
0 98 0
0 98 0
0 98 0
0 98 0
0 98 0
0 98 0
0 98 0
0 97 0
0 98 0
0 99 0
0 98 0
0 99 0
0 98 0
0 98 0
0 98 0
0 98 0
0 99 0
0 99 0
0 98 0
0 98 0
0 98 0
0 98 0
0 98 0
0 99 0
0 99 0
0 99 0
0 99 0
0 99 0
0 99 0
0 98 0
0 98 0
0 99 0
0 98 0
0 98 0
0 98 0
0 98 0
0 98 0
0 98 0
0 98 0
0 99 0
0 99 0
0 99 0
0 99 0
0 99 0
0 98 0
0 99 0
0 98 0
0 98 0
0 98 0
0 99 0
0 98 0
0 98 0
0 98 0
0 99 0
0 98 0
0 98 0
0 98 0
0 98 0
0 99 0
0 97 0
0 98 0
0 98 0
0 98 0
0 98 0
0 98 0
0 98 0
0 98 0
0 98 0
0 99 0
0 99 0
0 99 0
0 98 0
0 99 0
0 98 0
0 97 0
0 98 0
0 98 0
0 97 0
0 98 0
0 99 0
0 98 0
0 98 0
0 98 0
0 99 0
0 97 0
0 98 0
0 98 0
0 98 0
0 98 0
0 98 0
0 98 0
0 96 0
0 98 0
0 97 0
0 99 0
0 97 0
0 97 0
0 98 0
0 99 0
0 97 0
0 97 0
0 96 0
0 97 0
0 96 0
0 98 0
0 98 0
0 96 0
0 97 0
0 98 0
0 98 0
0 98 0
0 97 0
0 97 0
0 98 0
0 98 0
0 98 0
0 98 0
0 98 0
0 97 0
0 95 0
0 97 0
0 97 0
0 96 0
0 96 0
0 96 0
0 95 0
0 97 0
0 97 0
0 97 0
0 97 0
0 96 0
0 95 0
0 97 0
0 95 0
0 96 0
0 95 0
0 96 0
0 96 0
0 96 0
0 96 0
0 95 0
0 93 0
0 94 0
0 96 0
54 109 62
83 124 95
42 105 51
37 102 44
38 102 44
38 102 44
0 94 0
0 96 0
0 95 0
0 93 0
21 97 25
0 94 0
0 94 0
0 95 0
0 95 0
0 94 0
0 96 0
0 96 0
0 95 0
0 96 0
0 95 0
0 97 0
0 92 0
0 96 0
41 104 51
42 105 51
42 103 51
41 102 51
69 116 84
60 109 72
63 112 76
65 113 80
63 107 76
64 109 76
71 113 84
59 109 72
64 112 80
56 105 67
72 114 88
65 112 80
30 93 36
53 105 67
69 116 84
35 100 44
22 91 25
21 92 25
0 93 0
0 95 0
0 92 0
0 95 0
0 94 0
0 95 0
0 94 0
0 93 0
0 93 0
0 89 0
31 95 36
0 91 0
0 87 0
0 90 0
22 91 25
28 89 35
0 80 0
28 82 35
0 86 0
0 83 0
0 84 0
0 88 0
0 85 0
0 86 0
0 86 0
0 85 0
0 88 0
0 85 0
0 88 0
0 88 0
0 88 0
0 91 0
0 90 0
0 86 0
0 84 0
0 83 0
0 90 0
0 91 0
0 91 0
0 89 0
0 91 0
0 92 0
0 91 0
0 92 0
0 91 0
0 93 0
0 92 0
0 90 0
0 92 0
0 92 0
0 92 0
0 88 0
0 89 0
0 95 0
0 90 0
0 92 0
0 93 0
0 93 0
0 95 0
0 93 0
0 92 0
0 93 0
0 93 0
0 92 0
0 93 0
0 92 0
0 92 0
0 92 0
0 94 0
0 94 0
0 94 0
0 94 0
0 94 0
0 92 0
0 93 0
0 92 0
0 95 0
0 95 0
0 92 0
0 93 0
0 96 0
0 96 0
0 95 0
0 94 0
0 94 0
0 94 0
0 93 0
0 95 0
0 96 0
0 95 0
0 95 0
0 96 0
0 96 0
0 94 0
0 95 0
0 96 0
0 97 0
0 97 0
0 95 0
0 97 0
0 96 0
0 98 0
0 94 0
0 92 0
0 97 0
0 93 0
0 99 0
0 96 0
0 97 0
0 97 0
0 95 0
0 96 0
0 98 0
0 92 0
0 96 0
0 96 0
0 95 0
0 98 0
0 97 0
0 96 0
0 97 0
0 95 0
0 96 0
0 95 0
0 97 0
0 96 0
0 95 0
0 97 0
0 94 0
0 96 0
0 97 0
0 97 0
0 96 0
0 97 0
0 98 0
0 98 0
0 97 0
0 97 0
0 98 0
0 97 0
0 98 0
0 96 0
0 98 0
0 98 0
0 96 0
0 97 0
0 98 0
0 97 0
0 98 0
0 97 0
0 97 0
0 98 0
0 97 0
0 99 0
0 98 0
0 97 0
0 99 0
0 98 0
0 97 0
0 98 0
0 97 0
0 98 0
0 98 0
0 97 0
0 96 0
0 97 0
0 97 0
0 98 0
0 98 0
0 98 0
0 98 0
0 99 0
0 98 0
0 98 0
0 98 0
0 97 0
0 98 0
0 98 0
0 98 0
0 99 0
0 98 0
0 98 0
0 97 0
0 99 0
0 98 0
0 98 0
0 98 0
0 97 0
0 98 0
0 97 0
0 98 0
0 99 0
0 98 0
0 98 0
0 98 0
0 98 0
0 97 0
0 98 0
0 98 0
0 98 0
0 98 0
0 99 0
0 98 0
0 97 0
0 98 0
0 98 0
0 98 0
0 98 0
0 98 0
0 97 0
0 98 0
0 98 0
0 99 0
0 98 0
0 99 0
0 99 0
0 99 0
0 98 0
0 98 0
0 98 0
0 98 0
0 99 0
0 99 0
0 98 0
0 98 0
0 98 0
0 99 0
0 98 0
0 99 0
0 98 0
0 98 0
0 99 0
0 99 0
0 99 0
0 97 0
0 99 0
0 99 0
0 99 0
0 98 0
0 99 0
0 98 0
0 99 0
0 98 0
0 98 0
0 98 0
0 99 0
0 99 0
0 99 0
0 98 0
0 99 0
0 98 0
0 98 0
0 98 0
0 98 0
0 99 0
0 98 0
0 98 0
0 98 0
0 98 0
0 98 0
0 99 0
0 98 0
0 98 0
0 98 0
0 98 0
0 98 0
0 98 0
0 98 0
0 98 0
0 97 0
0 98 0
0 97 0
0 99 0
0 97 0
0 98 0
0 98 0
0 97 0
0 98 0
0 98 0
0 98 0
0 99 0
0 98 0
0 98 0
0 98 0
0 98 0
0 97 0
0 97 0
0 97 0
0 98 0
0 98 0
0 98 0
0 99 0
0 96 0
0 98 0
0 98 0
0 97 0
0 98 0
0 97 0
0 98 0
0 98 0
0 99 0
0 98 0
0 98 0
0 98 0
0 99 0
0 98 0
0 98 0
0 98 0
0 98 0
0 99 0
0 98 0
0 99 0
0 98 0
0 99 0
0 98 0
0 97 0
0 97 0
0 97 0
0 96 0
0 97 0
0 98 0
0 97 0
0 97 0
0 97 0
0 96 0
0 98 0
0 96 0
0 98 0
0 97 0
0 96 0
0 95 0
0 98 0
0 97 0
0 96 0
0 95 0
0 97 0
0 96 0
0 97 0
0 95 0
0 97 0
0 98 0
0 95 0
0 96 0
0 96 0
0 96 0
0 94 0
0 95 0
0 98 0
0 96 0
0 97 0
0 95 0
0 94 0
0 96 0
0 95 0
0 93 0
31 102 36
79 123 92
30 99 36
43 107 51
38 100 44
49 105 57
22 98 25
0 95 0
0 95 0
20 96 25
0 95 0
0 96 0
0 97 0
0 95 0
0 96 0
0 95 0
0 93 0
0 94 0
0 94 0
0 94 0
0 95 0
0 96 0
0 94 0
0 98 0
0 96 0
0 96 0
0 94 0
27 100 36
41 105 51
45 104 57
54 108 67
19 92 25
49 106 62
59 109 72
43 101 51
29 96 36
36 99 44
34 100 44
21 92 25
0 92 0
0 89 0
0 93 0
0 93 0
0 95 0
0 94 0
0 95 0
0 94 0
0 96 0
0 91 0
0 91 0
0 94 0
0 91 0
0 93 0
0 88 0
0 91 0
21 92 25
30 92 36
0 89 0
38 99 44
55 103 66
0 85 0
54 100 62
16 82 24
0 89 0
0 88 0
0 83 0
0 84 0
0 87 0
0 84 0
0 89 0
0 89 0
0 85 0
0 86 0
0 85 0
0 88 0
0 88 0
0 83 0
0 88 0
0 90 0
0 85 0
0 88 0
0 90 0
0 92 0
0 90 0
0 87 0
0 92 0
0 89 0
0 92 0
0 92 0
0 91 0
0 91 0
0 92 0
0 93 0
0 88 0
0 89 0
0 91 0
0 93 0
0 93 0
0 90 0
0 88 0
0 94 0
0 92 0
0 93 0
0 92 0
0 94 0
0 92 0
0 91 0
0 95 0
0 93 0
0 92 0
0 93 0
0 94 0
0 92 0
0 96 0
0 91 0
0 94 0
0 92 0
0 95 0
0 94 0
0 93 0
0 95 0
0 96 0
0 96 0
0 93 0
0 94 0
0 95 0
0 94 0
0 95 0
0 93 0
0 96 0
0 97 0
0 96 0
0 94 0
0 94 0
0 94 0
0 94 0
0 95 0
0 96 0
0 95 0
0 96 0
0 95 0
0 96 0
0 96 0
0 96 0
0 95 0
0 96 0
0 94 0
0 97 0
0 95 0
0 97 0
0 96 0
0 96 0
0 97 0
0 95 0
0 97 0
0 97 0
0 96 0
0 94 0
0 97 0
0 95 0
0 97 0
0 96 0
0 96 0
0 98 0
0 97 0
0 96 0
0 96 0
0 97 0
0 96 0
0 94 0
0 96 0
0 97 0
0 97 0
0 98 0
0 96 0
0 96 0
0 97 0
0 97 0
0 97 0
0 97 0
0 96 0
0 97 0
0 98 0
0 97 0
0 98 0
0 97 0
0 97 0
0 97 0
0 97 0
0 96 0
0 98 0
0 96 0
0 98 0
0 97 0
0 97 0
0 96 0
0 96 0
0 97 0
0 99 0
0 97 0
0 97 0
0 97 0
0 98 0
0 98 0
0 97 0
0 99 0
0 98 0
0 99 0
0 98 0
0 97 0
0 98 0
0 98 0
0 98 0
0 98 0
0 97 0
0 98 0
0 99 0
0 98 0
0 98 0
0 98 0
0 98 0
0 98 0
0 99 0
0 98 0
0 98 0
0 98 0
0 98 0
0 98 0
0 99 0
0 97 0
0 98 0
0 98 0
0 98 0
0 98 0
0 97 0
0 98 0
0 97 0
0 98 0
0 97 0
0 98 0
0 99 0
0 98 0
0 98 0
0 99 0
0 99 0
0 98 0
0 98 0
0 97 0
0 98 0
0 97 0
0 98 0
0 99 0
0 98 0
0 98 0
0 98 0
0 99 0
0 98 0
0 99 0
0 98 0
0 98 0
0 99 0
0 99 0
0 99 0
0 99 0
0 98 0
0 98 0
0 99 0
0 98 0
0 98 0
0 99 0
0 98 0
0 99 0
0 99 0
0 98 0
0 99 0
0 99 0
0 99 0
0 99 0
0 98 0
0 98 0
0 98 0
0 98 0
0 98 0
0 99 0
0 99 0
0 99 0
0 98 0
0 98 0
0 99 0
0 98 0
0 98 0
0 98 0
0 99 0
0 98 0
0 98 0
0 98 0
0 98 0
0 98 0
0 97 0
0 99 0
0 99 0
0 98 0
0 98 0
0 99 0
0 99 0
0 98 0
0 98 0
0 98 0
0 98 0
0 99 0
0 98 0
0 99 0
0 98 0
0 97 0
0 98 0
0 98 0
0 98 0
0 98 0
0 98 0
0 98 0
0 98 0
0 99 0
0 98 0
0 99 0
0 98 0
0 97 0
0 99 0
0 98 0
0 99 0
0 97 0
0 98 0
0 98 0
0 98 0
0 97 0
0 98 0
0 99 0
0 99 0
0 97 0
0 98 0
0 98 0
0 98 0
0 99 0
0 98 0
0 97 0
0 98 0
0 97 0
0 99 0
0 98 0
0 98 0
0 98 0
0 98 0
0 98 0
0 98 0
0 97 0
0 98 0
0 99 0
0 97 0
0 97 0
0 98 0
0 97 0
0 96 0
0 96 0
0 98 0
0 98 0
0 97 0
0 98 0
0 96 0
0 96 0
0 97 0
0 97 0
0 98 0
0 98 0
0 97 0
0 98 0
0 95 0
0 96 0
0 97 0
0 97 0
0 97 0
0 96 0
0 97 0
0 97 0
0 97 0
0 95 0
0 96 0
0 96 0
0 97 0
0 94 0
0 94 0
0 96 0
0 97 0
0 95 0
0 95 0
0 96 0
0 96 0
0 96 0
0 97 0
0 94 0
0 96 0
0 92 0
0 94 0
0 94 0
82 125 95
58 111 67
30 100 36
43 104 51
38 102 44
37 99 44
0 96 0
0 96 0
0 91 0
0 98 0
21 97 25
0 96 0
0 96 0
0 97 0
0 94 0
0 93 0
0 94 0
0 93 0
0 95 0
0 93 0
0 95 0
0 92 0
0 95 0
0 95 0
0 92 0
0 95 0
0 94 0
0 94 0
0 94 0
0 91 0
0 92 0
0 92 0
0 94 0
0 92 0
0 95 0
0 94 0
0 93 0
0 93 0
0 94 0
0 94 0
0 93 0
0 94 0
0 93 0
0 92 0
0 92 0
0 90 0
0 94 0
0 93 0
0 92 0
0 89 0
0 90 0
0 93 0
0 92 0
0 85 0
0 89 0
22 94 25
21 90 25
0 82 0
54 106 62
0 89 0
0 87 0
0 89 0
0 85 0
0 88 0
0 85 0
0 88 0
0 86 0
0 85 0
0 86 0
0 87 0
0 90 0
0 89 0
0 86 0
0 90 0
0 88 0
0 87 0
0 89 0
0 88 0
0 86 0
0 89 0
0 91 0
0 91 0
0 89 0
0 88 0
0 93 0
0 90 0
0 85 0
0 91 0
0 91 0
0 91 0
0 93 0
0 91 0
0 94 0
0 92 0
0 91 0
0 91 0
0 92 0
0 92 0
0 90 0
0 92 0
0 92 0
0 94 0
0 93 0
0 93 0
0 94 0
0 95 0
0 94 0
0 93 0
0 91 0
0 92 0
0 91 0
0 90 0
0 96 0
0 93 0
0 95 0
0 93 0
0 95 0
0 94 0
0 93 0
0 95 0
0 93 0
0 95 0
0 96 0
0 92 0
0 95 0
0 94 0
0 93 0
0 94 0
0 94 0
0 93 0
0 96 0
0 96 0
0 93 0
0 96 0
0 96 0
0 95 0
0 97 0
0 95 0
0 94 0
0 95 0
0 96 0
0 96 0
0 94 0
0 98 0
0 98 0
0 97 0
0 95 0
0 96 0
0 96 0
0 96 0
0 97 0
0 95 0
0 96 0
0 97 0
0 96 0
0 96 0
0 94 0
0 96 0
0 97 0
0 96 0
0 97 0
0 96 0
0 95 0
0 96 0
0 96 0
0 97 0
0 98 0
0 99 0
0 96 0
0 97 0
0 97 0
0 96 0
0 97 0
0 97 0
0 97 0
0 97 0
0 97 0
0 97 0
0 98 0
0 96 0
0 97 0
0 98 0
0 98 0
0 96 0
0 98 0
0 98 0
0 98 0
0 98 0
0 97 0
0 97 0
0 98 0
0 98 0
0 98 0
0 96 0
0 97 0
0 96 0
0 98 0
0 97 0
0 96 0
0 98 0
0 98 0
0 96 0
0 97 0
0 97 0
0 97 0
0 99 0
0 98 0
0 96 0
0 97 0
0 97 0
0 97 0
0 98 0
0 99 0
0 97 0
0 98 0
0 99 0
0 98 0
0 97 0
0 98 0
0 98 0
0 96 0
0 98 0
0 96 0
0 98 0
0 98 0
0 97 0
0 98 0
0 97 0
0 99 0
0 97 0
0 98 0
0 98 0
0 97 0
0 97 0
0 97 0
0 98 0
0 99 0
0 97 0
0 98 0
0 98 0
0 98 0
0 98 0
0 97 0
0 98 0
0 98 0
0 99 0
0 98 0
0 98 0
0 98 0
0 97 0
0 99 0
0 98 0
0 98 0
0 99 0
0 98 0
0 99 0
0 97 0
0 98 0
0 99 0
0 98 0
0 98 0
0 98 0
0 98 0
0 99 0
0 98 0
0 98 0
0 98 0
0 98 0
0 98 0
0 98 0
0 98 0
0 99 0
0 98 0
0 99 0
0 98 0
0 98 0
0 97 0
0 98 0
0 98 0
0 98 0
0 99 0
0 98 0
0 98 0
0 98 0
0 98 0
0 98 0
0 99 0
0 98 0
0 98 0
0 99 0
0 98 0
0 98 0
0 99 0
0 98 0
0 98 0
0 98 0
0 99 0
0 98 0
0 99 0
0 99 0
0 97 0
0 98 0
0 98 0
0 98 0
0 99 0
0 99 0
0 97 0
0 99 0
0 99 0
0 98 0
0 98 0
0 98 0
0 99 0
0 98 0
0 98 0
0 98 0
0 98 0
0 98 0
0 98 0
0 98 0
0 97 0
0 98 0
0 98 0
0 97 0
0 99 0
0 99 0
0 99 0
0 97 0
0 98 0
0 98 0
0 98 0
0 99 0
0 96 0
0 97 0
0 96 0
0 97 0
0 97 0
0 97 0
0 96 0
0 98 0
0 98 0
0 98 0
0 97 0
0 98 0
0 98 0
0 97 0
0 99 0
0 97 0
0 98 0
0 97 0
0 98 0
0 97 0
0 97 0
0 97 0
0 97 0
0 95 0
0 97 0
0 97 0
0 95 0
0 96 0
0 96 0
0 97 0
0 96 0
0 97 0
0 98 0
0 99 0
0 97 0
0 96 0
0 97 0
0 96 0
0 96 0
0 97 0
0 97 0
0 96 0
0 97 0
0 96 0
0 96 0
0 97 0
0 97 0
0 96 0
0 96 0
0 97 0
0 97 0
0 95 0
0 97 0
0 96 0
0 96 0
0 96 0
0 94 0
0 97 0
0 97 0
0 95 0
0 95 0
0 96 0
0 95 0
0 95 0
0 93 0
0 96 0
0 92 0
0 95 0
0 94 0
54 107 62
85 128 99
42 102 51
21 98 25
37 103 44
31 100 36
22 99 25
0 93 0
0 94 0
0 96 0
0 94 0
0 94 0
0 97 0
0 94 0
0 93 0
0 95 0
0 95 0
0 96 0
0 96 0
0 96 0
0 94 0
0 94 0
0 92 0
0 92 0
0 93 0
0 95 0
0 94 0
0 93 0
0 94 0
0 93 0
0 94 0
0 94 0
0 93 0
0 94 0
0 94 0
0 90 0
0 96 0
0 94 0
0 92 0
0 91 0
0 93 0
0 89 0
0 89 0
0 93 0
0 95 0
0 94 0
0 93 0
0 91 0
21 90 25
21 94 25
0 88 0
0 90 0
49 99 57
48 98 57
29 95 36
52 101 62
31 91 36
0 89 0
0 90 0
0 89 0
0 88 0
0 85 0
0 86 0
0 88 0
0 87 0
0 92 0
0 92 0
0 85 0
0 89 0
0 89 0
0 88 0
0 90 0
0 89 0
0 88 0
0 93 0
0 91 0
0 90 0
0 89 0
0 89 0
0 89 0
0 89 0
0 92 0
0 88 0
0 91 0
0 91 0
0 92 0
0 91 0
0 92 0
0 92 0
0 90 0
0 91 0
0 93 0
0 94 0
0 92 0
0 92 0
0 91 0
0 93 0
0 92 0
0 92 0
0 91 0
0 90 0
0 93 0
0 94 0
0 92 0
0 93 0
0 93 0
0 94 0
0 92 0
0 94 0
0 94 0
0 94 0
0 93 0
0 92 0
0 92 0
0 95 0
0 93 0
0 92 0
0 92 0
0 95 0
0 94 0
0 92 0
0 95 0
0 91 0
0 94 0
0 94 0
0 97 0
0 98 0
0 95 0
0 94 0
0 95 0
0 95 0
0 96 0
0 97 0
0 93 0
0 94 0
0 96 0
0 94 0
0 95 0
0 95 0
0 96 0
0 95 0
0 96 0
0 94 0
0 98 0
0 98 0
0 95 0
0 97 0
0 97 0
0 95 0
0 96 0
0 95 0
0 96 0
0 98 0
0 96 0
0 95 0
0 96 0
0 97 0
0 97 0
0 97 0
0 97 0
0 98 0
0 95 0
0 95 0
0 96 0
0 98 0
0 97 0
0 98 0
0 97 0
0 98 0
0 97 0
0 97 0
0 96 0
0 98 0
0 95 0
0 97 0
0 99 0
0 97 0
0 97 0
0 98 0
0 97 0
0 98 0
0 97 0
0 97 0
0 97 0
0 98 0
0 97 0
0 98 0
0 98 0
0 97 0
0 97 0
0 96 0
0 97 0
0 97 0
0 97 0
0 97 0
0 96 0
0 97 0
0 98 0
0 97 0
0 98 0
0 96 0
0 98 0
0 98 0
0 99 0
0 99 0
0 98 0
0 97 0
0 98 0
0 98 0
0 97 0
0 98 0
0 97 0
0 98 0
0 98 0
0 98 0
0 98 0
0 97 0
0 99 0
0 98 0
0 97 0
0 97 0
0 97 0
0 99 0
0 98 0
0 97 0
0 97 0
0 98 0
0 98 0
0 97 0
0 98 0
0 99 0
0 97 0
0 98 0
0 99 0
0 98 0
0 98 0
0 99 0
0 98 0
0 98 0
0 98 0
0 98 0
0 98 0
0 99 0
0 97 0
0 98 0
0 98 0
0 97 0
0 99 0
0 98 0
0 99 0
0 98 0
0 98 0
0 99 0
0 98 0
0 98 0
0 97 0
0 97 0
0 98 0
0 98 0
0 98 0
0 98 0
0 98 0
0 98 0
0 99 0
0 98 0
0 98 0
0 98 0
0 98 0
0 98 0
0 98 0
0 98 0
0 99 0
0 98 0
0 98 0
0 98 0
0 98 0
0 98 0
0 99 0
0 99 0
0 99 0
0 98 0
0 99 0
0 98 0
0 98 0
0 99 0
0 98 0
0 98 0
0 98 0
0 98 0
0 99 0
0 99 0
0 98 0
0 99 0
0 98 0
0 98 0
0 99 0
0 98 0
0 98 0
0 99 0
0 98 0
0 98 0
0 99 0
0 99 0
0 98 0
0 98 0
0 98 0
0 98 0
0 98 0
0 98 0
0 97 0
0 98 0
0 98 0
0 99 0
0 98 0
0 98 0
0 98 0
0 98 0
0 97 0
0 98 0
0 99 0
0 98 0
0 98 0
0 98 0
0 98 0
0 98 0
0 98 0
0 99 0
0 96 0
0 96 0
0 96 0
0 98 0
0 98 0
0 99 0
0 97 0
0 97 0
0 97 0
0 98 0
0 97 0
0 98 0
0 97 0
0 98 0
0 97 0
0 97 0
0 98 0
0 96 0
0 97 0
0 98 0
0 98 0
0 97 0
0 97 0
0 96 0
0 98 0
0 98 0
0 97 0
0 98 0
0 97 0
0 98 0
0 98 0
0 97 0
0 99 0
0 98 0
0 96 0
0 98 0
0 96 0
0 97 0
0 96 0
0 98 0
0 96 0
0 96 0
0 96 0
0 96 0
0 97 0
0 96 0
0 97 0
0 98 0
0 95 0
0 96 0
0 98 0
0 97 0
0 97 0
0 97 0
0 96 0
0 97 0
0 95 0
0 94 0
0 97 0
0 95 0
0 97 0
0 97 0
0 95 0
0 94 0
0 95 0
0 95 0
0 94 0
0 95 0
0 94 0
0 95 0
0 94 0
0 96 0
0 93 0
0 94 0
0 93 0
54 109 62
43 104 51
30 99 36
48 108 57
53 110 62
31 99 36
30 99 36
0 95 0
0 93 0
0 95 0
0 93 0
0 94 0
22 96 25
0 97 0
22 95 25
0 94 0
0 94 0
0 92 0
0 94 0
0 95 0
0 93 0
0 90 0
0 93 0
0 93 0
0 96 0
0 95 0
0 91 0
0 92 0
0 93 0
0 92 0
0 91 0
0 93 0
0 91 0
0 93 0
0 93 0
0 91 0
0 89 0
0 92 0
0 93 0
0 89 0
0 89 0
0 91 0
0 92 0
21 92 25
0 93 0
0 85 0
0 93 0
0 90 0
37 99 44
48 99 57
43 99 51
61 108 72
48 101 57
0 90 0
0 89 0
0 85 0
0 90 0
0 89 0
0 87 0
0 92 0
0 90 0
0 92 0
0 90 0
0 88 0
0 90 0
0 90 0
0 89 0
0 91 0
0 90 0
0 88 0
0 91 0
0 90 0
0 92 0
0 91 0
0 92 0
0 95 0
0 92 0
0 89 0
0 92 0
0 89 0
0 90 0
0 92 0
0 94 0
0 93 0
0 89 0
0 92 0
0 90 0
0 92 0
0 93 0
0 92 0
0 94 0
0 91 0
0 96 0
0 92 0
0 92 0
0 95 0
0 92 0
0 97 0
0 95 0
0 94 0
0 92 0
0 96 0
0 92 0
0 95 0
0 94 0
0 94 0
0 90 0
0 95 0
0 91 0
0 95 0
0 95 0
0 96 0
0 94 0
0 94 0
0 95 0
0 91 0
0 96 0
0 94 0
0 96 0
0 93 0
0 95 0
0 94 0
0 94 0
0 93 0
0 97 0
0 96 0
0 94 0
0 95 0
0 96 0
0 96 0
0 95 0
0 95 0
0 93 0
0 94 0
0 96 0
0 95 0
0 95 0
0 97 0
0 95 0
0 97 0
0 94 0
0 98 0
0 96 0
0 98 0
0 94 0
0 97 0
0 95 0
0 95 0
0 95 0
0 96 0
0 97 0
0 97 0
0 95 0
0 97 0
0 97 0
0 96 0
0 96 0
0 96 0
0 98 0
0 97 0
0 96 0
0 96 0
0 95 0
0 98 0
0 96 0
0 98 0
0 96 0
0 97 0
0 97 0
0 97 0
0 97 0
0 97 0
0 96 0
0 97 0
0 96 0
0 95 0
0 97 0
0 97 0
0 98 0
0 98 0
0 98 0
0 97 0
0 97 0
0 97 0
0 97 0
0 96 0
0 97 0
0 97 0
0 98 0
0 98 0
0 97 0
0 98 0
0 96 0
0 97 0
0 97 0
0 97 0
0 97 0
0 98 0
0 98 0
0 98 0
0 97 0
0 96 0
0 98 0
0 98 0
0 98 0
0 98 0
0 96 0
0 96 0
0 98 0
0 98 0
0 97 0
0 98 0
0 97 0
0 98 0
0 98 0
0 98 0
0 97 0
0 98 0
0 98 0
0 98 0
0 98 0
0 98 0
0 98 0
0 98 0
0 98 0
0 98 0
0 97 0
0 98 0
0 98 0
0 98 0
0 98 0
0 97 0
0 98 0
0 97 0
0 98 0
0 98 0
0 98 0
0 97 0
0 98 0
0 98 0
0 98 0
0 97 0
0 98 0
0 98 0
0 98 0
0 99 0
0 99 0
0 99 0
0 97 0
0 99 0
0 99 0
0 99 0
0 98 0
0 98 0
0 99 0
0 98 0
0 98 0
0 98 0
0 98 0
0 98 0
0 98 0
0 98 0
0 98 0
0 98 0
0 99 0
0 98 0
0 98 0
0 97 0
0 99 0
0 99 0
0 99 0
0 99 0
0 97 0
0 99 0
0 98 0
0 99 0
0 98 0
0 98 0
0 98 0
0 98 0
0 98 0
0 99 0
0 99 0
0 99 0
0 98 0
0 98 0
0 99 0
0 98 0
0 98 0
0 98 0
0 97 0
0 99 0
0 98 0
0 98 0
0 98 0
0 99 0
0 98 0
0 98 0
0 98 0
0 98 0
0 97 0
0 98 0
0 98 0
0 98 0
0 97 0
0 98 0
0 98 0
0 99 0
0 98 0
0 98 0
0 97 0
0 99 0
0 98 0
0 98 0
0 98 0
0 97 0
0 98 0
0 99 0
0 98 0
0 99 0
0 98 0
0 98 0
0 98 0
0 97 0
0 98 0
0 98 0
0 98 0
0 99 0
0 98 0
0 98 0
0 98 0
0 97 0
0 97 0
0 98 0
0 98 0
0 98 0
0 98 0
0 97 0
0 96 0
0 96 0
0 98 0
0 97 0
0 97 0
0 98 0
0 97 0
0 97 0
0 97 0
0 97 0
0 97 0
0 98 0
0 97 0
0 97 0
0 96 0
0 98 0
0 96 0
0 96 0
0 97 0
0 96 0
0 97 0
0 97 0
0 97 0
0 96 0
0 98 0
0 96 0
0 98 0
0 98 0
0 96 0
0 97 0
0 97 0
0 96 0
0 96 0
0 97 0
0 95 0
0 97 0
0 97 0
0 95 0
0 96 0
0 96 0
0 96 0
0 94 0
0 94 0
0 97 0
0 96 0
0 96 0
0 96 0
0 97 0
0 96 0
0 93 0
0 97 0
0 95 0
0 97 0
0 95 0
0 95 0
0 95 0
0 95 0
0 93 0
0 96 0
0 95 0
0 96 0
0 91 0
0 97 0
44 105 51
72 119 84
44 102 51
0 94 0
37 103 44
53 109 62
31 99 36
31 101 36
0 94 0
20 95 25
0 97 0
0 96 0
0 95 0
0 95 0
0 94 0
0 92 0
0 94 0
21 94 25
0 91 0
0 94 0
0 94 0
0 95 0
0 94 0
0 93 0
0 93 0
0 93 0
0 96 0
0 92 0
0 93 0
0 93 0
0 91 0
0 91 0
0 93 0
0 92 0
0 90 0
0 95 0
0 92 0
0 91 0
0 93 0
0 93 0
21 93 25
0 95 0
21 91 25
0 88 0
31 97 36
44 98 51
43 94 51
0 91 0
37 94 44
58 101 67
0 87 0
0 85 0
0 88 0
0 86 0
0 89 0
0 86 0
0 93 0
0 90 0
0 90 0
0 89 0
0 90 0
0 90 0
0 86 0
0 91 0
0 87 0
0 92 0
0 90 0
0 90 0
0 92 0
0 91 0
0 91 0
0 93 0
0 91 0
0 92 0
0 95 0
0 94 0
0 89 0
0 93 0
0 89 0
0 92 0
0 94 0
0 93 0
0 92 0
0 93 0
0 94 0
0 91 0
0 93 0
0 93 0
0 92 0
0 90 0
0 96 0
0 93 0
0 93 0
0 94 0
0 95 0
0 93 0
0 93 0
0 93 0
0 91 0
0 94 0
0 93 0
0 93 0
0 95 0
0 93 0
0 94 0
0 95 0
0 93 0
0 92 0
0 94 0
0 93 0
0 94 0
0 94 0
0 95 0
0 92 0
0 96 0
0 96 0
0 94 0
0 94 0
0 95 0
0 97 0
0 95 0
0 94 0
0 94 0
0 97 0
0 95 0
0 98 0
0 94 0
0 97 0
0 93 0
0 94 0
0 96 0
0 93 0
0 97 0
0 96 0
0 96 0
0 95 0
0 94 0
0 97 0
0 97 0
0 96 0
0 98 0
0 96 0
0 96 0
0 95 0
0 95 0
0 96 0
0 97 0
0 95 0
0 96 0
0 97 0
0 95 0
0 98 0
0 98 0
0 97 0
0 97 0
0 98 0
0 97 0
0 96 0
0 97 0
0 95 0
0 98 0
0 98 0
0 95 0
0 97 0
0 96 0
0 96 0
0 96 0
0 97 0
0 97 0
0 97 0
0 95 0
0 99 0
0 97 0
0 96 0
0 97 0
0 97 0
0 96 0
0 96 0
0 97 0
0 98 0
0 97 0
0 98 0
0 98 0
0 97 0
0 97 0
0 97 0
0 97 0
0 98 0
0 96 0
0 98 0
0 98 0
0 98 0
0 98 0
0 97 0
0 98 0
0 97 0
0 98 0
0 97 0
0 98 0
0 97 0
0 97 0
0 98 0
0 98 0
0 98 0
0 97 0
0 96 0
0 98 0
0 98 0
0 97 0
0 97 0
0 97 0
0 97 0
0 99 0
0 98 0
0 98 0
0 97 0
0 99 0
0 98 0
0 97 0
0 98 0
0 98 0
0 97 0
0 97 0
0 98 0
0 98 0
0 98 0
0 99 0
0 99 0
0 96 0
0 97 0
0 98 0
0 97 0
0 98 0
0 98 0
0 98 0
0 99 0
0 99 0
0 98 0
0 99 0
0 99 0
0 97 0
0 99 0
0 99 0
0 98 0
0 99 0
0 98 0
0 98 0
0 97 0
0 98 0
0 98 0
0 98 0
0 98 0
0 98 0
0 98 0
0 98 0
0 98 0
0 98 0
0 98 0
0 97 0
0 99 0
0 98 0
0 98 0
0 98 0
0 97 0
0 98 0
0 98 0
0 98 0
0 98 0
0 98 0
0 98 0
0 99 0
0 99 0
0 98 0
0 98 0
0 98 0
0 98 0
0 98 0
0 98 0
0 98 0
0 98 0
0 98 0
0 98 0
0 99 0
0 98 0
0 98 0
0 99 0
0 99 0
0 99 0
0 98 0
0 97 0
0 98 0
0 98 0
0 98 0
0 99 0
0 98 0
0 98 0
0 99 0
0 98 0
0 99 0
0 98 0
0 99 0
0 98 0
0 98 0
0 99 0
0 98 0
0 98 0
0 98 0
0 96 0
0 98 0
0 98 0
0 97 0
0 98 0
0 98 0
0 98 0
0 99 0
0 98 0
0 98 0
0 98 0
0 98 0
0 98 0
0 98 0
0 98 0
0 98 0
0 97 0
0 98 0
0 98 0
0 96 0
0 99 0
0 98 0
0 98 0
0 98 0
0 98 0
0 98 0
0 97 0
0 97 0
0 98 0
0 97 0
0 98 0
0 97 0
0 97 0
0 98 0
0 97 0
0 98 0
0 98 0
0 96 0
0 97 0
0 97 0
0 97 0
0 98 0
0 98 0
0 97 0
0 97 0
0 98 0
0 98 0
0 97 0
0 96 0
0 97 0
0 95 0
0 96 0
0 97 0
0 98 0
0 97 0
0 96 0
0 98 0
0 96 0
0 97 0
0 97 0
0 97 0
0 96 0
0 97 0
0 97 0
0 97 0
0 96 0
0 96 0
0 97 0
0 97 0
0 96 0
0 97 0
0 96 0
0 96 0
0 96 0
0 96 0
0 94 0
0 97 0
0 95 0
0 96 0
0 96 0
0 94 0
0 95 0
0 97 0
0 96 0
0 95 0
0 95 0
0 96 0
0 94 0
0 93 0
0 95 0
0 92 0
0 96 0
0 93 0
0 94 0
0 95 0
49 107 57
43 102 51
53 107 62
21 96 25
21 95 25
48 107 57
38 102 44
38 100 44
22 94 25
22 95 25
0 94 0
0 95 0
0 94 0
0 93 0
0 97 0
0 93 0
0 95 0
21 96 25
0 91 0
0 95 0
0 95 0
0 94 0
0 93 0
20 93 25
0 91 0
0 93 0
0 87 0
0 92 0
0 90 0
0 93 0
0 90 0
0 93 0
0 91 0
0 93 0
0 90 0
0 94 0
0 88 0
0 89 0
0 91 0
0 91 0
38 97 44
30 93 36
30 93 36
0 85 0
42 100 51
61 107 72
22 94 25
0 87 0
0 87 0
0 91 0
0 92 0
0 92 0
0 86 0
0 89 0
0 86 0
0 89 0
0 93 0
0 89 0
0 88 0
0 90 0
0 89 0
0 89 0
0 93 0
0 91 0
0 93 0
0 91 0
0 89 0
0 90 0
0 93 0
0 92 0
0 92 0
0 94 0
0 90 0
0 95 0
0 93 0
0 92 0
0 92 0
0 91 0
0 94 0
0 93 0
0 91 0
0 93 0
0 92 0
0 94 0
0 92 0
0 92 0
0 93 0
0 94 0
0 91 0
0 91 0
0 95 0
0 93 0
0 93 0
0 92 0
0 92 0
0 93 0
0 93 0
0 95 0
0 93 0
0 94 0
0 95 0
0 94 0
0 95 0
0 94 0
0 94 0
0 94 0
0 95 0
0 93 0
0 93 0
0 94 0
0 95 0
0 95 0
0 94 0
0 95 0
0 96 0
0 95 0
0 96 0
0 96 0
0 97 0
0 93 0
0 96 0
0 96 0
0 92 0
0 96 0
0 96 0
0 94 0
0 96 0
0 95 0
0 95 0
0 95 0
0 96 0
0 97 0
0 95 0
0 96 0
0 96 0
0 97 0
0 96 0
0 94 0
0 97 0
0 97 0
0 97 0
0 96 0
0 97 0
0 98 0
0 97 0
0 95 0
0 97 0
0 96 0
0 95 0
0 96 0
0 97 0
0 98 0
0 96 0
0 98 0
0 96 0
0 98 0
0 97 0
0 97 0
0 97 0
0 97 0
0 98 0
0 95 0
0 97 0
0 98 0
0 96 0
0 97 0
0 96 0
0 98 0
0 98 0
0 97 0
0 97 0
0 98 0
0 97 0
0 96 0
0 96 0
0 97 0
0 97 0
0 98 0
0 97 0
0 97 0
0 98 0
0 98 0
0 97 0
0 96 0
0 95 0
0 97 0
0 97 0
0 96 0
0 97 0
0 98 0
0 97 0
0 97 0
0 97 0
0 97 0
0 97 0
0 97 0
0 98 0
0 97 0
0 97 0
0 98 0
0 98 0
0 97 0
0 96 0
0 97 0
0 98 0
0 98 0
0 97 0
0 97 0
0 98 0
0 98 0
0 97 0
0 98 0
0 97 0
0 98 0
0 98 0
0 98 0
0 99 0
0 98 0
0 98 0
0 97 0
0 98 0
0 98 0
0 97 0
0 98 0
0 98 0
0 99 0
0 98 0
0 98 0
0 99 0
0 98 0
0 98 0
0 98 0
0 97 0
0 97 0
0 98 0
0 98 0
0 98 0
0 98 0
0 98 0
0 98 0
0 98 0
0 98 0
0 98 0
0 97 0
0 99 0
0 97 0
0 97 0
0 99 0
0 97 0
0 99 0
0 98 0
0 98 0
0 98 0
0 99 0
0 98 0
0 99 0
0 98 0
0 99 0
0 98 0
0 98 0
0 97 0
0 98 0
0 97 0
0 98 0
0 98 0
0 99 0
0 99 0
0 99 0
0 98 0
0 98 0
0 99 0
0 98 0
0 98 0
0 98 0
0 98 0
0 99 0
0 98 0
0 98 0
0 97 0
0 98 0
0 99 0
0 99 0
0 98 0
0 98 0
0 98 0
0 98 0
0 97 0
0 98 0
0 99 0
0 98 0
0 98 0
0 99 0
0 98 0
0 99 0
0 99 0
0 98 0
0 99 0
0 98 0
0 98 0
0 99 0
0 98 0
0 98 0
0 97 0
0 97 0
0 97 0
0 97 0
0 98 0
0 99 0
0 98 0
0 99 0
0 99 0
0 98 0
0 98 0
0 98 0
0 97 0
0 97 0
0 98 0
0 98 0
0 99 0
0 98 0
0 99 0
0 97 0
0 98 0
0 97 0
0 98 0
0 99 0
0 98 0
0 97 0
0 95 0
0 97 0
0 96 0
0 97 0
0 97 0
0 97 0
0 97 0
0 97 0
0 98 0
0 97 0
0 98 0
0 97 0
0 98 0
0 97 0
0 98 0
0 97 0
0 97 0
0 97 0
0 96 0
0 96 0
0 96 0
0 97 0
0 97 0
0 98 0
0 97 0
0 98 0
0 97 0
0 97 0
0 97 0
0 98 0
0 97 0
0 97 0
0 98 0
0 95 0
0 96 0
0 98 0
0 95 0
0 96 0
0 96 0
0 95 0
0 96 0
0 94 0
0 97 0
0 96 0
0 96 0
0 94 0
0 96 0
0 98 0
0 95 0
0 96 0
0 95 0
0 96 0
0 96 0
0 93 0
0 95 0
0 96 0
0 95 0
0 94 0
0 95 0
0 96 0
0 94 0
0 94 0
0 97 0
0 96 0
0 95 0
0 95 0
0 94 0
0 93 0
0 93 0
0 95 0
0 95 0
0 95 0
0 95 0
0 93 0
44 102 51
69 114 80
55 109 67
21 93 25
30 97 36
43 104 51
58 109 67
31 100 36
0 95 0
22 95 25
0 95 0
0 94 0
21 97 25
0 94 0
0 93 0
0 95 0
0 95 0
0 93 0
0 91 0
0 95 0
0 92 0
0 90 0
0 93 0
0 93 0
0 92 0
0 86 0
0 92 0
0 89 0
0 92 0
0 89 0
0 92 0
0 91 0
0 91 0
0 91 0
0 91 0
0 90 0
31 93 36
48 102 57
21 91 25
20 89 25
62 108 72
49 102 57
0 92 0
0 90 0
0 88 0
0 90 0
0 90 0
0 90 0
0 90 0
0 88 0
0 86 0
0 90 0
0 92 0
0 88 0
0 93 0
0 91 0
0 91 0
0 93 0
0 89 0
0 88 0
0 90 0
0 90 0
0 92 0
0 91 0
0 92 0
0 92 0
0 92 0
0 90 0
0 92 0
0 93 0
0 91 0
0 90 0
0 90 0
0 93 0
0 93 0
0 94 0
0 94 0
0 92 0
0 94 0
0 93 0
0 94 0
0 96 0
0 93 0
0 93 0
0 94 0
0 91 0
0 95 0
0 91 0
0 92 0
0 93 0
0 90 0
0 95 0
0 96 0
0 96 0
0 96 0
0 95 0
0 94 0
0 93 0
0 94 0
0 94 0
0 95 0
0 93 0
0 92 0
0 95 0
0 92 0
0 94 0
0 96 0
0 94 0
0 94 0
0 94 0
0 94 0
0 96 0
0 94 0
0 95 0
0 94 0
0 94 0
0 95 0
0 97 0
0 95 0
0 97 0
0 96 0
0 96 0
0 94 0
0 95 0
0 95 0
0 97 0
0 97 0
0 97 0
0 96 0
0 96 0
0 95 0
0 95 0
0 95 0
0 94 0
0 97 0
0 97 0
0 97 0
0 97 0
0 96 0
0 97 0
0 97 0
0 95 0
0 97 0
0 96 0
0 95 0
0 96 0
0 97 0
0 95 0
0 95 0
0 95 0
0 98 0
0 96 0
0 97 0
0 97 0
0 98 0
0 96 0
0 97 0
0 96 0
0 97 0
0 94 0
0 96 0
0 97 0
0 98 0
0 99 0
0 96 0
0 95 0
0 97 0
0 98 0
0 98 0
0 96 0
0 97 0
0 98 0
0 97 0
0 96 0
0 96 0
0 97 0
0 97 0
0 97 0
0 97 0
0 98 0
0 97 0
0 98 0
0 96 0
0 98 0
0 98 0
0 97 0
0 98 0
0 96 0
0 98 0
0 97 0
0 97 0
0 98 0
0 98 0
0 99 0
0 98 0
0 97 0
0 97 0
0 98 0
0 98 0
0 98 0
0 98 0
0 98 0
0 98 0
0 98 0
0 98 0
0 98 0
0 98 0
0 98 0
0 98 0
0 99 0
0 98 0
0 97 0
0 99 0
0 98 0
0 98 0
0 98 0
0 97 0
0 97 0
0 98 0
0 97 0
0 98 0
0 99 0
0 98 0
0 97 0
0 97 0
0 98 0
0 97 0
0 98 0
0 98 0
0 98 0
0 98 0
0 98 0
0 98 0
0 97 0
0 98 0
0 98 0
0 98 0
0 98 0
0 98 0
0 97 0
0 98 0
0 98 0
0 98 0
0 98 0
0 99 0
0 99 0
0 97 0
0 98 0
0 98 0
0 98 0
0 98 0
0 99 0
0 98 0
0 99 0
0 98 0
0 97 0
0 98 0
0 98 0
0 98 0
0 98 0
0 98 0
0 98 0
0 98 0
0 97 0
0 97 0
0 99 0
0 98 0
0 98 0
0 99 0
0 98 0
0 98 0
0 99 0
0 98 0
0 98 0
0 99 0
0 98 0
0 98 0
0 98 0
0 98 0
0 98 0
0 99 0
0 97 0
0 99 0
0 98 0
0 98 0
0 99 0
0 97 0
0 98 0
0 98 0
0 98 0
0 98 0
0 98 0
0 98 0
0 98 0
0 99 0
0 99 0
0 98 0
0 98 0
0 98 0
0 99 0
0 98 0
0 99 0
0 98 0
0 97 0
0 98 0
0 98 0
0 98 0
0 97 0
0 97 0
0 97 0
0 96 0
0 98 0
0 98 0
0 97 0
0 96 0
0 97 0
0 97 0
0 98 0
0 97 0
0 98 0
0 98 0
0 96 0
0 96 0
0 98 0
0 98 0
0 97 0
0 98 0
0 98 0
0 98 0
0 96 0
0 97 0
0 96 0
0 97 0
0 97 0
0 96 0
0 98 0
0 96 0
0 99 0
0 97 0
0 98 0
0 97 0
0 99 0
0 97 0
0 96 0
0 99 0
0 97 0
0 97 0
0 97 0
0 97 0
0 96 0
0 96 0
0 97 0
0 98 0
0 98 0
0 96 0
0 95 0
0 97 0
0 97 0
0 97 0
0 98 0
0 96 0
0 96 0
0 96 0
0 97 0
0 96 0
0 95 0
0 96 0
0 97 0
0 97 0
0 97 0
0 98 0
0 97 0
0 95 0
0 95 0
0 95 0
0 95 0
0 95 0
0 96 0
0 95 0
0 94 0
0 97 0
0 96 0
0 95 0
0 94 0
0 95 0
0 96 0
0 94 0
0 94 0
0 95 0
0 94 0
0 94 0
0 96 0
0 93 0
0 94 0
0 96 0
0 91 0
0 95 0
0 94 0
0 93 0
0 95 0
0 94 0
0 97 0
22 97 25
58 108 67
37 103 44
48 105 57
0 92 0
37 100 44
43 104 51
22 90 25
58 108 67
44 99 51
38 103 44
22 96 25
37 95 44
22 94 25
0 91 0
0 90 0
0 91 0
0 93 0
0 92 0
0 90 0
0 92 0
20 91 25
0 90 0
0 94 0
0 91 0
0 90 0
22 92 25
22 88 25
22 90 25
38 95 44
31 93 36
37 97 44
21 91 25
21 95 25
51 101 62
43 94 51
30 93 36
38 98 44
0 92 0
0 94 0
0 91 0
0 91 0
0 91 0
0 91 0
0 90 0
0 89 0
0 92 0
0 91 0
0 91 0
0 91 0
0 87 0
0 89 0
0 89 0
0 90 0
0 88 0
0 94 0
0 90 0
0 90 0
0 92 0
0 92 0
0 93 0
0 95 0
0 93 0
0 95 0
0 91 0
0 94 0
0 92 0
0 92 0
0 92 0
0 91 0
0 95 0
0 94 0
0 92 0
0 94 0
0 94 0
0 92 0
0 91 0
0 95 0
0 91 0
0 93 0
0 90 0
0 94 0
0 94 0
0 92 0
0 96 0
0 91 0
0 91 0
0 94 0
0 95 0
0 93 0
0 95 0
0 94 0
0 94 0
0 91 0
0 94 0
0 95 0
0 93 0
0 95 0
0 97 0
0 95 0
0 95 0
0 97 0
0 94 0
0 94 0
0 94 0
0 93 0
0 96 0
0 97 0
0 94 0
0 96 0
0 94 0
0 96 0
0 96 0
0 95 0
0 96 0
0 95 0
0 95 0
0 95 0
0 95 0
0 96 0
0 95 0
0 97 0
0 96 0
0 97 0
0 95 0
0 96 0
0 96 0
0 97 0
0 95 0
0 97 0
0 96 0
0 96 0
0 96 0
0 94 0
0 97 0
0 96 0
0 97 0
0 95 0
0 96 0
0 94 0
0 96 0
0 97 0
0 96 0
0 96 0
0 97 0
0 95 0
0 95 0
0 97 0
0 95 0
0 97 0
0 95 0
0 95 0
0 97 0
0 97 0
0 95 0
0 97 0
0 97 0
0 98 0
0 98 0
0 96 0
0 98 0
0 96 0
0 97 0
0 96 0
0 98 0
0 97 0
0 97 0
0 97 0
0 96 0
0 97 0
0 96 0
0 96 0
0 98 0
0 96 0
0 98 0
0 98 0
0 96 0
0 96 0
0 97 0
0 97 0
0 98 0
0 97 0
0 97 0
0 97 0
0 97 0
0 97 0
0 98 0
0 97 0
0 98 0
0 97 0
0 97 0
0 97 0
0 98 0
0 98 0
0 95 0
0 98 0
0 98 0
0 96 0
0 98 0
0 97 0
0 98 0
0 98 0
0 97 0
0 97 0
0 97 0
0 97 0
0 98 0
0 98 0
0 98 0
0 98 0
0 98 0
0 97 0
0 97 0
0 98 0
0 99 0
0 98 0
0 98 0
0 99 0
0 98 0
0 98 0
0 98 0
0 98 0
0 98 0
0 98 0
0 98 0
0 98 0
0 99 0
0 98 0
0 98 0
0 97 0
0 98 0
0 98 0
0 96 0
0 97 0
0 98 0
0 97 0
0 98 0
0 98 0
0 98 0
0 98 0
0 98 0
0 98 0
0 98 0
0 98 0
0 99 0
0 98 0
0 98 0
0 99 0
0 97 0
0 98 0
0 99 0
0 97 0
0 99 0
0 98 0
0 99 0
0 99 0
0 98 0
0 97 0
0 99 0
0 98 0
0 98 0
0 98 0
0 99 0
0 98 0
0 99 0
0 98 0
0 98 0
0 98 0
0 99 0
0 99 0
0 98 0
0 98 0
0 99 0
0 98 0
0 98 0
0 98 0
0 98 0
0 99 0
0 98 0
0 98 0
0 98 0
0 97 0
0 98 0
0 98 0
0 99 0
0 98 0
0 98 0
0 98 0
0 98 0
0 98 0
0 98 0
0 98 0
0 98 0
0 98 0
0 98 0
0 99 0
0 98 0
0 98 0
0 99 0
0 97 0
0 99 0
0 98 0
0 98 0
0 99 0
0 98 0
0 98 0
0 98 0
0 98 0
0 98 0
0 99 0
0 98 0
0 98 0
0 98 0
0 97 0
0 98 0
0 97 0
0 98 0
0 97 0
0 97 0
0 96 0
0 96 0
0 99 0
0 99 0
0 98 0
0 97 0
0 98 0
0 99 0
0 97 0
0 98 0
0 98 0
0 97 0
0 98 0
0 97 0
0 98 0
0 98 0
0 97 0
0 97 0
0 96 0
0 98 0
0 98 0
0 99 0
0 96 0
0 97 0
0 98 0
0 97 0
0 96 0
0 96 0
0 97 0
0 98 0
0 97 0
0 97 0
0 97 0
0 96 0
0 96 0
0 97 0
0 98 0
0 97 0
0 98 0
0 98 0
0 96 0
0 95 0
0 96 0
0 96 0
0 97 0
0 98 0
0 96 0
0 96 0
0 97 0
0 95 0
0 97 0
0 95 0
0 98 0
0 96 0
0 96 0
0 97 0
0 97 0
0 94 0
0 96 0
0 96 0
0 94 0
0 96 0
0 96 0
0 98 0
0 96 0
0 94 0
0 96 0
0 95 0
0 97 0
0 95 0
0 96 0
0 94 0
0 96 0
0 95 0
0 98 0
0 97 0
0 96 0
0 95 0
0 96 0
0 93 0
0 93 0
0 91 0
0 92 0
0 94 0
22 98 25
49 105 57
53 107 62
58 110 67
47 101 57
21 95 25
37 102 44
30 96 36
42 103 51
48 102 57
52 102 62
38 100 44
37 98 44
0 93 0
44 100 51
31 93 36
49 103 57
0 93 0
31 95 36
37 95 44
31 92 36
38 94 44
37 97 44
43 97 51
53 103 62
48 101 57
47 99 57
46 100 57
21 90 25
48 100 57
53 103 62
38 95 44
22 90 25
0 88 0
0 90 0
0 91 0
0 93 0
0 89 0
0 94 0
0 89 0
0 90 0
0 89 0
0 90 0
0 91 0
0 92 0
0 91 0
0 90 0
0 90 0
0 91 0
0 92 0
0 91 0
0 93 0
0 93 0
0 92 0
0 89 0
0 92 0
0 94 0
0 93 0
0 90 0
0 95 0
0 92 0
0 90 0
0 90 0
0 90 0
0 93 0
0 95 0
0 93 0
0 94 0
0 94 0
0 91 0
0 93 0
0 91 0
0 93 0
0 94 0
0 96 0
0 94 0
0 95 0
0 94 0
0 94 0
0 94 0
0 92 0
0 93 0
0 92 0
0 93 0
0 95 0
0 95 0
0 92 0
0 95 0
0 92 0
0 91 0
0 96 0
0 94 0
0 96 0
0 94 0
0 94 0
0 94 0
0 96 0
0 92 0
0 97 0
0 95 0
0 94 0
0 95 0
0 95 0
0 95 0
0 95 0
0 95 0
0 92 0
0 94 0
0 93 0
0 93 0
0 95 0
0 94 0
0 96 0
0 96 0
0 96 0
0 95 0
0 95 0
0 95 0
0 97 0
0 96 0
0 95 0
0 95 0
0 97 0
0 94 0
0 94 0
0 95 0
0 98 0
0 97 0
0 95 0
0 95 0
0 95 0
0 96 0
0 96 0
0 96 0
0 96 0
0 94 0
0 96 0
0 96 0
0 96 0
0 97 0
0 96 0
0 96 0
0 98 0
0 96 0
0 95 0
0 96 0
0 97 0
0 97 0
0 98 0
0 98 0
0 95 0
0 95 0
0 95 0
0 98 0
0 97 0
0 97 0
0 97 0
0 98 0
0 97 0
0 95 0
0 97 0
0 96 0
0 97 0
0 98 0
0 97 0
0 94 0
0 98 0
0 98 0
0 97 0
0 95 0
0 98 0
0 96 0
0 97 0
0 98 0
0 96 0
0 96 0
0 98 0
0 97 0
0 96 0
0 96 0
0 98 0
0 97 0
0 97 0
0 97 0
0 97 0
0 98 0
0 97 0
0 98 0
0 96 0
0 97 0
0 98 0
0 98 0
0 98 0
0 97 0
0 97 0
0 97 0
0 97 0
0 98 0
0 98 0
0 97 0
0 97 0
0 99 0
0 98 0
0 99 0
0 96 0
0 98 0
0 97 0
0 98 0
0 97 0
0 99 0
0 98 0
0 99 0
0 98 0
0 98 0
0 98 0
0 98 0
0 98 0
0 98 0
0 98 0
0 97 0
0 98 0
0 98 0
0 97 0
0 98 0
0 98 0
0 99 0
0 98 0
0 99 0
0 98 0
0 97 0
0 97 0
0 98 0
0 98 0
0 98 0
0 98 0
0 99 0
0 98 0
0 98 0
0 99 0
0 99 0
0 98 0
0 98 0
0 99 0
0 97 0
0 98 0
0 98 0
0 99 0
0 98 0
0 97 0
0 99 0
0 98 0
0 98 0
0 98 0
0 99 0
0 98 0
0 98 0
0 96 0
0 99 0
0 98 0
0 98 0
0 98 0
0 98 0
0 99 0
0 98 0
0 99 0
0 98 0
0 97 0
0 98 0
0 99 0
0 99 0
0 98 0
0 99 0
0 97 0
0 98 0
0 98 0
0 98 0
0 98 0
0 99 0
0 98 0
0 98 0
0 97 0
0 98 0
0 99 0
0 97 0
0 99 0
0 97 0
0 98 0
0 98 0
0 99 0
0 98 0
0 98 0
0 98 0
0 97 0
0 98 0
0 99 0
0 98 0
0 98 0
0 99 0
0 98 0
0 98 0
0 97 0
0 97 0
0 98 0
0 97 0
0 98 0
0 98 0
0 98 0
0 98 0
0 98 0
0 99 0
0 98 0
0 97 0
0 96 0
0 98 0
0 98 0
0 96 0
0 98 0
0 97 0
0 99 0
0 97 0
0 98 0
0 98 0
0 98 0
0 97 0
0 97 0
0 97 0
0 97 0
0 96 0
0 98 0
0 98 0
0 97 0
0 97 0
0 97 0
0 97 0
0 98 0
0 97 0
0 98 0
0 97 0
0 96 0
0 96 0
0 97 0
0 97 0
0 97 0
0 96 0
0 96 0
0 96 0
0 98 0
0 95 0
0 98 0
0 96 0
0 96 0
0 97 0
0 97 0
0 98 0
0 97 0
0 96 0
0 97 0
0 95 0
0 97 0
0 95 0
0 96 0
0 95 0
0 97 0
0 95 0
0 98 0
0 97 0
0 97 0
0 97 0
0 96 0
0 95 0
0 96 0
0 96 0
0 98 0
0 96 0
0 97 0
0 97 0
0 96 0
0 96 0
0 98 0
0 97 0
0 96 0
0 94 0
0 96 0
0 96 0
0 96 0
0 96 0
0 94 0
0 96 0
0 96 0
0 94 0
0 95 0
0 96 0
0 96 0
0 96 0
0 95 0
0 95 0
0 95 0
0 93 0
0 96 0
0 93 0
0 93 0
0 94 0
0 88 0
21 94 25
22 98 25
31 97 36
48 106 57
43 103 51
48 102 57
42 100 51
29 95 36
42 102 51
36 99 44
42 102 51
21 91 25
43 99 51
21 93 25
30 94 36
37 100 44
30 93 36
30 94 36
29 96 36
29 92 36
36 97 44
52 102 62
31 89 36
37 95 44
31 93 36
38 99 44
0 88 0
0 89 0
0 86 0
0 92 0
0 93 0
0 91 0
0 94 0
0 91 0
0 90 0
0 91 0
0 91 0
0 93 0
0 92 0
0 93 0
0 94 0
0 88 0
0 92 0
0 94 0
0 93 0
0 91 0
0 95 0
0 92 0
0 92 0
0 97 0
0 93 0
0 93 0
0 93 0
0 95 0
0 95 0
0 93 0
0 91 0
0 93 0
0 93 0
0 95 0
0 92 0
0 96 0
0 94 0
0 93 0
0 95 0
0 91 0
0 89 0
0 94 0
0 95 0
0 94 0
0 92 0
0 93 0
0 91 0
0 95 0
0 94 0
0 94 0
0 94 0
0 92 0
0 95 0
0 93 0
0 94 0
0 94 0
0 92 0
0 93 0
0 95 0
0 97 0
0 92 0
0 94 0
0 94 0
0 93 0
0 95 0
0 94 0
0 94 0
0 96 0
0 94 0
0 95 0
0 95 0
0 94 0
0 94 0
0 95 0
0 95 0
0 94 0
0 96 0
0 97 0
0 97 0
0 95 0
0 93 0
0 95 0
0 94 0
0 96 0
0 96 0
0 95 0
0 95 0
0 95 0
0 96 0
0 97 0
0 96 0
0 97 0
0 97 0
0 97 0
0 95 0
0 96 0
0 96 0
0 95 0
0 95 0
0 97 0
0 95 0
0 96 0
0 97 0
0 96 0
0 96 0
0 95 0
0 96 0
0 97 0
0 96 0
0 97 0
0 97 0
0 97 0
0 97 0
0 96 0
0 98 0
0 97 0
0 95 0
0 97 0
0 97 0
0 96 0
0 96 0
0 97 0
0 97 0
0 97 0
0 98 0
0 96 0
0 98 0
0 95 0
0 96 0
0 97 0
0 96 0
0 98 0
0 96 0
0 95 0
0 95 0
0 97 0
0 97 0
0 97 0
0 98 0
0 97 0
0 97 0
0 98 0
0 97 0
0 97 0
0 95 0
0 96 0
0 96 0
0 97 0
0 98 0
0 97 0
0 97 0
0 97 0
0 98 0
0 97 0
0 96 0
0 98 0
0 97 0
0 98 0
0 97 0
0 97 0
0 98 0
0 98 0
0 97 0
0 96 0
0 96 0
0 98 0
0 97 0
0 97 0
0 98 0
0 98 0
0 98 0
0 97 0
0 98 0
0 99 0
0 98 0
0 98 0
0 98 0
0 98 0
0 97 0
0 98 0
0 98 0
0 98 0
0 98 0
0 98 0
0 98 0
0 99 0
0 97 0
0 99 0
0 98 0
0 96 0
0 98 0
0 97 0
0 98 0
0 99 0
0 97 0
0 98 0
0 99 0
0 98 0
0 98 0
0 98 0
0 98 0
0 98 0
0 98 0
0 97 0
0 98 0
0 98 0
0 97 0
0 96 0
0 97 0
0 99 0
0 98 0
0 98 0
0 98 0
0 99 0
0 98 0
0 98 0
0 97 0
0 99 0
0 99 0
0 98 0
0 98 0
0 98 0
0 98 0
0 98 0
0 99 0
0 98 0
0 98 0
0 98 0
0 98 0
0 99 0
0 97 0
0 98 0
0 99 0
0 98 0
0 99 0
0 98 0
0 98 0
0 97 0
0 98 0
0 98 0
0 99 0
0 97 0
0 98 0
0 98 0
0 97 0
0 98 0
0 99 0
0 98 0
0 98 0
0 98 0
0 98 0
0 98 0
0 98 0
0 98 0
0 98 0
0 97 0
0 98 0
0 98 0
0 98 0
0 98 0
0 98 0
0 97 0
0 98 0
0 98 0
0 98 0
0 98 0
0 98 0
0 98 0
0 97 0
0 97 0
0 96 0
0 98 0
0 98 0
0 98 0
0 99 0
0 98 0
0 98 0
0 98 0
0 98 0
0 98 0
0 97 0
0 97 0
0 98 0
0 98 0
0 97 0
0 97 0
0 98 0
0 97 0
0 97 0
0 98 0
0 98 0
0 96 0
0 97 0
0 98 0
0 96 0
0 98 0
0 98 0
0 98 0
0 98 0
0 98 0
0 98 0
0 95 0
0 97 0
0 98 0
0 96 0
0 98 0
0 96 0
0 98 0
0 97 0
0 97 0
0 99 0
0 96 0
0 97 0
0 96 0
0 97 0
0 97 0
0 98 0
0 96 0
0 97 0
0 97 0
0 97 0
0 99 0
0 97 0
0 96 0
0 97 0
0 97 0
0 97 0
0 97 0
0 96 0
0 97 0
0 97 0
0 96 0
0 95 0
0 96 0
0 94 0
0 95 0
0 96 0
0 95 0
0 97 0
0 97 0
0 94 0
0 96 0
0 95 0
0 95 0
0 97 0
0 96 0
0 99 0
0 97 0
0 96 0
0 98 0
0 95 0
0 95 0
0 93 0
0 95 0
0 98 0
0 95 0
0 97 0
0 95 0
0 96 0
0 96 0
0 96 0
0 94 0
0 93 0
0 95 0
0 96 0
0 97 0
0 96 0
0 94 0
0 93 0
0 94 0
0 90 0
0 94 0
0 92 0
0 94 0
0 95 0
0 94 0
0 92 0
0 93 0
0 91 0
21 93 25
38 100 44
54 103 62
37 100 44
48 103 57
38 98 44
52 102 62
52 107 62
53 106 62
30 95 36
49 99 57
38 96 44
31 95 36
37 97 44
22 90 25
22 93 25
0 90 0
0 87 0
0 90 0
0 91 0
0 91 0
0 91 0
0 90 0
0 92 0
0 88 0
0 95 0
0 90 0
0 92 0
0 91 0
0 91 0
0 94 0
0 90 0
0 94 0
0 96 0
0 94 0
0 92 0
0 94 0
0 93 0
0 91 0
0 94 0
0 93 0
0 94 0
0 90 0
0 93 0
0 91 0
0 93 0
0 93 0
0 94 0
0 93 0
0 95 0
0 93 0
0 91 0
0 92 0
0 93 0
0 93 0
0 94 0
0 93 0
0 93 0
0 94 0
0 94 0
0 93 0
0 92 0
0 94 0
0 95 0
0 94 0
0 93 0
0 95 0
0 94 0
0 91 0
0 93 0
0 96 0
0 95 0
0 95 0
0 95 0
0 93 0
0 94 0
0 93 0
0 95 0
0 95 0
0 96 0
0 97 0
0 92 0
0 93 0
0 95 0
0 95 0
0 94 0
0 95 0
0 94 0
0 96 0
0 95 0
0 94 0
0 96 0
0 95 0
0 95 0
0 93 0
0 94 0
0 96 0
0 96 0
0 96 0
0 92 0
0 94 0
0 94 0
0 97 0
0 95 0
0 97 0
0 95 0
0 96 0
0 95 0
0 95 0
0 97 0
0 97 0
0 96 0
0 95 0
0 96 0
0 96 0
0 95 0
0 95 0
0 96 0
0 96 0
0 96 0
0 97 0
0 97 0
0 96 0
0 97 0
0 95 0
0 98 0
0 95 0
0 96 0
0 97 0
0 95 0
0 97 0
0 97 0
0 96 0
0 98 0
0 96 0
0 96 0
0 94 0
0 96 0
0 91 0
0 96 0
0 97 0
0 97 0
0 97 0
0 96 0
0 96 0
0 97 0
0 98 0
0 96 0
0 96 0
0 97 0
0 98 0
0 96 0
0 97 0
0 97 0
0 96 0
0 99 0
0 96 0
0 98 0
0 97 0
0 97 0
0 96 0
0 98 0
0 96 0
0 96 0
0 98 0
0 97 0
0 97 0
0 98 0
0 98 0
0 97 0
0 97 0
0 97 0
0 97 0
0 97 0
0 97 0
0 97 0
0 98 0
0 97 0
0 98 0
0 97 0
0 97 0
0 97 0
0 97 0
0 97 0
0 97 0
0 96 0
0 97 0
0 98 0
0 97 0
0 99 0
0 97 0
0 97 0
0 98 0
0 98 0
0 96 0
0 97 0
0 98 0
0 98 0
0 98 0
0 98 0
0 97 0
0 98 0
0 98 0
0 99 0
0 98 0
0 97 0
0 97 0
0 99 0
0 97 0
0 98 0
0 97 0
0 97 0
0 99 0
0 98 0
0 98 0
0 97 0
0 98 0
0 99 0
0 98 0
0 98 0
0 98 0
0 97 0
0 98 0
0 98 0
0 98 0
0 98 0
0 97 0
0 98 0
0 98 0
0 98 0
0 99 0
0 98 0
0 98 0
0 97 0
0 98 0
0 98 0
0 98 0
0 98 0
0 97 0
0 98 0
0 98 0
0 97 0
0 97 0
0 99 0
0 97 0
0 98 0
0 98 0
0 98 0
0 98 0
0 98 0
0 98 0
0 98 0
0 97 0
0 98 0
0 98 0
0 98 0
0 98 0
0 98 0
0 98 0
0 97 0
0 99 0
0 98 0
0 98 0
0 98 0
0 98 0
0 98 0
0 98 0
0 98 0
0 98 0
0 97 0
0 98 0
0 98 0
0 97 0
0 97 0
0 99 0
0 98 0
0 98 0
0 97 0
0 98 0
0 98 0
0 98 0
0 97 0
0 98 0
0 97 0
0 97 0
0 97 0
0 98 0
0 98 0
0 98 0
0 98 0
0 97 0
0 97 0
0 97 0
0 98 0
0 98 0
0 97 0
0 98 0
0 97 0
0 98 0
0 98 0
0 97 0
0 97 0
0 98 0
0 97 0
0 97 0
0 98 0
0 97 0
0 98 0
0 97 0
0 97 0
0 98 0
0 98 0
0 97 0
0 99 0
0 98 0
0 98 0
0 98 0
0 98 0
0 98 0
0 97 0
0 98 0
0 98 0
0 98 0
0 97 0
0 98 0
0 98 0
0 97 0
0 95 0
0 96 0
0 96 0
0 98 0
0 97 0
0 97 0
0 97 0
0 98 0
0 96 0
0 97 0
0 96 0
0 98 0
0 95 0
0 97 0
0 96 0
0 97 0
0 96 0
0 97 0
0 97 0
0 95 0
0 97 0
0 98 0
0 96 0
0 96 0
0 97 0
0 94 0
0 95 0
0 97 0
0 97 0
0 96 0
0 96 0
0 96 0
0 97 0
0 97 0
0 95 0
0 96 0
0 96 0
0 96 0
0 96 0
0 96 0
0 95 0
0 95 0
0 96 0
0 96 0
0 94 0
0 96 0
0 95 0
0 97 0
0 95 0
0 93 0
0 95 0
0 95 0
0 95 0
0 96 0
0 94 0
0 94 0
0 95 0
0 95 0
0 96 0
0 93 0
0 96 0
0 95 0
0 94 0
0 94 0
0 95 0
0 95 0
0 95 0
0 96 0
0 95 0
0 95 0
0 91 0
0 88 0
0 93 0
0 93 0
0 90 0
0 94 0
0 93 0
0 84 0
0 90 0
0 88 0
0 88 0
0 90 0
0 89 0
0 89 0
0 89 0
0 88 0
0 92 0
0 90 0
0 90 0
0 90 0
0 94 0
0 92 0
0 90 0
0 92 0
0 93 0
0 91 0
0 89 0
0 89 0
0 90 0
0 93 0
0 95 0
0 92 0
0 92 0
0 93 0
0 95 0
0 94 0
0 94 0
0 92 0
0 91 0
0 93 0
0 92 0
0 93 0
0 93 0
0 89 0
0 94 0
0 95 0
0 93 0
0 93 0
0 94 0
0 93 0
0 92 0
0 93 0
0 93 0
0 91 0
0 93 0
0 95 0
0 93 0
0 94 0
0 91 0
0 95 0
0 95 0
0 95 0
0 92 0
0 94 0
0 93 0
0 94 0
0 96 0
0 95 0
0 92 0
0 94 0
0 94 0
0 92 0
0 93 0
0 95 0
0 93 0
0 95 0
0 93 0
0 92 0
0 94 0
0 95 0
0 94 0
0 95 0
0 95 0
0 94 0
0 95 0
0 96 0
0 94 0
0 96 0
0 96 0
0 95 0
0 94 0
0 95 0
0 96 0
0 95 0
0 97 0
0 93 0
0 95 0
0 96 0
0 97 0
0 96 0
0 97 0
0 95 0
0 96 0
0 97 0
0 94 0
0 97 0
0 93 0
0 96 0
0 97 0
0 96 0
0 96 0
0 96 0
0 96 0
0 94 0
0 97 0
0 95 0
0 94 0
0 96 0
0 96 0
0 94 0
0 96 0
0 95 0
0 96 0
0 95 0
0 97 0
0 94 0
0 95 0
0 97 0
0 98 0
0 97 0
0 96 0
0 97 0
0 96 0
0 96 0
0 95 0
0 97 0
0 97 0
0 98 0
0 97 0
0 98 0
0 97 0
0 96 0
0 96 0
0 97 0
0 97 0
0 97 0
0 96 0
0 96 0
0 97 0
0 98 0
0 97 0
0 98 0
0 98 0
0 96 0
0 97 0
0 98 0
0 97 0
0 97 0
0 97 0
0 97 0
0 97 0
0 97 0
0 97 0
0 97 0
0 97 0
0 97 0
0 98 0
0 97 0
0 97 0
0 97 0
0 97 0
0 97 0
0 97 0
0 97 0
0 98 0
0 97 0
0 98 0
0 99 0
0 98 0
0 98 0
0 98 0
0 96 0
0 97 0
0 99 0
0 97 0
0 97 0
0 98 0
0 98 0
0 98 0
0 98 0
0 98 0
0 95 0
0 98 0
0 98 0
0 98 0
0 98 0
0 99 0
0 97 0
0 97 0
0 98 0
0 97 0
0 97 0
0 97 0
0 98 0
0 98 0
0 98 0
0 98 0
0 97 0
0 97 0
0 98 0
0 97 0
0 98 0
0 97 0
0 98 0
0 98 0
0 98 0
0 98 0
0 99 0
0 97 0
0 98 0
0 98 0
0 98 0
0 98 0
0 98 0
0 97 0
0 98 0
0 98 0
0 98 0
0 98 0
0 97 0
0 98 0
0 98 0
0 98 0
0 98 0
0 98 0
0 99 0
0 99 0
0 98 0
0 99 0
0 99 0
0 98 0
0 97 0
0 98 0
0 97 0
0 99 0
0 98 0
0 98 0
0 98 0
0 98 0
0 98 0
0 98 0
0 98 0
0 98 0
0 98 0
0 97 0
0 98 0
0 98 0
0 99 0
0 98 0
0 99 0
0 98 0
0 97 0
0 98 0
0 98 0
0 98 0
0 97 0
0 97 0
0 98 0
0 98 0
0 98 0
0 98 0
0 99 0
0 98 0
0 97 0
0 98 0
0 98 0
0 99 0
0 98 0
0 97 0
0 98 0
0 98 0
0 98 0
0 97 0
0 98 0
0 97 0
0 97 0
0 98 0
0 98 0
0 97 0
0 99 0
0 97 0
0 98 0
0 98 0
0 99 0
0 98 0
0 97 0
0 95 0
0 99 0
0 98 0
0 98 0
0 97 0
0 99 0
0 98 0
0 97 0
0 98 0
0 97 0
0 98 0
0 98 0
0 98 0
0 97 0
0 98 0
0 98 0
0 97 0
0 98 0
0 97 0
0 97 0
0 98 0
0 98 0
0 97 0
0 96 0
0 98 0
0 96 0
0 98 0
0 97 0
0 96 0
0 98 0
0 98 0
0 96 0
0 97 0
0 97 0
0 97 0
0 98 0
0 98 0
0 97 0
0 98 0
0 96 0
0 98 0
0 96 0
0 97 0
0 97 0
0 98 0
0 97 0
0 97 0
0 96 0
0 97 0
0 97 0
0 96 0
0 97 0
0 98 0
0 96 0
0 96 0
0 97 0
0 97 0
0 96 0
0 95 0
0 96 0
0 98 0
0 98 0
0 96 0
0 97 0
0 97 0
0 97 0
0 96 0
0 96 0
0 96 0
0 95 0
0 94 0
0 95 0
0 97 0
0 96 0
0 97 0
0 96 0
0 96 0
0 93 0
0 96 0
0 95 0
0 93 0
0 96 0
0 93 0
0 96 0
0 92 0
0 98 0
0 96 0
0 97 0
0 94 0
0 93 0
0 96 0
0 95 0
0 95 0
0 94 0
0 94 0
0 97 0
0 95 0
0 92 0
0 96 0
0 94 0
0 95 0
0 95 0
0 95 0
0 95 0
0 94 0
0 96 0
0 92 0
0 92 0
0 93 0
0 90 0
0 95 0
0 91 0
0 90 0
0 93 0
0 90 0
0 94 0
0 91 0
0 91 0
0 93 0
0 93 0
0 94 0
0 92 0
0 94 0
0 94 0
0 86 0
0 95 0
0 87 0
0 95 0
0 90 0
0 92 0
0 94 0
0 91 0
0 95 0
0 93 0
0 92 0
0 92 0
0 91 0
0 91 0
0 93 0
0 93 0
0 93 0
0 95 0
0 92 0
0 89 0
0 95 0
0 94 0
0 95 0
0 94 0
0 92 0
0 92 0
0 93 0
0 93 0
0 97 0
0 92 0
0 95 0
0 94 0
0 96 0
0 93 0
0 96 0
0 93 0
0 94 0
0 93 0
0 95 0
0 93 0
0 93 0
0 93 0
0 95 0
0 94 0
0 92 0
0 95 0
0 92 0
0 96 0
0 95 0
0 93 0
0 95 0
0 94 0
0 92 0
0 95 0
0 96 0
0 95 0
0 93 0
0 96 0
0 97 0
0 95 0
0 94 0
0 95 0
0 94 0
0 97 0
0 95 0
0 94 0
0 95 0
0 94 0
0 95 0
0 95 0
0 97 0
0 95 0
0 96 0
0 96 0
0 95 0
0 94 0
0 96 0
0 96 0
0 95 0
0 95 0
0 94 0
0 95 0
0 96 0
0 94 0
0 93 0
0 96 0
0 94 0
0 97 0
0 96 0
0 95 0
0 96 0
0 96 0
0 94 0
0 95 0
0 96 0
0 94 0
0 97 0
0 97 0
0 97 0
0 96 0
0 94 0
0 96 0
0 96 0
0 95 0
0 94 0
0 96 0
0 97 0
0 96 0
0 95 0
0 96 0
0 95 0
0 96 0
0 96 0
0 97 0
0 96 0
0 96 0
0 96 0
0 97 0
0 97 0
0 96 0
0 95 0
0 97 0
0 96 0
0 97 0
0 97 0
0 97 0
0 97 0
0 97 0
0 97 0
0 97 0
0 96 0
0 98 0
0 96 0
0 94 0
0 96 0
0 98 0
0 97 0
0 97 0
0 96 0
0 97 0
0 97 0
0 97 0
0 99 0
0 97 0
0 97 0
0 97 0
0 97 0
0 97 0
0 97 0
0 98 0
0 97 0
0 96 0
0 97 0
0 97 0
0 97 0
0 97 0
0 98 0
0 98 0
0 98 0
0 98 0
0 98 0
0 98 0
0 98 0
0 97 0
0 98 0
0 97 0
0 96 0
0 96 0
0 97 0
0 97 0
0 97 0
0 98 0
0 96 0
0 97 0
0 96 0
0 98 0
0 98 0
0 98 0
0 98 0
0 98 0
0 98 0
0 97 0
0 96 0
0 98 0
0 97 0
0 98 0
0 98 0
0 98 0
0 98 0
0 98 0
0 98 0
0 97 0
0 98 0
0 98 0
0 98 0
0 98 0
0 98 0
0 97 0
0 99 0
0 97 0
0 97 0
0 99 0
0 97 0
0 99 0
0 98 0
0 98 0
0 98 0
0 98 0
0 98 0
0 98 0
0 97 0
0 99 0
0 98 0
0 98 0
0 98 0
0 98 0
0 97 0
0 98 0
0 98 0
0 97 0
0 98 0
0 98 0
0 99 0
0 98 0
0 97 0
0 98 0
0 98 0
0 98 0
0 98 0
0 99 0
0 97 0
0 97 0
0 98 0
0 97 0
0 96 0
0 97 0
0 99 0
0 98 0
0 97 0
0 98 0
0 99 0
0 98 0
0 98 0
0 98 0
0 98 0
0 98 0
0 98 0
0 98 0
0 98 0
0 98 0
0 98 0
0 97 0
0 97 0
0 98 0
0 98 0
0 98 0
0 98 0
0 97 0
0 98 0
0 98 0
0 98 0
0 97 0
0 97 0
0 98 0
0 99 0
0 98 0
0 97 0
0 96 0
0 98 0
0 97 0
0 98 0
0 98 0
0 98 0
0 97 0
0 98 0
0 98 0
0 98 0
0 96 0
0 99 0
0 97 0
0 98 0
0 98 0
0 98 0
0 97 0
0 98 0
0 97 0
0 97 0
0 98 0
0 97 0
0 98 0
0 99 0
0 98 0
0 97 0
0 97 0
0 97 0
0 97 0
0 98 0
0 97 0
0 96 0
0 98 0
0 98 0
0 98 0
0 99 0
0 96 0
0 97 0
0 98 0
0 98 0
0 98 0
0 97 0
0 98 0
0 97 0
0 97 0
0 97 0
0 97 0
0 96 0
0 97 0
0 97 0
0 95 0
0 97 0
0 97 0
0 97 0
0 98 0
0 97 0
0 97 0
0 96 0
0 96 0
0 97 0
0 96 0
0 97 0
0 98 0
0 97 0
0 97 0
0 97 0
0 95 0
0 96 0
0 98 0
0 96 0
0 97 0
0 95 0
0 96 0
0 97 0
0 96 0
0 96 0
0 95 0
0 96 0
0 94 0
0 96 0
0 97 0
0 95 0
0 96 0
0 98 0
0 97 0
0 96 0
0 95 0
0 95 0
0 95 0
0 94 0
0 96 0
0 98 0
0 95 0
0 94 0
0 96 0
0 96 0
0 92 0
0 95 0
0 92 0
0 93 0
0 94 0
0 96 0
0 95 0
0 90 0
0 96 0
0 90 0
0 95 0
0 96 0
0 95 0
0 93 0
0 92 0
0 95 0
0 92 0
0 93 0
0 93 0
0 93 0
0 94 0
0 93 0
0 92 0
0 92 0
0 92 0
0 93 0
0 91 0
0 92 0
0 92 0
0 91 0
0 90 0
0 91 0
0 92 0
0 93 0
0 90 0
0 89 0
0 90 0
0 91 0
0 93 0
0 92 0
0 90 0
0 95 0
0 92 0
0 95 0
0 93 0
0 93 0
0 91 0
0 90 0
0 95 0
0 97 0
0 94 0
0 92 0
0 93 0
0 94 0
0 95 0
0 93 0
0 96 0
0 93 0
0 95 0
0 95 0
0 94 0
0 92 0
0 95 0
0 93 0
0 96 0
0 91 0
0 93 0
0 95 0
0 93 0
0 96 0
0 94 0
0 92 0
0 92 0
0 94 0
0 93 0
0 94 0
0 94 0
0 94 0
0 93 0
0 93 0
0 92 0
0 94 0
0 95 0
0 95 0
0 95 0
0 95 0
0 97 0
0 95 0
0 94 0
0 93 0
0 94 0
0 94 0
0 93 0
0 96 0
0 96 0
0 96 0
0 95 0
0 94 0
0 95 0
0 96 0
0 96 0
0 93 0
0 94 0
0 96 0
0 92 0
0 96 0
0 95 0
0 92 0
0 96 0
0 95 0
0 97 0
0 94 0
0 97 0
0 98 0
0 94 0
0 97 0
0 94 0
0 94 0
0 97 0
0 96 0
0 95 0
0 96 0
0 96 0
0 94 0
0 96 0
0 96 0
0 97 0
0 95 0
0 97 0
0 96 0
0 94 0
0 97 0
0 94 0
0 93 0
0 96 0
0 95 0
0 94 0
0 96 0
0 96 0
0 96 0
0 97 0
0 94 0
0 97 0
0 95 0
0 96 0
0 97 0
0 97 0
0 96 0
0 96 0
0 96 0
0 96 0
0 96 0
0 97 0
0 97 0
0 96 0
0 97 0
0 96 0
0 96 0
0 97 0
0 93 0
0 97 0
0 98 0
0 96 0
0 98 0
0 95 0
0 96 0
0 96 0
0 95 0
0 96 0
0 98 0
0 97 0
0 98 0
0 97 0
0 98 0
0 98 0
0 98 0
0 98 0
0 97 0
0 97 0
0 97 0
0 98 0
0 97 0
0 96 0
0 97 0
0 97 0
0 97 0
0 97 0
0 97 0
0 97 0
0 96 0
0 97 0
0 98 0
0 98 0
0 97 0
0 97 0
0 97 0
0 99 0
0 97 0
0 96 0
0 97 0
0 98 0
0 97 0
0 97 0
0 98 0
0 97 0
0 98 0
0 99 0
0 97 0
0 98 0
0 97 0
0 98 0
0 98 0
0 98 0
0 97 0
0 96 0
0 97 0
0 98 0
0 98 0
0 98 0
0 98 0
0 98 0
0 99 0
0 99 0
0 98 0
0 98 0
0 98 0
0 98 0
0 99 0
0 98 0
0 97 0
0 98 0
0 98 0
0 98 0
0 99 0
0 99 0
0 96 0
0 99 0
0 98 0
0 98 0
0 98 0
0 98 0
0 98 0
0 98 0
0 98 0
0 98 0
0 98 0
0 98 0
0 99 0
0 98 0
0 99 0
0 97 0
0 98 0
0 98 0
0 99 0
0 98 0
0 99 0
0 99 0
0 98 0
0 98 0
0 98 0
0 98 0
0 98 0
0 98 0
0 98 0
0 98 0
0 99 0
0 99 0
0 97 0
0 98 0
0 99 0
0 98 0
0 98 0
0 98 0
0 98 0
0 98 0
0 99 0
0 98 0
0 98 0
0 99 0
0 98 0
0 97 0
0 99 0
0 98 0
0 99 0
0 98 0
0 97 0
0 98 0
0 98 0
0 97 0
0 98 0
0 98 0
0 97 0
0 97 0
0 98 0
0 98 0
0 96 0
0 98 0
0 97 0
0 98 0
0 98 0
0 98 0
0 98 0
0 97 0
0 99 0
0 97 0
0 98 0
0 98 0
0 98 0
0 97 0
0 99 0
0 98 0
0 98 0
0 99 0
0 98 0
0 98 0
0 99 0
0 98 0
0 98 0
0 98 0
0 98 0
0 98 0
0 97 0
0 98 0
0 98 0
0 98 0
0 98 0
0 99 0
0 98 0
0 98 0
0 97 0
0 98 0
0 97 0
0 97 0
0 97 0
0 98 0
0 97 0
0 98 0
0 97 0
0 98 0
0 97 0
0 98 0
0 98 0
0 97 0
0 95 0
0 96 0
0 96 0
0 98 0
0 98 0
0 97 0
0 97 0
0 97 0
0 98 0
0 97 0
0 97 0
0 98 0
0 96 0
0 97 0
0 95 0
0 98 0
0 95 0
0 96 0
0 97 0
0 97 0
0 97 0
0 98 0
0 97 0
0 97 0
0 97 0
0 97 0
0 98 0
0 96 0
0 98 0
0 97 0
0 98 0
0 97 0
0 97 0
0 95 0
0 97 0
0 97 0
0 97 0
0 96 0
0 96 0
0 96 0
0 97 0
0 96 0
0 96 0
0 97 0
0 96 0
0 96 0
0 97 0
0 96 0
0 97 0
0 94 0
0 95 0
0 96 0
0 95 0
0 94 0
0 96 0
0 95 0
0 96 0
0 94 0
0 97 0
0 94 0
0 96 0
0 95 0
0 96 0
0 95 0
0 94 0
0 94 0
0 96 0
0 95 0
0 95 0
0 94 0
0 94 0
0 96 0
0 92 0
0 95 0
0 90 0
0 93 0
0 91 0
0 92 0
0 93 0
0 93 0
0 92 0
0 93 0
0 92 0
0 93 0
0 93 0
0 94 0
0 95 0
0 94 0
0 90 0
0 92 0
0 95 0
0 94 0
0 92 0
0 95 0
0 93 0
0 94 0
0 91 0
0 91 0
0 92 0
0 96 0
0 95 0
0 92 0
0 97 0
0 93 0
0 93 0
0 94 0
0 95 0
0 92 0
0 93 0
0 95 0
0 95 0
0 95 0
0 94 0
0 93 0
0 92 0
0 93 0
0 94 0
0 94 0
0 95 0
0 94 0
0 92 0
0 95 0
0 94 0
0 93 0
0 96 0
0 94 0
0 95 0
0 96 0
0 95 0
0 95 0
0 92 0
0 95 0
0 95 0
0 95 0
0 96 0
0 94 0
0 95 0
0 95 0
0 93 0
0 96 0
0 95 0
0 95 0
0 91 0
0 95 0
0 95 0
0 95 0
0 96 0
0 96 0
0 93 0
0 94 0
0 96 0
0 96 0
0 94 0
0 97 0
0 95 0
0 95 0
0 95 0
0 96 0
0 93 0
0 95 0
0 96 0
0 95 0
0 94 0
0 94 0
0 96 0
0 95 0
0 95 0
0 95 0
0 95 0
0 95 0
0 95 0
0 95 0
0 93 0
0 96 0
0 93 0
0 95 0
0 97 0
0 95 0
0 96 0
0 97 0
0 97 0
0 95 0
0 97 0
0 95 0
0 96 0
0 95 0
0 97 0
0 96 0
0 95 0
0 94 0
0 95 0
0 96 0
0 95 0
0 95 0
0 97 0
0 96 0
0 95 0
0 97 0
0 97 0
0 98 0
0 97 0
0 96 0
0 97 0
0 97 0
0 97 0
0 98 0
0 96 0
0 96 0
0 98 0
0 98 0
0 94 0
0 95 0
0 97 0
0 95 0
0 97 0
0 96 0
0 96 0
0 95 0
0 96 0
0 98 0
0 96 0
0 96 0
0 96 0
0 96 0
0 97 0
0 97 0
0 96 0
0 97 0
0 98 0
0 97 0
0 97 0
0 96 0
0 97 0
0 96 0
0 96 0
0 97 0
0 98 0
0 97 0
0 96 0
0 97 0
0 98 0
0 98 0
0 96 0
0 96 0
0 98 0
0 96 0
0 98 0
0 99 0
0 97 0
0 98 0
0 97 0
0 97 0
0 97 0
0 97 0
0 98 0
0 98 0
0 95 0
0 98 0
0 99 0
0 98 0
0 99 0
0 97 0
0 98 0
0 97 0
0 98 0
0 98 0
0 97 0
0 98 0
0 98 0
0 98 0
0 98 0
0 97 0
0 97 0
0 98 0
0 98 0
0 98 0
0 98 0
0 97 0
0 99 0
0 98 0
0 98 0
0 98 0
0 98 0
0 98 0
0 97 0
0 98 0
0 97 0
0 98 0
0 98 0
0 99 0
0 98 0
0 97 0
0 98 0
0 98 0
0 98 0
0 98 0
0 97 0
0 97 0
0 96 0
0 97 0
0 98 0
0 98 0
0 97 0
0 98 0
0 97 0
0 98 0
0 98 0
0 98 0
0 98 0
0 98 0
0 99 0
0 98 0
0 98 0
0 98 0
0 98 0
0 98 0
0 98 0
0 98 0
0 97 0
0 98 0
0 98 0
0 98 0
0 98 0
0 98 0
0 99 0
0 98 0
0 98 0
0 97 0
0 99 0
0 99 0
0 99 0
0 98 0
0 98 0
0 98 0
0 98 0
0 99 0
0 98 0
0 98 0
0 97 0
0 97 0
0 98 0
0 98 0
0 98 0
0 99 0
0 98 0
0 98 0
0 99 0
0 99 0
0 98 0
0 98 0
0 98 0
0 99 0
0 98 0
0 98 0
0 98 0
0 99 0
0 97 0
0 98 0
0 99 0
0 98 0
0 98 0
0 99 0
0 97 0
0 97 0
0 98 0
0 98 0
0 98 0
0 97 0
0 97 0
0 99 0
0 97 0
0 98 0
0 97 0
0 98 0
0 98 0
0 97 0
0 97 0
0 98 0
0 97 0
0 98 0
0 98 0
0 98 0
0 98 0
0 97 0
0 97 0
0 98 0
0 98 0
0 98 0
0 97 0
0 97 0
0 97 0
0 97 0
0 97 0
0 98 0
0 97 0
0 98 0
0 97 0
0 98 0
0 97 0
0 97 0
0 96 0
0 97 0
0 98 0
0 98 0
0 98 0
0 95 0
0 97 0
0 99 0
0 99 0
0 96 0
0 96 0
0 97 0
0 96 0
0 97 0
0 96 0
0 98 0
0 98 0
0 98 0
0 96 0
0 98 0
0 96 0
0 97 0
0 99 0
0 96 0
0 97 0
0 97 0
0 95 0
0 97 0
0 95 0
0 97 0
0 96 0
0 95 0
0 97 0
0 97 0
0 97 0
0 96 0
0 96 0
0 97 0
0 97 0
0 95 0
0 93 0
0 96 0
0 95 0
0 95 0
0 97 0
0 97 0
0 94 0
0 95 0
0 96 0
0 95 0
0 96 0
0 94 0
0 96 0
0 96 0
0 95 0
0 98 0
0 93 0
0 94 0
0 97 0
0 96 0
0 95 0
0 94 0
0 93 0
0 97 0
0 96 0
0 93 0
0 96 0
0 97 0
0 94 0
0 93 0
0 95 0
0 94 0
0 95 0
0 94 0
0 94 0
0 94 0
0 93 0
0 95 0
0 93 0
0 95 0
0 94 0
0 90 0
0 93 0
0 94 0
0 95 0
0 94 0
0 95 0
0 94 0
0 93 0
0 91 0
0 97 0
0 91 0
0 94 0
0 93 0
0 93 0
0 94 0
0 95 0
0 95 0
0 90 0
0 96 0
0 93 0
0 95 0
0 93 0
0 97 0
0 95 0
0 90 0
0 95 0
0 94 0
0 93 0
0 92 0
0 94 0
0 93 0
0 91 0
0 94 0
0 93 0
0 96 0
0 94 0
0 94 0
0 93 0
0 93 0
0 94 0
0 94 0
0 96 0
0 95 0
0 95 0
0 97 0
0 96 0
0 95 0
0 95 0
0 95 0
0 93 0
0 96 0
0 94 0
0 95 0
0 93 0
0 95 0
0 94 0
0 91 0
0 94 0
0 94 0
0 95 0
0 94 0
0 95 0
0 94 0
0 95 0
0 94 0
0 97 0
0 95 0
0 95 0
0 96 0
0 93 0
0 96 0
0 94 0
0 94 0
0 95 0
0 95 0
0 96 0
0 94 0
0 95 0
0 96 0
0 95 0
0 94 0
0 95 0
0 94 0
0 94 0
0 95 0
0 95 0
0 95 0
0 95 0
0 96 0
0 93 0
0 96 0
0 95 0
0 95 0
0 95 0
0 96 0
0 97 0
0 97 0
0 96 0
0 97 0
0 96 0
0 97 0
0 93 0
0 96 0
0 98 0
0 97 0
0 96 0
0 96 0
0 95 0
0 96 0
0 96 0
0 95 0
0 96 0
0 96 0
0 96 0
0 97 0
0 97 0
0 96 0
0 94 0
0 95 0
0 95 0
0 97 0
0 97 0
0 97 0
0 97 0
0 96 0
0 96 0
0 97 0
0 97 0
0 96 0
0 96 0
0 94 0
0 97 0
0 97 0
0 98 0
0 96 0
0 97 0
0 96 0
0 96 0
0 98 0
0 97 0
0 97 0
0 97 0
0 96 0
0 96 0
0 97 0
0 98 0
0 97 0
0 95 0
0 98 0
0 99 0
0 95 0
0 96 0
0 98 0
0 98 0
0 97 0
0 98 0
0 96 0
0 96 0
0 98 0
0 97 0
0 96 0
0 97 0
0 97 0
0 98 0
0 98 0
0 98 0
0 98 0
0 97 0
0 96 0
0 98 0
0 96 0
0 97 0
0 96 0
0 97 0
0 97 0
0 96 0
0 99 0
0 97 0
0 97 0
0 97 0
0 96 0
0 98 0
0 97 0
0 98 0
0 97 0
0 97 0
0 96 0
0 98 0
0 99 0
0 97 0
0 98 0
0 97 0
0 96 0
0 96 0
0 97 0
0 98 0
0 98 0
0 98 0
0 97 0
0 99 0
0 97 0
0 97 0
0 96 0
0 98 0
0 97 0
0 97 0
0 98 0
0 98 0
0 98 0
0 97 0
0 98 0
0 98 0
0 99 0
0 98 0
0 98 0
0 98 0
0 99 0
0 98 0
0 98 0
0 98 0
0 98 0
0 98 0
0 98 0
0 98 0
0 98 0
0 98 0
0 98 0
0 98 0
0 98 0
0 98 0
0 98 0
0 98 0
0 98 0
0 97 0
0 97 0
0 99 0
0 98 0
0 98 0
0 98 0
0 97 0
0 98 0
0 98 0
0 98 0
0 98 0
0 98 0
0 98 0
0 98 0
0 96 0
0 98 0
0 98 0
0 98 0
0 98 0
0 99 0
0 99 0
0 99 0
0 98 0
0 98 0
0 98 0
0 99 0
0 98 0
0 98 0
0 98 0
0 98 0
0 97 0
0 98 0
0 97 0
0 97 0
0 97 0
0 98 0
0 97 0
0 98 0
0 98 0
0 97 0
0 97 0
0 97 0
0 98 0
0 98 0
0 98 0
0 98 0
0 98 0
0 97 0
0 98 0
0 98 0
0 98 0
0 98 0
0 98 0
0 98 0
0 98 0
0 99 0
0 96 0
0 97 0
0 98 0
0 98 0
0 98 0
0 97 0
0 96 0
0 98 0
0 97 0
0 96 0
0 97 0
0 97 0
0 97 0
0 98 0
0 96 0
0 97 0
0 97 0
0 98 0
0 96 0
0 97 0
0 97 0
0 98 0
0 97 0
0 98 0
0 97 0
0 98 0
0 98 0
0 98 0
0 96 0
0 96 0
0 96 0
0 96 0
0 97 0
0 98 0
0 99 0
0 97 0
0 97 0
0 98 0
0 96 0
0 98 0
0 96 0
0 95 0
0 98 0
0 98 0
0 97 0
0 98 0
0 97 0
0 98 0
0 97 0
0 96 0
0 96 0
0 98 0
0 96 0
0 97 0
0 97 0
0 96 0
0 96 0
0 98 0
0 97 0
0 97 0
0 96 0
0 97 0
0 98 0
0 96 0
0 95 0
0 96 0
0 97 0
0 96 0
0 96 0
0 96 0
0 94 0
0 96 0
0 96 0
0 96 0
0 96 0
0 97 0
0 96 0
0 98 0
0 95 0
0 96 0
0 95 0
0 96 0
0 96 0
0 97 0
0 94 0
0 95 0
0 95 0
0 95 0
0 96 0
0 97 0
0 95 0
0 95 0
0 93 0
0 94 0
0 95 0
0 95 0
0 95 0
0 96 0
0 95 0
0 94 0
0 93 0
0 96 0
0 94 0
0 95 0
0 94 0
0 95 0
0 95 0
0 92 0
0 93 0
0 95 0
0 93 0
0 95 0
0 93 0
0 94 0
0 94 0
0 96 0
0 92 0
0 90 0
0 94 0
0 93 0
0 95 0
0 94 0
0 97 0
0 95 0
0 95 0
0 93 0
0 94 0
0 95 0
0 93 0
0 97 0
0 92 0
0 95 0
0 95 0
0 95 0
0 93 0
0 94 0
0 96 0
0 93 0
0 94 0
0 94 0
0 94 0
0 96 0
0 95 0
0 95 0
0 94 0
0 93 0
0 94 0
0 95 0
0 96 0
0 95 0
0 94 0
0 95 0
0 95 0
0 94 0
0 95 0
0 93 0
0 94 0
0 94 0
0 94 0
0 95 0
0 94 0
0 94 0
0 94 0
0 94 0
0 97 0
0 93 0
0 93 0
0 96 0
0 96 0
0 92 0
0 92 0
0 96 0
0 93 0
0 92 0
0 94 0
0 94 0
0 96 0
0 96 0
0 95 0
0 95 0
0 95 0
0 95 0
0 94 0
0 96 0
0 96 0
0 95 0
0 96 0
0 97 0
0 95 0
0 96 0
0 95 0
0 95 0
0 94 0
0 97 0
0 97 0
0 94 0
0 97 0
0 95 0
0 94 0
0 95 0
0 96 0
0 96 0
0 95 0
0 96 0
0 95 0
0 97 0
0 94 0
0 95 0
0 96 0
0 97 0
0 96 0
0 92 0
0 96 0
0 95 0
0 94 0
0 94 0
0 96 0
0 95 0
0 95 0
0 97 0
0 98 0
0 97 0
0 96 0
0 96 0
0 95 0
0 96 0
0 96 0
0 95 0
0 96 0
0 96 0
0 94 0
0 97 0
0 95 0
0 98 0
0 96 0
0 97 0
0 97 0
0 97 0
0 98 0
0 96 0
0 97 0
0 95 0
0 96 0
0 97 0
0 97 0
0 97 0
0 97 0
0 97 0
0 98 0
0 97 0
0 97 0
0 97 0
0 97 0
0 96 0
0 97 0
0 97 0
0 97 0
0 98 0
0 96 0
0 98 0
0 96 0
0 96 0
0 97 0
0 97 0
0 97 0
0 98 0
0 96 0
0 96 0
0 98 0
0 96 0
0 97 0
0 97 0
0 97 0
0 98 0
0 96 0
0 95 0
0 95 0
0 97 0
0 96 0
0 97 0
0 97 0
0 96 0
0 98 0
0 97 0
0 97 0
0 98 0
0 95 0
0 98 0
0 97 0
0 96 0
0 97 0
0 98 0
0 98 0
0 98 0
0 98 0
0 98 0
0 97 0
0 98 0
0 97 0
0 98 0
0 98 0
0 98 0
0 98 0
0 98 0
0 98 0
0 98 0
0 98 0
0 96 0
0 97 0
0 97 0
0 97 0
0 98 0
0 99 0
0 96 0
0 98 0
0 99 0
0 97 0
0 98 0
0 97 0
0 97 0
0 98 0
0 98 0
0 99 0
0 96 0
0 97 0
0 97 0
0 98 0
0 98 0
0 97 0
0 97 0
0 97 0
0 98 0
0 97 0
0 99 0
0 98 0
0 99 0
0 97 0
0 98 0
0 99 0
0 97 0
0 99 0
0 97 0
0 98 0
0 98 0
0 96 0
0 99 0
0 98 0
0 98 0
0 98 0
0 98 0
0 98 0
0 98 0
0 98 0
0 99 0
0 99 0
0 98 0
0 97 0
0 98 0
0 98 0
0 98 0
0 98 0
0 97 0
0 98 0
0 99 0
0 99 0
0 97 0
0 97 0
0 98 0
0 98 0
0 98 0
0 97 0
0 98 0
0 97 0
0 98 0
0 97 0
0 98 0
0 98 0
0 97 0
0 97 0
0 99 0
0 98 0
0 98 0
0 98 0
0 98 0
0 98 0
0 97 0
0 98 0
0 99 0
0 98 0
0 96 0
0 99 0
0 97 0
0 98 0
0 98 0
0 98 0
0 96 0
0 97 0
0 98 0
0 97 0
0 99 0
0 98 0
0 98 0
0 98 0
0 97 0
0 98 0
0 98 0
0 98 0
0 98 0
0 99 0
0 96 0
0 98 0
0 97 0
0 98 0
0 97 0
0 98 0
0 98 0
0 97 0
0 97 0
0 97 0
0 98 0
0 97 0
0 96 0
0 99 0
0 97 0
0 98 0
0 97 0
0 97 0
0 97 0
0 97 0
0 97 0
0 97 0
0 97 0
0 98 0
0 97 0
0 96 0
0 97 0
0 97 0
0 97 0
0 97 0
0 97 0
0 97 0
0 98 0
0 97 0
0 96 0
0 97 0
0 97 0
0 97 0
0 99 0
0 97 0
0 97 0
0 96 0
0 96 0
0 98 0
0 98 0
0 98 0
0 97 0
0 97 0
0 97 0
0 98 0
0 95 0
0 99 0
0 96 0
0 96 0
0 98 0
0 96 0
0 96 0
0 97 0
0 95 0
0 96 0
0 98 0
0 97 0
0 96 0
0 96 0
0 94 0
0 96 0
0 97 0
0 97 0
0 96 0
0 94 0
0 95 0
0 96 0
0 98 0
0 95 0
0 93 0
0 95 0
0 96 0
0 96 0
0 94 0
0 96 0
0 95 0
0 96 0
0 95 0
0 95 0
0 96 0
0 96 0
0 95 0
0 92 0
0 93 0
0 94 0
0 95 0
0 96 0
0 95 0
0 96 0
0 96 0
0 96 0
0 94 0
0 95 0
0 93 0
0 92 0
0 91 0
0 93 0
0 94 0
0 96 0
0 95 0
0 96 0
0 94 0
0 92 0
0 95 0
0 92 0
0 92 0
0 95 0
0 93 0
0 94 0
0 92 0
0 95 0
0 96 0
0 93 0
0 95 0
0 93 0
0 95 0
0 92 0
0 95 0
0 95 0
0 96 0
0 96 0
0 97 0
0 94 0
0 96 0
0 95 0
0 95 0
0 98 0
0 96 0
0 95 0
0 97 0
0 96 0
0 97 0
0 91 0
0 94 0
0 97 0
0 96 0
0 94 0
0 92 0
0 93 0
0 95 0
0 96 0
0 96 0
0 94 0
0 94 0
0 96 0
0 93 0
0 96 0
0 95 0
0 96 0
0 96 0
0 95 0
0 94 0
0 96 0
0 96 0
0 96 0
0 96 0
0 96 0
0 95 0
0 94 0
0 93 0
0 95 0
0 96 0
0 94 0
0 96 0
0 96 0
0 94 0
0 95 0
0 96 0
0 95 0
0 93 0
0 97 0
0 96 0
0 95 0
0 93 0
0 95 0
0 96 0
0 96 0
0 97 0
0 96 0
0 95 0
0 95 0
0 97 0
0 95 0
0 94 0
0 97 0
0 95 0
0 96 0
0 96 0
0 96 0
0 96 0
0 95 0
0 96 0
0 96 0
0 96 0
0 96 0
0 95 0
0 96 0
0 96 0
0 94 0
0 96 0
0 95 0
0 95 0
0 96 0
0 97 0
0 97 0
0 98 0
0 95 0
0 96 0
0 97 0
0 98 0
0 96 0
0 96 0
0 94 0
0 96 0
0 95 0
0 95 0
0 98 0
0 95 0
0 95 0
0 96 0
0 97 0
0 97 0
0 97 0
0 98 0
0 97 0
0 95 0
0 97 0
0 98 0
0 97 0
0 97 0
0 94 0
0 96 0
0 95 0
0 97 0
0 97 0
0 98 0
0 96 0
0 95 0
0 96 0
0 98 0
0 97 0
0 97 0
0 97 0
0 97 0
0 98 0
0 98 0
0 97 0
0 98 0
0 97 0
0 96 0
0 97 0
0 96 0
0 97 0
0 97 0
0 97 0
0 97 0
0 97 0
0 95 0
0 97 0
0 95 0
0 98 0
0 97 0
0 97 0
0 98 0
0 97 0
0 97 0
0 98 0
0 97 0
0 98 0
0 98 0
0 97 0
0 96 0
0 98 0
0 98 0
0 97 0
0 96 0
0 96 0
0 97 0
0 98 0
0 98 0
0 97 0
0 99 0
0 98 0
0 97 0
0 98 0
0 98 0
0 97 0
0 98 0
0 98 0
0 96 0
0 98 0
0 96 0
0 98 0
0 96 0
0 98 0
0 99 0
0 98 0
0 97 0
0 98 0
0 98 0
0 97 0
0 98 0
0 98 0
0 97 0
0 96 0
0 99 0
0 99 0
0 98 0
0 98 0
0 97 0
0 98 0
0 99 0
0 98 0
0 97 0
0 97 0
0 97 0
0 98 0
0 98 0
0 97 0
0 99 0
0 98 0
0 98 0
0 97 0
0 98 0
0 98 0
0 98 0
0 97 0
0 98 0
0 98 0
0 98 0
0 99 0
0 99 0
0 97 0
0 98 0
0 98 0
0 98 0
0 97 0
0 98 0
0 98 0
0 99 0
0 98 0
0 99 0
0 98 0
0 98 0
0 98 0
0 98 0
0 98 0
0 99 0
0 98 0
0 99 0
0 98 0
0 98 0
0 98 0
0 98 0
0 98 0
0 98 0
0 98 0
0 98 0
0 99 0
0 98 0
0 97 0
0 99 0
0 98 0
0 98 0
0 97 0
0 98 0
0 96 0
0 98 0
0 98 0
0 98 0
0 98 0
0 97 0
0 97 0
0 98 0
0 97 0
0 98 0
0 97 0
0 98 0
0 98 0
0 98 0
0 98 0
0 98 0
0 97 0
0 97 0
0 97 0
0 97 0
0 97 0
0 98 0
0 98 0
0 98 0
0 98 0
0 97 0
0 97 0
0 97 0
0 97 0
0 98 0
0 97 0
0 98 0
0 98 0
0 98 0
0 99 0
0 98 0
0 96 0
0 97 0
0 97 0
0 98 0
0 97 0
0 97 0
0 98 0
0 98 0
0 97 0
0 97 0
0 98 0
0 98 0
0 98 0
0 98 0
0 97 0
0 96 0
0 98 0
0 97 0
0 97 0
0 97 0
0 96 0
0 98 0
0 97 0
0 98 0
0 96 0
0 97 0
0 97 0
0 97 0
0 98 0
0 96 0
0 97 0
0 96 0
0 97 0
0 98 0
0 96 0
0 96 0
0 97 0
0 97 0
0 96 0
0 97 0
0 96 0
0 96 0
0 97 0
0 97 0
0 97 0
0 97 0
0 95 0
0 95 0
0 95 0
0 96 0
0 97 0
0 96 0
0 94 0
0 97 0
0 96 0
0 96 0
0 94 0
0 96 0
0 95 0
0 97 0
0 94 0
0 96 0
0 97 0
0 94 0
0 97 0
0 95 0
0 97 0
0 96 0
0 96 0
0 97 0
0 97 0
0 95 0
0 96 0
0 97 0
0 95 0
0 96 0
0 96 0
0 94 0
0 96 0
0 97 0
0 94 0
0 94 0
0 93 0
0 95 0
0 95 0
0 93 0
0 95 0
0 93 0
0 93 0
0 96 0
0 92 0
0 94 0
0 96 0
0 95 0
0 95 0
0 95 0
0 90 0
0 95 0
0 94 0
0 96 0
0 94 0
0 93 0
0 93 0
0 96 0
0 96 0
0 92 0
0 96 0
0 94 0
0 94 0
0 95 0
0 95 0
0 95 0
0 95 0
0 96 0
0 94 0
0 95 0
0 93 0
0 94 0
0 94 0
0 95 0
0 95 0
0 95 0
0 97 0
0 95 0
0 96 0
0 95 0
0 94 0
0 93 0
0 96 0
0 97 0
0 96 0
0 94 0
0 97 0
0 95 0
0 96 0
0 94 0
0 97 0
0 95 0
0 96 0
0 95 0
0 97 0
0 96 0
0 93 0
0 96 0
0 95 0
0 94 0
0 97 0
0 94 0
0 94 0
0 97 0
0 94 0
0 96 0
0 96 0
0 94 0
0 95 0
0 94 0
0 97 0
0 93 0
0 96 0
0 96 0
0 94 0
0 97 0
0 94 0
0 94 0
0 95 0
0 94 0
0 96 0
0 95 0
0 98 0
0 95 0
0 96 0
0 95 0
0 97 0
0 95 0
0 96 0
0 95 0
0 94 0
0 97 0
0 96 0
0 96 0
0 97 0
0 96 0
0 94 0
0 97 0
0 95 0
0 95 0
0 96 0
0 97 0
0 97 0
0 96 0
0 95 0
0 95 0
0 96 0
0 97 0
0 97 0
0 95 0
0 95 0
0 96 0
0 97 0
0 97 0
0 97 0
0 97 0
0 96 0
0 96 0
0 95 0
0 97 0
0 97 0
0 94 0
0 95 0
0 98 0
0 97 0
0 97 0
0 96 0
0 96 0
0 97 0
0 97 0
0 96 0
0 96 0
0 96 0
0 98 0
0 97 0
0 96 0
0 97 0
0 97 0
0 97 0
0 94 0
0 96 0
0 96 0
0 96 0
0 97 0
0 98 0
0 97 0
0 97 0
0 96 0
0 97 0
0 97 0
0 96 0
0 98 0
0 96 0
0 97 0
0 98 0
0 97 0
0 97 0
0 97 0
0 97 0
0 98 0
0 98 0
0 96 0
0 97 0
0 97 0
0 95 0
0 98 0
0 97 0
0 97 0
0 98 0
0 97 0
0 97 0
0 98 0
0 98 0
0 98 0
0 96 0
0 97 0
0 97 0
0 98 0
0 97 0
0 97 0
0 98 0
0 96 0
0 98 0
0 96 0
0 97 0
0 97 0
0 97 0
0 97 0
0 98 0
0 98 0
0 98 0
0 97 0
0 97 0
0 97 0
0 97 0
0 97 0
0 98 0
0 97 0
0 99 0
0 97 0
0 97 0
0 98 0
0 98 0
0 98 0
0 99 0
0 97 0
0 97 0
0 97 0
0 98 0
0 97 0
0 98 0
0 97 0
0 98 0
0 97 0
0 96 0
0 97 0
0 97 0
0 98 0
0 98 0
0 98 0
0 97 0
0 98 0
0 97 0
0 99 0
0 98 0
0 98 0
0 99 0
0 98 0
0 98 0
0 99 0
0 98 0
0 98 0
0 98 0
0 98 0
0 97 0
0 98 0
0 98 0
0 97 0
0 98 0
0 99 0
0 98 0
0 99 0
0 98 0
0 97 0
0 97 0
0 98 0
0 98 0
0 98 0
0 98 0
0 98 0
0 98 0
0 98 0
0 98 0
0 99 0
0 99 0
0 98 0
0 98 0
0 98 0
0 98 0
0 98 0
0 98 0
0 98 0
0 98 0
0 98 0
0 98 0
0 99 0
0 98 0
0 98 0
0 97 0
0 98 0
0 98 0
0 99 0
0 98 0
0 98 0
0 97 0
0 97 0
0 98 0
0 98 0
0 97 0
0 98 0
0 99 0
0 98 0
0 99 0
0 98 0
0 98 0
0 98 0
0 97 0
0 98 0
0 97 0
0 98 0
0 97 0
0 98 0
0 98 0
0 97 0
0 98 0
0 97 0
0 98 0
0 98 0
0 97 0
0 98 0
0 98 0
0 96 0
0 97 0
0 98 0
0 98 0
0 98 0
0 97 0
0 97 0
0 97 0
0 98 0
0 98 0
0 98 0
0 97 0
0 98 0
0 97 0
0 96 0
0 97 0
0 96 0
0 97 0
0 98 0
0 96 0
0 97 0
0 98 0
0 97 0
0 97 0
0 98 0
0 98 0
0 98 0
0 97 0
0 98 0
0 98 0
0 97 0
0 97 0
0 97 0
0 98 0
0 97 0
0 95 0
0 98 0
0 97 0
0 97 0
0 97 0
0 97 0
0 96 0
0 96 0
0 97 0
0 96 0
0 97 0
0 98 0
0 98 0
0 96 0
0 96 0
0 95 0
0 97 0
0 97 0
0 96 0
0 98 0
0 96 0
0 98 0
0 96 0
0 98 0
0 94 0
0 94 0
0 98 0
0 97 0
0 96 0
0 97 0
0 97 0
0 97 0
0 97 0
0 97 0
0 97 0
0 96 0
0 96 0
0 97 0
0 96 0
0 95 0
0 96 0
0 95 0
0 96 0
0 97 0
0 94 0
0 94 0
0 97 0
0 94 0
0 97 0
0 93 0
0 95 0
0 98 0
0 94 0
0 97 0
0 95 0
0 96 0
0 94 0
0 94 0
0 96 0
0 94 0
0 94 0
0 96 0
0 95 0
0 96 0
0 94 0
0 95 0
0 96 0
0 94 0
0 95 0
0 96 0
0 93 0
0 94 0
0 93 0
0 95 0
0 96 0
0 93 0
0 94 0
0 97 0
0 96 0
0 95 0
0 95 0
0 95 0
0 94 0
0 95 0
0 97 0
0 97 0
0 95 0
0 94 0
0 94 0
0 95 0
0 96 0
0 94 0
0 94 0
0 95 0
0 95 0
0 95 0
0 94 0
0 96 0
0 95 0
0 94 0
0 95 0
0 97 0
0 95 0
0 93 0
0 98 0
0 94 0
0 95 0
0 92 0
0 95 0
0 96 0
0 97 0
0 96 0
0 96 0
0 93 0
0 95 0
0 94 0
0 97 0
0 95 0
0 95 0
0 96 0
0 93 0
0 95 0
0 96 0
0 95 0
0 96 0
0 97 0
0 93 0
0 97 0
0 95 0
0 96 0
0 93 0
0 96 0
0 96 0
0 94 0
0 95 0
0 97 0
0 94 0
0 96 0
0 97 0
0 97 0
0 94 0
0 96 0
0 97 0
0 95 0
0 94 0
0 96 0
0 96 0
0 97 0
0 95 0
0 97 0
0 95 0
0 96 0
0 95 0
0 94 0
0 94 0
0 97 0
0 94 0
0 96 0
0 95 0
0 95 0
0 96 0
0 94 0
0 96 0
0 96 0
0 94 0
0 96 0
0 97 0
0 97 0
0 94 0
0 95 0
0 97 0
0 96 0
0 95 0
0 97 0
0 95 0
0 96 0
0 97 0
0 97 0
0 96 0
0 97 0
0 95 0
0 95 0
0 96 0
0 95 0
0 97 0
0 98 0
0 97 0
0 97 0
0 96 0
0 96 0
0 97 0
0 97 0
0 96 0
0 97 0
0 98 0
0 97 0
0 95 0
0 96 0
0 97 0
0 96 0
0 96 0
0 96 0
0 97 0
0 95 0
0 96 0
0 98 0
0 96 0
0 95 0
0 98 0
0 96 0
0 98 0
0 98 0
0 97 0
0 98 0
0 98 0
0 96 0
0 98 0
0 96 0
0 96 0
0 97 0
0 97 0
0 97 0
0 97 0
0 98 0
0 96 0
0 96 0
0 98 0
0 98 0
0 97 0
0 96 0
0 97 0
0 97 0
0 96 0
0 98 0
0 99 0
0 96 0
0 98 0
0 98 0
0 98 0
0 98 0
0 97 0
0 97 0
0 98 0
0 98 0
0 98 0
0 98 0
0 98 0
0 97 0
0 98 0
0 99 0
0 97 0
0 97 0
0 97 0
0 98 0
0 98 0
0 98 0
0 98 0
0 96 0
0 97 0
0 97 0
0 97 0
0 98 0
0 98 0
0 98 0
0 98 0
0 98 0
0 98 0
0 99 0
0 97 0
0 96 0
0 99 0
0 97 0
0 98 0
0 98 0
0 97 0
0 98 0
0 98 0
0 99 0
0 98 0
0 98 0
0 97 0
0 99 0
0 97 0
0 98 0
0 99 0
0 96 0
0 98 0
0 98 0
0 98 0
0 98 0
0 97 0
0 97 0
0 97 0
0 98 0
0 97 0
0 98 0
0 98 0
0 97 0
0 98 0
0 98 0
0 98 0
0 98 0
0 97 0
0 98 0
0 99 0
0 98 0
0 98 0
0 99 0
0 98 0
0 97 0
0 98 0
0 99 0
0 98 0
0 97 0
0 98 0
0 98 0
0 98 0
0 98 0
0 98 0
0 98 0
0 99 0
0 98 0
0 97 0
0 98 0
0 98 0
0 98 0
0 98 0
0 98 0
0 97 0
0 98 0
0 98 0
0 98 0
0 98 0
0 98 0
0 98 0
0 96 0
0 98 0
0 98 0
0 98 0
0 98 0
0 98 0
0 98 0
0 98 0
0 98 0
0 97 0
0 98 0
0 97 0
0 98 0
0 97 0
0 98 0
0 99 0
0 98 0
0 98 0
0 98 0
0 98 0
0 97 0
0 99 0
0 98 0
0 97 0
0 98 0
0 97 0
0 97 0
0 98 0
0 98 0
0 98 0
0 98 0
0 98 0
0 97 0
0 98 0
0 98 0
0 97 0
0 98 0
0 97 0
0 97 0
0 97 0
0 98 0
0 97 0
0 97 0
0 99 0
0 96 0
0 98 0
0 98 0
0 97 0
0 97 0
0 98 0
0 98 0
0 97 0
0 96 0
0 98 0
0 99 0
0 96 0
0 98 0
0 98 0
0 98 0
0 95 0
0 98 0
0 97 0
0 98 0
0 96 0
0 98 0
0 97 0
0 98 0
0 98 0
0 98 0
0 96 0
0 97 0
0 97 0
0 98 0
0 95 0
0 97 0
0 98 0
0 95 0
0 97 0
0 97 0
0 96 0
0 97 0
0 97 0
0 96 0
0 95 0
0 97 0
0 95 0
0 96 0
0 98 0
0 96 0
0 97 0
0 97 0
0 96 0
0 97 0
0 96 0
0 94 0
0 98 0
0 97 0
0 95 0
0 97 0
0 96 0
0 97 0
0 96 0
0 96 0
0 97 0
0 98 0
0 97 0
0 97 0
0 95 0
0 94 0
0 97 0
0 96 0
0 97 0
0 95 0
0 94 0
0 94 0
0 96 0
0 97 0
0 98 0
0 95 0
0 97 0
0 96 0
0 92 0
0 95 0
0 94 0
0 95 0
0 95 0
0 97 0
0 95 0
0 93 0
0 96 0
0 96 0
0 95 0
0 95 0
0 94 0
0 96 0
0 97 0
0 94 0
0 96 0
0 95 0
0 95 0
0 96 0
0 96 0
0 92 0
0 95 0
0 94 0
0 93 0
0 95 0
0 93 0
0 95 0
0 92 0
0 95 0
0 94 0
0 95 0
0 95 0
0 96 0
0 92 0
0 97 0
0 95 0
0 97 0
0 97 0
0 93 0
0 92 0
0 95 0
0 96 0
0 96 0
0 94 0
0 95 0
0 97 0
0 97 0
0 94 0
0 96 0
0 93 0
0 95 0
0 96 0
0 95 0
0 94 0
0 94 0
0 94 0
0 94 0
0 96 0
0 94 0
0 96 0
0 94 0
0 95 0
0 95 0
0 95 0
0 94 0
0 96 0
0 95 0
0 97 0
0 96 0
0 96 0
0 95 0
0 97 0
0 95 0
0 97 0
0 95 0
0 95 0
0 94 0
0 95 0
0 95 0
0 94 0
0 95 0
0 95 0
0 97 0
0 96 0
0 96 0
0 96 0
0 96 0
0 95 0
0 97 0
0 96 0
0 96 0
0 96 0
0 96 0
0 96 0
0 97 0
0 96 0
0 96 0
0 96 0
0 94 0
0 96 0
0 94 0
0 94 0
0 96 0
0 98 0
0 96 0
0 95 0
0 96 0
0 97 0
0 96 0
0 97 0
0 97 0
0 96 0
0 97 0
0 96 0
0 96 0
0 97 0
0 96 0
0 96 0
0 95 0
0 95 0
0 98 0
0 96 0
0 97 0
0 96 0
0 98 0
0 96 0
0 96 0
0 97 0
0 96 0
0 94 0
0 98 0
0 97 0
0 96 0
0 97 0
0 95 0
0 96 0
0 96 0
0 96 0
0 98 0
0 96 0
0 95 0
0 97 0
0 98 0
0 96 0
0 96 0
0 96 0
0 96 0
0 97 0
0 97 0
0 96 0
0 97 0
0 97 0
0 97 0
0 96 0
0 97 0
0 97 0
0 97 0
0 97 0
0 96 0
0 97 0
0 98 0
0 96 0
0 96 0
0 96 0
0 96 0
0 96 0
0 98 0
0 97 0
0 97 0
0 98 0
0 98 0
0 97 0
0 96 0
0 96 0
0 97 0
0 96 0
0 98 0
0 96 0
0 97 0
0 98 0
0 98 0
0 99 0
0 97 0
0 98 0
0 98 0
0 97 0
0 98 0
0 97 0
0 97 0
0 98 0
0 97 0
0 98 0
0 97 0
0 97 0
0 98 0
0 97 0
0 98 0
0 97 0
0 96 0
0 97 0
0 97 0
0 98 0
0 97 0
0 96 0
0 97 0
0 97 0
0 97 0
0 96 0
0 96 0
0 97 0
0 98 0
0 97 0
0 97 0
0 99 0
0 97 0
0 97 0
0 98 0
0 97 0
0 97 0
0 97 0
0 97 0
0 99 0
0 98 0
0 98 0
0 98 0
0 98 0
0 98 0
0 98 0
0 98 0
0 98 0
0 98 0
0 98 0
0 97 0
0 97 0
0 98 0
0 98 0
0 99 0
0 98 0
0 97 0
0 99 0
0 98 0
0 97 0
0 97 0
0 98 0
0 98 0
0 98 0
0 98 0
0 98 0
0 98 0
0 98 0
0 98 0
0 99 0
0 97 0
0 98 0
0 98 0
0 98 0
0 98 0
0 97 0
0 98 0
0 98 0
0 98 0
0 98 0
0 99 0
0 98 0
0 98 0
0 98 0
0 98 0
0 99 0
0 98 0
0 98 0
0 98 0
0 98 0
0 99 0
0 96 0
0 98 0
0 99 0
0 98 0
0 98 0
0 99 0
0 98 0
0 98 0
0 98 0
0 98 0
0 97 0
0 99 0
0 97 0
0 97 0
0 98 0
0 97 0
0 98 0
0 98 0
0 98 0
0 98 0
0 98 0
0 98 0
0 97 0
0 98 0
0 96 0
0 98 0
0 97 0
0 97 0
0 98 0
0 98 0
0 97 0
0 97 0
0 96 0
0 98 0
0 97 0
0 97 0
0 97 0
0 98 0
0 97 0
0 97 0
0 98 0
0 98 0
0 98 0
0 98 0
0 98 0
0 98 0
0 97 0
0 98 0
0 96 0
0 96 0
0 97 0
0 97 0
0 97 0
0 98 0
0 96 0
0 97 0
0 98 0
0 97 0
0 97 0
0 98 0
0 97 0
0 99 0
0 98 0
0 98 0
0 97 0
0 98 0
0 97 0
0 95 0
0 95 0
0 97 0
0 97 0
0 98 0
0 97 0
0 96 0
0 97 0
0 97 0
0 96 0
0 97 0
0 96 0
0 97 0
0 97 0
0 97 0
0 97 0
0 96 0
0 99 0
0 97 0
0 97 0
0 97 0
0 97 0
0 97 0
0 96 0
0 97 0
0 97 0
0 96 0
0 98 0
0 98 0
0 97 0
0 98 0
0 97 0
0 95 0
0 96 0
0 96 0
0 94 0
0 97 0
0 96 0
0 97 0
0 93 0
0 95 0
0 97 0
0 96 0
0 95 0
0 96 0
0 97 0
0 97 0
0 97 0
0 95 0
0 93 0
0 96 0
0 95 0
0 98 0
0 95 0
0 95 0
0 94 0
0 95 0
0 96 0
0 96 0
0 97 0
0 96 0
0 95 0
0 97 0
0 95 0
0 94 0
0 97 0
0 95 0
0 97 0
0 96 0
0 94 0
0 95 0
0 95 0
0 94 0
0 94 0
0 96 0
0 93 0
0 95 0
0 97 0
0 94 0
0 95 0
0 96 0
0 95 0
0 94 0
0 94 0
0 95 0
0 95 0
0 96 0
0 96 0
0 95 0
0 97 0
0 94 0
0 96 0
0 95 0
0 93 0
0 96 0
0 94 0
0 96 0
0 97 0
0 97 0
0 95 0
0 95 0
0 96 0
0 94 0
0 99 0
0 95 0
0 96 0
0 94 0
0 96 0
0 98 0
0 93 0
0 93 0
0 96 0
0 94 0
0 94 0
0 97 0
0 93 0
0 96 0
0 96 0
0 97 0
0 98 0
0 95 0
0 95 0
0 96 0
0 95 0
0 95 0
0 94 0
0 94 0
0 95 0
0 95 0
0 96 0
0 96 0
0 96 0
0 96 0
0 96 0
0 97 0
0 96 0
0 94 0
0 96 0
0 92 0
0 94 0
0 94 0
0 95 0
0 96 0
0 96 0
0 96 0
0 97 0
0 97 0
0 98 0
0 95 0
0 97 0
0 95 0
0 96 0
0 95 0
0 95 0
0 97 0
0 95 0
0 97 0
0 96 0
0 95 0
0 97 0
0 97 0
0 95 0
0 96 0
0 97 0
0 97 0
0 95 0
0 96 0
0 96 0
0 96 0
0 96 0
0 95 0
0 96 0
0 97 0
0 96 0
0 95 0
0 97 0
0 96 0
0 97 0
0 96 0
0 97 0
0 97 0
0 98 0
0 96 0
0 97 0
0 95 0
0 97 0
0 97 0
0 97 0
0 96 0
0 95 0
0 97 0
0 97 0
0 97 0
0 93 0
0 98 0
0 95 0
0 97 0
0 97 0
0 96 0
0 97 0
0 97 0
0 96 0
0 98 0
0 97 0
0 97 0
0 96 0
0 98 0
0 97 0
0 95 0
0 96 0
0 95 0
0 98 0
0 95 0
0 96 0
0 97 0
0 97 0
0 98 0
0 98 0
0 96 0
0 97 0
0 97 0
0 98 0
0 98 0
0 96 0
0 98 0
0 97 0
0 99 0
0 98 0
0 97 0
0 97 0
0 98 0
0 95 0
0 98 0
0 97 0
0 97 0
0 95 0
0 98 0
0 95 0
0 96 0
0 99 0
0 97 0
0 96 0
0 97 0
0 98 0
0 97 0
0 98 0
0 98 0
0 98 0
0 97 0
0 96 0
0 98 0
0 98 0
0 98 0
0 97 0
0 96 0
0 98 0
0 97 0
0 97 0
0 98 0
0 97 0
0 98 0
0 97 0
0 98 0
0 98 0
0 98 0
0 97 0
0 97 0
0 98 0
0 97 0
0 97 0
0 98 0
0 97 0
0 97 0
0 98 0
0 97 0
0 98 0
0 97 0
0 97 0
0 98 0
0 98 0
0 98 0
0 98 0
0 97 0
0 96 0
0 98 0
0 99 0
0 98 0
0 97 0
0 98 0
0 97 0
0 98 0
0 97 0
0 99 0
0 98 0
0 98 0
0 98 0
0 98 0
0 97 0
0 97 0
0 98 0
0 98 0
0 97 0
0 97 0
0 99 0
0 98 0
0 98 0
0 98 0
0 97 0
0 98 0
0 98 0
0 97 0
0 98 0
0 97 0
0 98 0
0 98 0
0 99 0
0 97 0
0 97 0
0 97 0
0 98 0
0 96 0
0 99 0
0 99 0
0 98 0
0 99 0
0 98 0
0 98 0
0 99 0
0 97 0
0 98 0
0 99 0
0 97 0
0 98 0
0 98 0
0 97 0
0 98 0
0 98 0
0 98 0
0 98 0
0 99 0
0 98 0
0 99 0
0 98 0
0 98 0
0 98 0
0 98 0
0 98 0
0 97 0
0 98 0
0 97 0
0 98 0
0 99 0
0 98 0
0 98 0
0 98 0
0 97 0
0 97 0
0 96 0
0 98 0
0 97 0
0 97 0
0 97 0
0 99 0
0 98 0
0 97 0
0 97 0
0 98 0
0 96 0
0 97 0
0 96 0
0 97 0
0 98 0
0 98 0
0 98 0
0 98 0
0 98 0
0 98 0
0 98 0
0 98 0
0 97 0
0 96 0
0 98 0
0 97 0
0 98 0
0 97 0
0 98 0
0 97 0
0 97 0
0 98 0
0 98 0
0 97 0
0 98 0
0 98 0
0 98 0
0 97 0
0 97 0
0 97 0
0 98 0
0 97 0
0 96 0
0 96 0
0 98 0
0 97 0
0 98 0
0 97 0
0 98 0
0 97 0
0 97 0
0 97 0
0 97 0
0 98 0
0 98 0
0 98 0
0 97 0
0 97 0
0 97 0
0 97 0
0 97 0
0 97 0
0 98 0
0 96 0
0 96 0
0 98 0
0 95 0
0 97 0
0 97 0
0 97 0
0 96 0
0 96 0
0 97 0
0 96 0
0 94 0
0 95 0
0 94 0
0 96 0
0 97 0
0 94 0
0 97 0
0 97 0
0 96 0
0 98 0
0 97 0
0 96 0
0 97 0
0 96 0
0 95 0
0 96 0
0 96 0
0 96 0
0 95 0
0 95 0
0 94 0
0 96 0
0 95 0
0 96 0
0 98 0
0 97 0
0 94 0
0 96 0
0 93 0
0 93 0
0 95 0
0 96 0
0 96 0
0 96 0
0 95 0
0 96 0
0 94 0
0 94 0
0 95 0
0 96 0
0 95 0
0 96 0
0 97 0
0 96 0
0 93 0
0 96 0
0 95 0
0 97 0
0 96 0
0 95 0
0 95 0
0 98 0
0 95 0
0 96 0
0 94 0
0 96 0
0 93 0
0 95 0
0 95 0
0 92 0
0 96 0
0 97 0
0 94 0
0 94 0
0 94 0
0 94 0
0 93 0
0 95 0
0 96 0
0 95 0
0 94 0
0 95 0
0 96 0
0 98 0
0 96 0
0 95 0
0 96 0
0 95 0
0 96 0
0 97 0
0 97 0
0 94 0
0 96 0
0 95 0
0 94 0
0 94 0
0 95 0
0 97 0
0 97 0
0 94 0
0 96 0
0 93 0
0 96 0
0 94 0
0 94 0
0 95 0
0 97 0
0 95 0
0 96 0
0 97 0
0 96 0
0 95 0
0 94 0
0 96 0
0 95 0
0 94 0
0 95 0
0 95 0
0 98 0
0 94 0
0 95 0
0 97 0
0 95 0
0 95 0
0 95 0
0 96 0
0 95 0
0 95 0
0 96 0
0 96 0
0 97 0
0 95 0
0 96 0
0 97 0
0 95 0
0 96 0
0 95 0
0 98 0
0 95 0
0 97 0
0 96 0
0 98 0
0 96 0
0 94 0
0 97 0
0 96 0
0 97 0
0 97 0
0 95 0
0 97 0
0 96 0
0 96 0
0 96 0
0 97 0
0 96 0
0 97 0
0 96 0
0 95 0
0 95 0
0 96 0
0 96 0
0 98 0
0 95 0
0 96 0
0 97 0
0 94 0
0 96 0
0 95 0
0 96 0
0 95 0
0 98 0
0 97 0
0 98 0
0 97 0
0 95 0
0 97 0
0 98 0
0 97 0
0 97 0
0 96 0
0 97 0
0 98 0
0 98 0
0 95 0
0 97 0
0 96 0
0 97 0
0 96 0
0 98 0
0 97 0
0 96 0
0 96 0
0 98 0
0 98 0
0 95 0
0 98 0
0 96 0
0 96 0
0 97 0
0 98 0
0 97 0
0 97 0
0 96 0
0 98 0
0 98 0
0 97 0
0 98 0
0 98 0
0 97 0
0 97 0
0 96 0
0 98 0
0 97 0
0 97 0
0 96 0
0 97 0
0 97 0
0 97 0
0 97 0
0 98 0
0 97 0
0 97 0
0 97 0
0 97 0
0 97 0
0 98 0
0 97 0
0 98 0
0 96 0
0 97 0
0 98 0
0 98 0
0 98 0
0 98 0
0 97 0
0 97 0
0 97 0
0 96 0
0 97 0
0 97 0
0 97 0
0 98 0
0 98 0
0 96 0
0 97 0
0 99 0
0 97 0
0 96 0
0 97 0
0 98 0
0 97 0
0 98 0
0 98 0
0 97 0
0 98 0
0 98 0
0 98 0
0 98 0
0 97 0
0 98 0
0 98 0
0 97 0
0 98 0
0 98 0
0 98 0
0 97 0
0 98 0
0 97 0
0 97 0
0 98 0
0 98 0
0 98 0
0 98 0
0 98 0
0 98 0
0 98 0
0 97 0
0 97 0
0 98 0
0 98 0
0 98 0
0 98 0
0 98 0
0 98 0
0 98 0
0 98 0
0 98 0
0 98 0
0 98 0
0 97 0
0 98 0
0 99 0
0 98 0
0 99 0
0 98 0
0 99 0
0 98 0
0 98 0
0 97 0
0 98 0
0 98 0
0 97 0
0 98 0
0 98 0
0 98 0
0 98 0
0 99 0
0 97 0
0 98 0
0 98 0
0 98 0
0 98 0
0 97 0
0 98 0
0 97 0
0 98 0
0 98 0
0 98 0
0 97 0
0 98 0
0 97 0
0 98 0
0 98 0
0 98 0
0 98 0
0 97 0
0 97 0
0 98 0
0 97 0
0 98 0
0 98 0
0 98 0
0 97 0
0 98 0
0 98 0
0 98 0
0 98 0
0 99 0
0 98 0
0 98 0
0 98 0
0 98 0
0 97 0
0 98 0
0 95 0
0 98 0
0 98 0
0 98 0
0 98 0
0 97 0
0 98 0
0 97 0
0 98 0
0 97 0
0 97 0
0 98 0
0 97 0
0 99 0
0 97 0
0 99 0
0 98 0
0 97 0
0 98 0
0 98 0
0 96 0
0 97 0
0 99 0
0 96 0
0 98 0
0 97 0
0 97 0
0 98 0
0 97 0
0 97 0
0 96 0
0 98 0
0 97 0
0 97 0
0 98 0
0 97 0
0 97 0
0 98 0
0 98 0
0 98 0
0 97 0
0 97 0
0 94 0
0 96 0
0 97 0
0 98 0
0 98 0
0 97 0
0 98 0
0 97 0
0 96 0
0 98 0
0 96 0
0 98 0
0 97 0
0 96 0
0 98 0
0 96 0
0 98 0
0 98 0
0 98 0
0 95 0
0 99 0
0 98 0
0 97 0
0 98 0
0 98 0
0 98 0
0 98 0
0 96 0
0 96 0
0 97 0
0 98 0
0 96 0
0 97 0
0 96 0
0 96 0
0 96 0
0 96 0
0 95 0
0 96 0
0 95 0
0 98 0
0 95 0
0 95 0
0 97 0
0 95 0
0 94 0
0 96 0
0 96 0
0 95 0
0 96 0
0 95 0
0 97 0
0 95 0
0 95 0
0 95 0
0 96 0
0 96 0
0 96 0
0 94 0
0 94 0
0 96 0
0 96 0
0 96 0
0 97 0
0 96 0
0 96 0
0 95 0
0 96 0
0 97 0
0 94 0
0 94 0
0 94 0
0 98 0
0 97 0
0 97 0
0 96 0
0 95 0
0 95 0
0 96 0
0 97 0
0 94 0
0 96 0
0 94 0
0 97 0
0 96 0
0 97 0
0 96 0
0 94 0
0 95 0
0 96 0
0 97 0
0 96 0
0 98 0
0 95 0
0 96 0
0 95 0
0 94 0
0 95 0
0 96 0
0 97 0
0 94 0
0 95 0
0 96 0
0 95 0
0 93 0
0 97 0
0 95 0
0 95 0
0 97 0
0 95 0
0 97 0
0 96 0
0 94 0
0 96 0
0 96 0
0 97 0
0 96 0
0 94 0
0 96 0
0 96 0
0 98 0
0 97 0
0 96 0
0 95 0
0 95 0
0 98 0
0 97 0
0 96 0
0 97 0
0 96 0
0 95 0
0 97 0
0 94 0
0 97 0
0 97 0
0 96 0
0 97 0
0 96 0
0 95 0
0 96 0
0 95 0
0 95 0
0 96 0
0 93 0
0 96 0
0 96 0
0 95 0
0 96 0
0 95 0
0 94 0
0 95 0
0 95 0
0 98 0
0 95 0
0 96 0
0 96 0
0 97 0
0 97 0
0 97 0
0 97 0
0 94 0
0 96 0
0 96 0
0 97 0
0 97 0
0 95 0
0 97 0
0 95 0
0 96 0
0 96 0
0 97 0
0 98 0
0 96 0
0 96 0
0 95 0
0 97 0
0 96 0
0 96 0
0 98 0
0 97 0
0 98 0
0 96 0
0 97 0
0 96 0
0 96 0
0 96 0
0 97 0
0 97 0
0 96 0
0 97 0
0 96 0
0 98 0
0 97 0
0 99 0
0 97 0
0 95 0
0 97 0
0 96 0
0 97 0
0 97 0
0 97 0
0 97 0
0 98 0
0 97 0
0 96 0
0 98 0
0 97 0
0 95 0
0 96 0
0 97 0
0 97 0
0 97 0
0 96 0
0 98 0
0 95 0
0 96 0
0 96 0
0 97 0
0 99 0
0 98 0
0 98 0
0 97 0
0 96 0
0 97 0
0 97 0
0 97 0
0 97 0
0 97 0
0 97 0
0 98 0
0 99 0
0 98 0
0 97 0
0 97 0
0 97 0
0 98 0
0 96 0
0 97 0
0 99 0
0 98 0
0 99 0
0 98 0
0 95 0
0 98 0
0 97 0
0 97 0
0 95 0
0 97 0
0 97 0
0 96 0
0 98 0
0 98 0
0 98 0
0 97 0
0 98 0
0 97 0
0 98 0
0 98 0
0 96 0
0 98 0
0 98 0
0 98 0
0 98 0
0 98 0
0 98 0
0 98 0
0 98 0
0 97 0
0 99 0
0 97 0
0 96 0
0 97 0
0 98 0
0 99 0
0 97 0
0 97 0
0 96 0
0 98 0
0 97 0
0 97 0
0 96 0
0 99 0
0 98 0
0 97 0
0 98 0
0 98 0
0 98 0
0 99 0
0 98 0
0 98 0
0 99 0
0 98 0
0 98 0
0 98 0
0 99 0
0 98 0
0 98 0
0 97 0
0 97 0
0 97 0
0 98 0
0 98 0
0 97 0
0 98 0
0 98 0
0 97 0
0 98 0
0 98 0
0 97 0
0 99 0
0 98 0
0 99 0
0 99 0
0 97 0
0 98 0
0 98 0
0 98 0
0 98 0
0 98 0
0 98 0
0 98 0
0 98 0
0 97 0
0 98 0
0 98 0
0 98 0
0 99 0
0 98 0
0 99 0
0 97 0
0 98 0
0 98 0
0 98 0
0 98 0
0 98 0
0 97 0
0 98 0
0 98 0
0 97 0
0 98 0
0 99 0
0 97 0
0 97 0
0 98 0
0 98 0
0 97 0
0 98 0
0 96 0
0 98 0
0 98 0
0 97 0
0 98 0
0 98 0
0 98 0
0 98 0
0 96 0
0 97 0
0 99 0
0 97 0
0 97 0
0 99 0
0 98 0
0 97 0
0 97 0
0 97 0
0 98 0
0 97 0
0 97 0
0 97 0
0 98 0
0 97 0
0 97 0
0 97 0
0 97 0
0 98 0
0 98 0
0 98 0
0 96 0
0 96 0
0 97 0
0 98 0
0 96 0
0 96 0
0 97 0
0 97 0
0 98 0
0 98 0
0 98 0
0 96 0
0 97 0
0 98 0
0 98 0
0 96 0
0 97 0
0 97 0
0 98 0
0 98 0
0 98 0
0 97 0
0 97 0
0 98 0
0 96 0
0 97 0
0 97 0
0 98 0
0 96 0
0 97 0
0 96 0
0 95 0
0 97 0
0 97 0
0 96 0
0 96 0
0 96 0
0 94 0
0 97 0
0 97 0
0 98 0
0 98 0
0 97 0
0 98 0
0 96 0
0 95 0
0 97 0
0 97 0
0 96 0
0 94 0
0 98 0
0 97 0
0 96 0
0 97 0
0 96 0
0 95 0
0 96 0
0 98 0
0 97 0
0 97 0
0 97 0
0 97 0
0 95 0
0 96 0
0 97 0
0 98 0
0 96 0
0 96 0
0 99 0
0 97 0
0 94 0
0 97 0
0 97 0
0 98 0
0 94 0
0 95 0
0 95 0
0 93 0
0 98 0
0 98 0
0 98 0
0 95 0
0 94 0
0 97 0
0 96 0
0 95 0
0 95 0
0 97 0
0 97 0
0 95 0
0 96 0
0 98 0
0 97 0
0 96 0
0 97 0
0 96 0
0 95 0
0 96 0
0 97 0
0 95 0
0 97 0
0 97 0
0 95 0
0 95 0
0 96 0
0 94 0
0 95 0
0 95 0
0 95 0
0 96 0
0 97 0
0 95 0
0 97 0
0 94 0
0 96 0
0 97 0
0 95 0
0 96 0
0 96 0
0 96 0
0 94 0
0 97 0
0 96 0
0 95 0
0 94 0
0 95 0
0 96 0
0 95 0
0 93 0
0 97 0
0 95 0
0 96 0
0 95 0
0 96 0
0 94 0
0 96 0
0 95 0
0 97 0
0 96 0
0 96 0
0 96 0
0 96 0
0 96 0
0 94 0
0 96 0
0 96 0
0 97 0
0 96 0
0 96 0
0 94 0
0 96 0
0 94 0
0 96 0
0 97 0
0 96 0
0 97 0
0 96 0
0 96 0
0 97 0
0 95 0
0 97 0
0 97 0
0 97 0
0 96 0
0 95 0
0 94 0
0 97 0
0 96 0
0 96 0
0 97 0
0 97 0
0 98 0
0 97 0
0 97 0
0 96 0
0 96 0
0 95 0
0 96 0
0 97 0
0 97 0
0 97 0
0 96 0
0 95 0
0 98 0
0 96 0
0 97 0
0 95 0
0 95 0
0 94 0
0 96 0
0 96 0
0 97 0
0 95 0
0 97 0
0 96 0
0 97 0
0 95 0
0 96 0
0 98 0
0 95 0
0 95 0
0 97 0
0 97 0
0 96 0
0 97 0
0 96 0
0 97 0
0 96 0
0 97 0
0 96 0
0 96 0
0 97 0
0 97 0
0 96 0
0 96 0
0 97 0
0 97 0
0 97 0
0 97 0
0 97 0
0 97 0
0 95 0
0 98 0
0 98 0
0 96 0
0 97 0
0 97 0
0 95 0
0 97 0
0 97 0
0 97 0
0 98 0
0 97 0
0 96 0
0 97 0
0 99 0
0 97 0
0 98 0
0 98 0
0 98 0
0 96 0
0 97 0
0 97 0
0 98 0
0 97 0
0 99 0
0 96 0
0 97 0
0 98 0
0 97 0
0 98 0
0 97 0
0 98 0
0 97 0
0 98 0
0 98 0
0 96 0
0 98 0
0 98 0
0 97 0
0 97 0
0 97 0
0 96 0
0 97 0
0 96 0
0 97 0
0 98 0
0 98 0
0 98 0
0 98 0
0 97 0
0 96 0
0 97 0
0 97 0
0 98 0
0 98 0
0 98 0
0 98 0
0 98 0
0 97 0
0 98 0
0 96 0
0 98 0
0 98 0
0 98 0
0 98 0
0 97 0
0 98 0
0 97 0
0 97 0
0 97 0
0 98 0
0 98 0
0 98 0
0 97 0
0 98 0
0 97 0
0 98 0
0 96 0
0 97 0
0 96 0
0 96 0
0 97 0
0 97 0
0 99 0
0 96 0
0 98 0
0 98 0
0 98 0
0 96 0
0 97 0
0 99 0
0 97 0
0 98 0
0 97 0
0 98 0
0 98 0
0 97 0
0 98 0
0 97 0
0 99 0
0 98 0
0 97 0
0 98 0
0 97 0
0 97 0
0 97 0
0 97 0
0 98 0
0 98 0
0 98 0
0 97 0
0 98 0
0 98 0
0 98 0
0 98 0
0 98 0
0 98 0
0 98 0
0 97 0
0 99 0
0 98 0
0 98 0
0 98 0
0 99 0
0 98 0
0 99 0
0 99 0
0 99 0
0 97 0
0 97 0
0 98 0
0 98 0
0 98 0
0 98 0
0 98 0
0 98 0
0 98 0
0 98 0
0 98 0
0 97 0
0 97 0
0 98 0
0 97 0
0 98 0
0 98 0
0 97 0
0 98 0
0 97 0
0 97 0
0 97 0
0 98 0
0 99 0
0 97 0
0 98 0
0 97 0
0 96 0
0 99 0
0 97 0
0 97 0
0 98 0
0 98 0
0 98 0
0 98 0
0 98 0
0 97 0
0 98 0
0 98 0
0 97 0
0 99 0
0 98 0
0 97 0
0 98 0
0 97 0
0 98 0
0 97 0
0 98 0
0 99 0
0 97 0
0 98 0
0 97 0
0 97 0
0 96 0
0 98 0
0 97 0
0 97 0
0 97 0
0 97 0
0 97 0
0 98 0
0 98 0
0 98 0
0 97 0
0 97 0
0 96 0
0 97 0
0 98 0
0 97 0
0 98 0
0 97 0
0 98 0
0 98 0
0 97 0
0 96 0
0 98 0
0 97 0
0 97 0
0 97 0
0 98 0
0 96 0
0 97 0
0 96 0
0 98 0
0 98 0
0 99 0
0 96 0
0 96 0
0 98 0
0 97 0
0 97 0
0 97 0
0 96 0
0 98 0
0 97 0
0 96 0
0 97 0
0 96 0
0 96 0
0 97 0
0 98 0
0 96 0
0 97 0
0 95 0
0 97 0
0 97 0
0 97 0
0 96 0
0 98 0
0 95 0
0 96 0
0 95 0
0 96 0
0 96 0
0 98 0
0 97 0
0 97 0
0 95 0
0 95 0
0 96 0
0 96 0
0 97 0
0 98 0
0 95 0
0 96 0
0 96 0
0 96 0
0 97 0
0 94 0
0 95 0
0 96 0
0 96 0
0 95 0
0 97 0
0 94 0
0 98 0
0 98 0
0 98 0
0 96 0
0 95 0
0 97 0
0 96 0
0 96 0
0 96 0
0 95 0
0 97 0
0 95 0
0 96 0
0 96 0
0 96 0
0 97 0
0 94 0
0 96 0
0 96 0
0 95 0
0 97 0
0 96 0
0 97 0
0 96 0
0 95 0
0 95 0
0 95 0
0 95 0
0 96 0
0 94 0
0 97 0
0 97 0
0 97 0
0 93 0
0 96 0
0 97 0
0 97 0
0 95 0
0 97 0
0 96 0
0 95 0
0 97 0
0 97 0
0 96 0
0 96 0
0 97 0
0 97 0
0 95 0
0 98 0
0 96 0
0 96 0
0 96 0
0 95 0
0 94 0
0 96 0
0 96 0
0 95 0
0 96 0
0 94 0
0 96 0
0 96 0
0 96 0
0 97 0
0 95 0
0 96 0
0 95 0
0 95 0
0 98 0
0 94 0
0 96 0
0 96 0
0 97 0
0 96 0
0 95 0
0 96 0
0 95 0
0 95 0
0 97 0
0 96 0
0 96 0
0 96 0
0 96 0
0 96 0
0 96 0
0 96 0
0 94 0
0 97 0
0 94 0
0 96 0
0 96 0
0 97 0
0 96 0
0 97 0
0 96 0
0 96 0
0 96 0
0 94 0
0 94 0
0 97 0
0 96 0
0 96 0
0 97 0
0 96 0
0 94 0
0 97 0
0 95 0
0 97 0
0 95 0
0 96 0
0 96 0
0 96 0
0 97 0
0 96 0
0 97 0
0 97 0
0 98 0
0 97 0
0 97 0
0 97 0
0 97 0
0 97 0
0 95 0
0 96 0
0 98 0
0 96 0
0 98 0
0 96 0
0 98 0
0 97 0
0 97 0
0 97 0
0 97 0
0 98 0
0 98 0
0 97 0
0 98 0
0 98 0
0 97 0
0 97 0
0 98 0
0 97 0
0 98 0
0 97 0
0 97 0
0 98 0
0 97 0
0 97 0
0 97 0
0 97 0
0 98 0
0 97 0
0 97 0
0 97 0
0 98 0
0 97 0
0 96 0
0 97 0
0 98 0
0 97 0
0 96 0
0 98 0
0 98 0
0 98 0
0 97 0
0 97 0
0 96 0
0 99 0
0 97 0
0 97 0
0 97 0
0 97 0
0 98 0
0 98 0
0 97 0
0 98 0
0 98 0
0 98 0
0 96 0
0 98 0
0 98 0
0 96 0
0 96 0
0 97 0
0 98 0
0 98 0
0 98 0
0 97 0
0 98 0
0 97 0
0 97 0
0 97 0
0 97 0
0 98 0
0 97 0
0 97 0
0 98 0
0 97 0
0 97 0
0 98 0
0 98 0
0 97 0
0 96 0
0 98 0
0 98 0
0 97 0
0 98 0
0 98 0
0 98 0
0 97 0
0 98 0
0 97 0
0 99 0
0 97 0
0 97 0
0 97 0
0 98 0
0 97 0
0 97 0
0 98 0
0 97 0
0 97 0
0 98 0
0 98 0
0 99 0
0 98 0
0 97 0
0 97 0
0 98 0
0 99 0
0 98 0
0 97 0
0 98 0
0 97 0
0 98 0
0 98 0
0 99 0
0 97 0
0 97 0
0 98 0
0 98 0
0 98 0
0 98 0
0 98 0
0 98 0
0 97 0
0 97 0
0 97 0
0 98 0
0 98 0
0 97 0
0 98 0
0 99 0
0 98 0
0 98 0
0 98 0
0 97 0
0 98 0
0 98 0
0 98 0
0 97 0
0 98 0
0 98 0
0 99 0
0 97 0
0 98 0
0 98 0
0 97 0
0 97 0
0 98 0
0 98 0
0 97 0
0 98 0
0 98 0
0 98 0
0 98 0
0 98 0
0 98 0
0 98 0
0 98 0
0 98 0
0 97 0
0 98 0
0 99 0
0 98 0
0 99 0
0 96 0
0 99 0
0 98 0
0 97 0
0 97 0
0 97 0
0 97 0
0 97 0
0 97 0
0 98 0
0 97 0
0 97 0
0 98 0
0 98 0
0 97 0
0 97 0
0 99 0
0 97 0
0 98 0
0 97 0
0 98 0
0 97 0
0 98 0
0 98 0
0 97 0
0 97 0
0 98 0
0 98 0
0 97 0
0 99 0
0 98 0
0 98 0
0 97 0
0 99 0
0 97 0
0 98 0
0 98 0
0 98 0
0 98 0
0 97 0
0 97 0
0 98 0
0 97 0
0 96 0
0 95 0
0 98 0
0 97 0
0 97 0
0 98 0
0 95 0
0 98 0
0 98 0
0 99 0
0 98 0
0 98 0
0 98 0
0 96 0
0 95 0
0 98 0
0 95 0
0 96 0
0 97 0
0 97 0
0 97 0
0 95 0
0 97 0
0 98 0
0 97 0
0 98 0
0 97 0
0 97 0
0 96 0
0 98 0
0 96 0
0 97 0
0 97 0
0 97 0
0 97 0
0 98 0
0 97 0
0 97 0
0 98 0
0 96 0
0 99 0
0 97 0
0 97 0
0 96 0
0 96 0
0 96 0
0 98 0
0 98 0
0 96 0
0 97 0
0 95 0
0 95 0
0 95 0
0 94 0
0 95 0
0 97 0
0 96 0
0 98 0
0 96 0
0 97 0
0 96 0
0 97 0
0 95 0
0 96 0
0 97 0
0 97 0
0 97 0
0 98 0
0 96 0
0 96 0
0 95 0
0 95 0
0 94 0
0 96 0
0 95 0
0 97 0
0 96 0
0 96 0
0 96 0
0 97 0
0 97 0
0 97 0
0 95 0
0 95 0
0 97 0
0 98 0
0 98 0
0 96 0
0 96 0
0 96 0
0 93 0
0 95 0
0 98 0
0 97 0
0 97 0
0 93 0
0 96 0
0 94 0
0 95 0
0 96 0
0 95 0
0 93 0
0 96 0
0 96 0
0 94 0
0 95 0
0 94 0
0 96 0
0 96 0
0 96 0
0 95 0
0 97 0
0 97 0
0 94 0
0 95 0
0 94 0
0 95 0
0 96 0
0 95 0
0 97 0
0 96 0
0 97 0
0 96 0
0 95 0
0 95 0
0 96 0
0 98 0
0 95 0
0 95 0
0 97 0
0 96 0
0 94 0
0 97 0
0 97 0
0 96 0
0 98 0
0 97 0
0 97 0
0 95 0
0 96 0
0 95 0
0 97 0
0 97 0
0 97 0
0 97 0
0 97 0
0 97 0
0 97 0
0 96 0
0 96 0
0 96 0
0 95 0
0 97 0
0 95 0
0 97 0
0 97 0
0 95 0
0 96 0
0 96 0
0 96 0
0 93 0
0 98 0
0 96 0
0 96 0
0 96 0
0 96 0
0 97 0
0 97 0
0 97 0
0 96 0
0 96 0
0 95 0
0 95 0
0 97 0
0 95 0
0 98 0
0 95 0
0 96 0
0 94 0
0 97 0
0 97 0
0 96 0
0 96 0
0 98 0
0 96 0
0 96 0
0 92 0
0 97 0
0 98 0
0 97 0
0 97 0
0 96 0
0 97 0
0 98 0
0 96 0
0 98 0
0 96 0
0 94 0
0 97 0
0 98 0
0 97 0
0 97 0
0 97 0
0 98 0
0 97 0
0 97 0
0 96 0
0 96 0
0 97 0
0 97 0
0 96 0
0 97 0
0 96 0
0 97 0
0 97 0
0 98 0
0 97 0
0 97 0
0 97 0
0 97 0
0 98 0
0 98 0
0 97 0
0 96 0
0 97 0
0 96 0
0 96 0
0 98 0
0 96 0
0 99 0
0 98 0
0 96 0
0 98 0
0 95 0
0 98 0
0 98 0
0 98 0
0 98 0
0 95 0
0 96 0
0 96 0
0 98 0
0 96 0
0 97 0
0 97 0
0 97 0
0 96 0
0 97 0
0 96 0
0 98 0
0 98 0
0 96 0
0 97 0
0 98 0
0 96 0
0 97 0
0 98 0
0 98 0
0 97 0
0 97 0
0 98 0
0 97 0
0 97 0
0 97 0
0 98 0
0 96 0
0 98 0
0 97 0
0 97 0
0 98 0
0 98 0
0 98 0
0 97 0
0 98 0
0 98 0
0 97 0
0 97 0
0 96 0
0 97 0
0 98 0
0 98 0
0 97 0
0 96 0
0 97 0
0 98 0
0 96 0
0 97 0
0 98 0
0 98 0
0 98 0
0 97 0
0 97 0
0 99 0
0 97 0
0 97 0
0 97 0
0 97 0
0 97 0
0 98 0
0 97 0
0 98 0
0 98 0
0 97 0
0 99 0
0 96 0
0 98 0
0 99 0
0 98 0
0 97 0
0 98 0
0 99 0
0 98 0
0 98 0
0 98 0
0 98 0
0 97 0
0 99 0
0 98 0
0 98 0
0 97 0
0 99 0
0 98 0
0 98 0
0 97 0
0 98 0
0 98 0
0 98 0
0 97 0
0 99 0
0 97 0
0 98 0
0 99 0
0 99 0
0 98 0
0 98 0
0 97 0
0 98 0
0 98 0
0 99 0
0 98 0
0 98 0
0 98 0
0 96 0
0 98 0
0 98 0
0 99 0
0 98 0
0 97 0
0 98 0
0 98 0
0 98 0
0 98 0
0 98 0
0 98 0
0 98 0
0 98 0
0 98 0
0 98 0
0 96 0
0 98 0
0 97 0
0 98 0
0 97 0
0 98 0
0 98 0
0 98 0
0 97 0
0 98 0
0 99 0
0 98 0
0 97 0
0 98 0
0 97 0
0 98 0
0 97 0
0 97 0
0 97 0
0 97 0
0 98 0
0 98 0
0 97 0
0 99 0
0 98 0
0 97 0
0 98 0
0 98 0
0 97 0
0 98 0
0 96 0
0 97 0
0 97 0
0 96 0
0 97 0
0 97 0
0 98 0
0 98 0
0 97 0
0 97 0
0 97 0
0 96 0
0 97 0
0 98 0
0 97 0
0 98 0
0 97 0
0 98 0
0 96 0
0 97 0
0 96 0
0 97 0
0 97 0
0 96 0
0 97 0
0 97 0
0 97 0
0 96 0
0 97 0
0 97 0
0 97 0
0 97 0
0 98 0
0 97 0
0 98 0
0 97 0
0 98 0
0 98 0
0 96 0
0 97 0
0 97 0
0 99 0
0 96 0
0 97 0
0 97 0
0 97 0
0 97 0
0 96 0
0 97 0
0 97 0
0 98 0
0 95 0
0 95 0
0 97 0
0 98 0
0 98 0
0 95 0
0 95 0
0 96 0
0 97 0
0 98 0
0 98 0
0 97 0
0 96 0
0 97 0
0 96 0
0 97 0
0 94 0
0 95 0
0 98 0
0 95 0
0 96 0
0 96 0
0 98 0
0 96 0
0 96 0
0 97 0
0 96 0
0 96 0
0 94 0
0 95 0
0 96 0
0 97 0
0 96 0
0 92 0
0 96 0
0 97 0
0 96 0
0 97 0
0 94 0
0 98 0
0 97 0
0 97 0
0 96 0
0 96 0
0 97 0
0 97 0
0 98 0
0 95 0
0 93 0
0 96 0
0 96 0
0 97 0
0 96 0
0 96 0
0 94 0
0 96 0
0 96 0
0 96 0
0 93 0
0 96 0
0 95 0
0 96 0
0 97 0
0 97 0
0 94 0
0 95 0
0 95 0
0 96 0
0 95 0
0 94 0
0 97 0
0 95 0
0 97 0
0 98 0
0 94 0
0 96 0
0 96 0
0 98 0
0 96 0
0 97 0
0 96 0
0 96 0
0 98 0
0 98 0
0 96 0
0 97 0
0 96 0
0 97 0
0 96 0
0 97 0
0 98 0
0 97 0
0 97 0
0 94 0
0 95 0
0 97 0
0 97 0
0 97 0
0 97 0
0 96 0
0 96 0
0 94 0
0 95 0
0 97 0
0 95 0
0 96 0
0 96 0
0 97 0
0 96 0
0 96 0
0 96 0
0 96 0
0 96 0
0 97 0
0 97 0
0 94 0
0 95 0
0 97 0
0 96 0
0 97 0
0 97 0
0 97 0
0 97 0
0 94 0
0 97 0
0 96 0
0 97 0
0 96 0
0 96 0
0 96 0
0 97 0
0 96 0
0 96 0
0 96 0
0 95 0
0 93 0
0 97 0
0 94 0
0 95 0
0 97 0
0 98 0
0 97 0
0 96 0
0 96 0
0 97 0
0 98 0
0 98 0
0 98 0
0 99 0
0 96 0
0 97 0
0 98 0
0 97 0
0 97 0
0 97 0
0 95 0
0 98 0
0 96 0
0 97 0
0 97 0
0 97 0
0 98 0
0 95 0
0 97 0
0 97 0
0 96 0
0 98 0
0 98 0
0 97 0
0 96 0
0 97 0
0 96 0
0 99 0
0 96 0
0 98 0
0 97 0
0 97 0
0 97 0
0 97 0
0 97 0
0 97 0
0 96 0
0 97 0
0 97 0
0 97 0
0 97 0
0 98 0
0 98 0
0 97 0
0 97 0
0 96 0
0 97 0
0 98 0
0 97 0
0 97 0
0 98 0
0 97 0
0 97 0
0 98 0
0 96 0
0 97 0
0 98 0
0 97 0
0 97 0
0 97 0
0 96 0
0 97 0
0 98 0
0 97 0
0 97 0
0 98 0
0 97 0
0 98 0
0 98 0
0 97 0
0 97 0
0 98 0
0 97 0
0 97 0
0 98 0
0 97 0
0 96 0
0 98 0
0 96 0
0 96 0
0 98 0
0 98 0
0 98 0
0 97 0
0 98 0
0 96 0
0 98 0
0 98 0
0 97 0
0 98 0
0 97 0
0 97 0
0 97 0
0 98 0
0 97 0
0 98 0
0 97 0
0 98 0
0 98 0
0 98 0
0 98 0
0 97 0
0 98 0
0 98 0
0 97 0
0 98 0
0 97 0
0 98 0
0 98 0
0 98 0
0 97 0
0 97 0
0 98 0
0 97 0
0 98 0
0 98 0
0 97 0
0 98 0
0 98 0
0 99 0
0 99 0
0 98 0
0 98 0
0 98 0
0 98 0
0 98 0
0 97 0
0 98 0
0 97 0
0 98 0
0 99 0
0 98 0
0 98 0
0 97 0
0 98 0
0 98 0
0 97 0
0 98 0
0 98 0
0 98 0
0 98 0
0 99 0
0 97 0
0 98 0
0 98 0
0 97 0
0 98 0
0 98 0
0 98 0
0 98 0
0 98 0
0 97 0
0 98 0
0 98 0
0 98 0
0 96 0
0 97 0
0 98 0
0 97 0
0 97 0
0 98 0
0 98 0
0 98 0
0 98 0
0 99 0
0 99 0
0 95 0
0 96 0
0 98 0
0 97 0
0 98 0
0 98 0
0 98 0
0 98 0
0 96 0
0 98 0
0 97 0
0 98 0
0 96 0
0 98 0
0 97 0
0 98 0
0 97 0
0 98 0
0 98 0
0 97 0
0 98 0
0 98 0
0 98 0
0 97 0
0 98 0
0 98 0
0 98 0
0 98 0
0 97 0
0 98 0
0 97 0
0 99 0
0 99 0
0 98 0
0 97 0
0 97 0
0 95 0
0 98 0
0 98 0
0 97 0
0 97 0
0 98 0
0 97 0
0 98 0
0 96 0
0 98 0
0 98 0
0 97 0
0 97 0
0 98 0
0 98 0
0 98 0
0 97 0
0 98 0
0 98 0
0 97 0
0 98 0
0 98 0
0 97 0
0 96 0
0 98 0
0 97 0
0 98 0
0 97 0
0 97 0
0 97 0
0 97 0
0 99 0
0 98 0
0 98 0
0 98 0
0 98 0
0 98 0
0 97 0
0 97 0
0 96 0
0 95 0
0 96 0
0 96 0
0 96 0
0 97 0
0 98 0
0 96 0
0 96 0
0 96 0
0 95 0
0 97 0
0 96 0
0 96 0
0 97 0
0 98 0
0 97 0
0 96 0
0 97 0
0 98 0
0 98 0
0 97 0
0 95 0
0 95 0
0 97 0
0 96 0
0 97 0
0 96 0
0 97 0
0 95 0
0 96 0
0 98 0
0 96 0
0 96 0
0 96 0
0 96 0
0 95 0
0 95 0
0 96 0
0 97 0
0 98 0
0 95 0
0 96 0
0 97 0
0 98 0
0 95 0
0 97 0
0 96 0
0 97 0
0 94 0
0 96 0
0 97 0
0 97 0
0 96 0
0 96 0
0 95 0
0 95 0
0 96 0
0 96 0
0 96 0
0 97 0
0 96 0
0 96 0
0 97 0
0 96 0
0 96 0
0 96 0
0 96 0
0 97 0
0 97 0
0 95 0
0 95 0
0 96 0
0 95 0
0 95 0
0 96 0
0 97 0
0 96 0
0 95 0
0 95 0
0 96 0
0 96 0
0 96 0
0 97 0
0 97 0
0 97 0
0 96 0
0 98 0
0 97 0
0 96 0
0 96 0
0 97 0
0 95 0
0 96 0
0 97 0
0 96 0
0 95 0
0 93 0
0 95 0
0 98 0
0 96 0
0 96 0
0 97 0
0 95 0
0 97 0
0 96 0
0 96 0
0 97 0
0 97 0
0 96 0
0 97 0
0 98 0
0 95 0
0 96 0
0 98 0
0 95 0
0 97 0
0 95 0
0 95 0
0 98 0
0 98 0
0 97 0
0 96 0
0 96 0
0 97 0
0 96 0
0 97 0
0 96 0
0 94 0
0 98 0
0 96 0
0 97 0
0 96 0
0 95 0
0 95 0
0 97 0
0 96 0
0 97 0
0 96 0
0 95 0
0 97 0
0 96 0
0 98 0
0 96 0
0 97 0
0 94 0
0 96 0
0 95 0
0 97 0
0 98 0
0 97 0
0 96 0
0 97 0
0 97 0
0 97 0
0 97 0
0 97 0
0 96 0
0 94 0
0 96 0
0 97 0
0 96 0
0 97 0
0 94 0
0 97 0
0 98 0
0 98 0
0 98 0
0 97 0
0 97 0
0 98 0
0 98 0
0 97 0
0 95 0
0 95 0
0 97 0
0 94 0
0 96 0
0 97 0
0 98 0
0 97 0
0 96 0
0 98 0
0 98 0
0 97 0
0 97 0
0 98 0
0 97 0
0 97 0
0 96 0
0 95 0
0 98 0
0 98 0
0 98 0
0 98 0
0 98 0
0 98 0
0 98 0
0 98 0
0 95 0
0 98 0
0 97 0
0 97 0
0 98 0
0 97 0
0 97 0
0 97 0
0 97 0
0 97 0
0 96 0
0 97 0
0 98 0
0 98 0
0 98 0
0 95 0
0 98 0
0 98 0
0 97 0
0 98 0
0 97 0
0 97 0
0 97 0
0 97 0
0 97 0
0 97 0
0 97 0
0 98 0
0 97 0
0 98 0
0 97 0
0 98 0
0 98 0
0 98 0
0 98 0
0 98 0
0 97 0
0 97 0
0 97 0
0 97 0
0 97 0
0 98 0
0 98 0
0 97 0
0 98 0
0 97 0
0 98 0
0 98 0
0 97 0
0 98 0
0 98 0
0 98 0
0 97 0
0 97 0
0 98 0
0 97 0
0 98 0
0 97 0
0 98 0
0 97 0
0 98 0
0 97 0
0 98 0
0 98 0
0 98 0
0 99 0
0 98 0
0 98 0
0 98 0
0 97 0
0 97 0
0 98 0
0 97 0
0 97 0
0 98 0
0 98 0
0 97 0
0 98 0
0 97 0
0 98 0
0 98 0
0 97 0
0 98 0
0 98 0
0 99 0
0 98 0
0 98 0
0 97 0
0 98 0
0 98 0
0 98 0
0 97 0
0 98 0
0 97 0
0 97 0
0 98 0
0 98 0
0 99 0
0 98 0
0 98 0
0 98 0
0 98 0
0 98 0
0 98 0
0 98 0
0 98 0
0 98 0
0 98 0
0 97 0
0 98 0
0 98 0
0 98 0
0 98 0
0 98 0
0 98 0
0 98 0
0 97 0
0 98 0
0 99 0
0 98 0
0 97 0
0 98 0
0 97 0
0 98 0
0 98 0
0 97 0
0 98 0
0 99 0
0 98 0
0 97 0
0 97 0
0 98 0
0 98 0
0 98 0
0 98 0
0 97 0
0 97 0
0 98 0
0 97 0
0 97 0
0 98 0
0 97 0
0 98 0
0 98 0
0 99 0
0 97 0
0 97 0
0 96 0
0 98 0
0 97 0
0 96 0
0 97 0
0 98 0
0 97 0
0 98 0
0 97 0
0 99 0
0 98 0
0 97 0
0 97 0
0 99 0
0 97 0
0 98 0
0 98 0
0 97 0
0 98 0
0 97 0
0 97 0
0 99 0
0 97 0
0 98 0
0 98 0
0 97 0
0 98 0
0 99 0
0 98 0
0 97 0
0 96 0
0 97 0
0 96 0
0 98 0
0 97 0
0 97 0
0 97 0
0 96 0
0 97 0
0 96 0
0 96 0
0 97 0
0 96 0
0 97 0
0 98 0
0 97 0
0 97 0
0 98 0
0 97 0
0 98 0
0 96 0
0 97 0
0 95 0
0 97 0
0 96 0
0 97 0
0 98 0
0 96 0
0 97 0
0 97 0
0 98 0
0 96 0
0 97 0
0 97 0
0 97 0
0 97 0
0 97 0
0 97 0
0 98 0
0 97 0
0 98 0
0 96 0
0 96 0
0 96 0
0 99 0
0 96 0
0 98 0
0 98 0
0 97 0
0 95 0
0 97 0
0 96 0
0 98 0
0 97 0
0 97 0
0 93 0
0 97 0
0 97 0
0 96 0
0 97 0
0 95 0
0 95 0
0 95 0
0 97 0
0 95 0
0 96 0
0 97 0
0 96 0
0 98 0
0 95 0
0 97 0
0 97 0
0 97 0
0 95 0
0 94 0
0 97 0
0 97 0
0 97 0
0 97 0
0 97 0
0 97 0
0 97 0
0 96 0
0 96 0
0 95 0
0 95 0
0 95 0
0 97 0
0 97 0
0 95 0
0 96 0
0 97 0
0 97 0
0 95 0
0 97 0
0 96 0
0 97 0
0 98 0
0 96 0
0 97 0
0 96 0
0 97 0
0 95 0
0 97 0
0 96 0
0 97 0
0 97 0
0 96 0
0 95 0
0 95 0
0 97 0
0 96 0
0 95 0
0 95 0
0 97 0
0 97 0
0 97 0
0 97 0
0 96 0
0 96 0
0 97 0
0 98 0
0 96 0
0 96 0
0 97 0
0 95 0
0 97 0
0 96 0
0 93 0
0 96 0
0 97 0
0 97 0
0 95 0
0 97 0
0 97 0
0 96 0
0 94 0
0 93 0
0 95 0
0 96 0
0 98 0
0 96 0
0 96 0
0 96 0
0 95 0
0 94 0
0 96 0
0 95 0
0 94 0
0 96 0
0 96 0
0 97 0
0 95 0
0 98 0
0 96 0
0 97 0
0 95 0
0 96 0
0 96 0
0 97 0
0 96 0
0 95 0
0 97 0
0 96 0
0 96 0
0 96 0
0 98 0
0 96 0
0 96 0
0 98 0
0 96 0
0 96 0
0 96 0
0 96 0
0 98 0
0 96 0
0 96 0
0 97 0
0 96 0
0 96 0
0 96 0
0 98 0
0 97 0
0 97 0
0 95 0
0 96 0
0 96 0
0 95 0
0 95 0
0 97 0
0 97 0
0 96 0
0 97 0
0 97 0
0 96 0
0 98 0
0 98 0
0 96 0
0 97 0
0 96 0
0 97 0
0 97 0
0 96 0
0 97 0
0 96 0
0 96 0
0 97 0
0 97 0
0 98 0
0 97 0
0 97 0
0 96 0
0 96 0
0 96 0
0 97 0
0 97 0
0 96 0
0 94 0
0 99 0
0 97 0
0 96 0
0 97 0
0 98 0
0 98 0
0 97 0
0 97 0
0 98 0
0 97 0
0 98 0
0 96 0
0 97 0
0 97 0
0 97 0
0 97 0
0 98 0
0 97 0
0 98 0
0 98 0
0 95 0
0 97 0
0 99 0
0 98 0
0 97 0
0 97 0
0 98 0
0 96 0
0 97 0
0 98 0
0 97 0
0 97 0
0 98 0
0 97 0
0 98 0
0 98 0
0 97 0
0 98 0
0 97 0
0 97 0
0 98 0
0 97 0
0 98 0
0 98 0
0 99 0
0 98 0
0 97 0
0 96 0
0 98 0
0 98 0
0 97 0
0 98 0
0 96 0
0 98 0
0 98 0
0 96 0
0 97 0
0 97 0
0 98 0
0 98 0
0 98 0
0 96 0
0 97 0
0 98 0
0 98 0
0 98 0
0 98 0
0 97 0
0 97 0
0 98 0
0 97 0
0 98 0
0 98 0
0 98 0
0 97 0
0 97 0
0 97 0
0 98 0
0 99 0
0 98 0
0 98 0
0 97 0
0 98 0
0 96 0
0 97 0
0 98 0
0 96 0
0 97 0
0 98 0
0 98 0
0 97 0
0 97 0
0 97 0
0 98 0
0 97 0
0 98 0
0 99 0
0 97 0
0 96 0
0 99 0
0 98 0
0 99 0
0 97 0
0 98 0
0 98 0
0 97 0
0 97 0
0 98 0
0 98 0
0 97 0
0 99 0
0 97 0
0 98 0
0 98 0
0 98 0
0 98 0
0 99 0
0 98 0
0 97 0
0 97 0
0 98 0
0 98 0
0 98 0
0 98 0
0 98 0
0 98 0
0 99 0
0 98 0
0 98 0
0 98 0
0 99 0
0 98 0
0 98 0
0 98 0
0 98 0
0 97 0
0 98 0
0 98 0
0 98 0
0 98 0
0 97 0
0 98 0
0 98 0
0 98 0
0 97 0
0 98 0
0 98 0
0 98 0
0 97 0
0 97 0
0 98 0
0 98 0
0 98 0
0 98 0
0 98 0
0 97 0
0 96 0
0 98 0
0 98 0
0 98 0
0 98 0
0 97 0
0 99 0
0 98 0
0 97 0
0 98 0
0 97 0
0 97 0
0 97 0
0 98 0
0 98 0
0 96 0
0 98 0
0 98 0
0 97 0
0 96 0
0 98 0
0 98 0
0 98 0
0 97 0
0 98 0
0 98 0
0 98 0
0 97 0
0 97 0
0 98 0
0 99 0
0 98 0
0 98 0
0 97 0
0 96 0
0 97 0
0 96 0
0 98 0
0 97 0
0 97 0
0 97 0
0 97 0
0 98 0
0 98 0
0 97 0
0 98 0
0 98 0
0 98 0
0 97 0
0 96 0
0 96 0
0 97 0
0 97 0
0 98 0
0 97 0
0 97 0
0 96 0
0 96 0
0 97 0
0 97 0
0 98 0
0 96 0
0 97 0
0 97 0
0 96 0
0 97 0
0 95 0
0 96 0
0 95 0
0 96 0
0 97 0
0 98 0
0 97 0
0 96 0
0 96 0
0 97 0
0 96 0
0 97 0
0 97 0
0 96 0
0 97 0
0 97 0
0 97 0
0 95 0
0 97 0
0 97 0
0 98 0
0 95 0
0 96 0
0 95 0
0 97 0
0 95 0
0 98 0
0 97 0
0 95 0
0 97 0
0 95 0
0 97 0
0 95 0
0 94 0
0 95 0
0 96 0
0 98 0
0 96 0
0 96 0
0 96 0
0 94 0
0 95 0
0 97 0
0 97 0
0 99 0
0 97 0
0 97 0
0 95 0
0 94 0
0 97 0
0 97 0
0 97 0
0 97 0
0 97 0
0 97 0
0 96 0
0 97 0
0 95 0
0 95 0
0 95 0
0 95 0
0 97 0
0 97 0
0 96 0
0 96 0
0 96 0
0 96 0
0 96 0
0 95 0
0 97 0
0 96 0
0 96 0
0 98 0
0 95 0
0 96 0
0 97 0
0 94 0
0 96 0
0 96 0
0 95 0
0 97 0
0 95 0
0 96 0
0 96 0
0 96 0
0 95 0
0 94 0
0 97 0
0 96 0
0 97 0
0 97 0
0 98 0
0 97 0
0 96 0
0 97 0
0 97 0
0 94 0
0 95 0
0 95 0
0 95 0
0 97 0
0 96 0
0 96 0
0 96 0
0 96 0
0 95 0
0 95 0
0 97 0
0 98 0
0 96 0
0 97 0
0 96 0
0 98 0
0 98 0
0 96 0
0 98 0
0 96 0
0 99 0
0 97 0
0 96 0
0 96 0
0 96 0
0 97 0
0 97 0
0 97 0
0 95 0
0 96 0
0 95 0
0 95 0
0 97 0
0 97 0
0 97 0
0 97 0
0 97 0
0 98 0
0 96 0
0 97 0
0 96 0
0 97 0
0 97 0
0 98 0
0 96 0
0 97 0
0 98 0
0 96 0
0 97 0
0 97 0
0 97 0
0 97 0
0 96 0
0 97 0
0 98 0
0 97 0
0 97 0
0 97 0
0 97 0
0 95 0
0 95 0
0 96 0
0 97 0
0 98 0
0 97 0
0 97 0
0 96 0
0 97 0
0 97 0
0 97 0
0 96 0
0 97 0
0 99 0
0 97 0
0 96 0
0 97 0
0 97 0
0 96 0
0 98 0
0 97 0
0 97 0
0 98 0
0 98 0
0 97 0
0 97 0
0 97 0
0 97 0
0 97 0
0 98 0
0 98 0
0 98 0
0 97 0
0 97 0
0 97 0
0 98 0
0 95 0
0 98 0
0 97 0
0 97 0
0 98 0
0 98 0
0 98 0
0 98 0
0 98 0
0 98 0
0 96 0
0 97 0
0 97 0
0 97 0
0 96 0
0 98 0
0 98 0
0 98 0
0 98 0
0 98 0
0 97 0
0 98 0
0 97 0
0 97 0
0 98 0
0 98 0
0 98 0
0 97 0
0 98 0
0 99 0
0 98 0
0 96 0
0 96 0
0 97 0
0 97 0
0 97 0
0 98 0
0 98 0
0 97 0
0 96 0
0 98 0
0 97 0
0 97 0
0 98 0
0 99 0
0 97 0
0 99 0
0 98 0
0 98 0
0 97 0
0 99 0
0 97 0
0 97 0
0 98 0
0 99 0
0 97 0
0 97 0
0 96 0
0 98 0
0 96 0
0 98 0
0 97 0
0 98 0
0 98 0
0 99 0
0 98 0
0 99 0
0 98 0
0 97 0
0 97 0
0 97 0
0 98 0
0 98 0
0 98 0
0 98 0
0 97 0
0 97 0
0 99 0
0 98 0
0 97 0
0 98 0
0 98 0
0 98 0
0 98 0
0 98 0
0 97 0
0 96 0
0 97 0
0 98 0
0 97 0
0 96 0
0 99 0
0 98 0
0 98 0
0 99 0
0 98 0
0 98 0
0 98 0
0 98 0
0 98 0
0 98 0
0 98 0
0 98 0
0 96 0
0 98 0
0 98 0
0 98 0
0 98 0
0 97 0
0 97 0
0 98 0
0 98 0
0 97 0
0 98 0
0 98 0
0 99 0
0 98 0
0 98 0
0 98 0
0 98 0
0 99 0
0 98 0
0 98 0
0 97 0
0 97 0
0 97 0
0 98 0
0 97 0
0 98 0
0 97 0
0 98 0
0 97 0
0 98 0
0 99 0
0 97 0
0 98 0
0 98 0
0 99 0
0 98 0
0 98 0
0 97 0
0 98 0
0 97 0
0 97 0
0 97 0
0 98 0
0 97 0
0 98 0
0 98 0
0 98 0
0 99 0
0 98 0
0 98 0
0 98 0
0 97 0
0 97 0
0 98 0
0 97 0
0 97 0
0 97 0
0 97 0
0 98 0
0 98 0
0 98 0
0 97 0
0 97 0
0 97 0
0 98 0
0 97 0
0 96 0
0 98 0
0 98 0
0 97 0
0 99 0
0 96 0
0 98 0
0 98 0
0 97 0
0 96 0
0 99 0
0 97 0
0 98 0
0 97 0
0 96 0
0 98 0
0 98 0
0 98 0
0 96 0
0 97 0
0 97 0
0 96 0
0 97 0
0 98 0
0 97 0
0 97 0
0 96 0
0 97 0
0 97 0
0 98 0
0 96 0
0 97 0
0 96 0
0 98 0
0 96 0
0 96 0
0 98 0
0 96 0
0 97 0
0 96 0
0 96 0
0 96 0
0 96 0
0 97 0
0 97 0
0 96 0
0 97 0
0 97 0
0 97 0
0 96 0
0 96 0
0 96 0
0 97 0
0 97 0
0 97 0
0 96 0
0 95 0
0 98 0
0 97 0
0 97 0
0 97 0
0 95 0
0 98 0
0 96 0
0 96 0
0 96 0
0 97 0
0 94 0
0 98 0
0 97 0
0 95 0
0 96 0
0 95 0
0 97 0
0 97 0
0 98 0
0 94 0
0 98 0
0 97 0
0 97 0
0 97 0
0 96 0
0 96 0
0 96 0
0 95 0
0 97 0
0 97 0
0 96 0
0 96 0
0 96 0
0 97 0
0 96 0
0 97 0
0 97 0
0 97 0
0 95 0
0 95 0
0 97 0
0 97 0
0 97 0
0 97 0
0 97 0
0 95 0
0 95 0
0 97 0
0 95 0
0 97 0
0 97 0
0 97 0
0 96 0
0 95 0
0 96 0
0 96 0
0 97 0
0 96 0
0 98 0
0 99 0
0 96 0
0 96 0
0 97 0
0 98 0
0 96 0
0 96 0
0 97 0
0 96 0
0 96 0
0 96 0
0 95 0
0 97 0
0 97 0
0 97 0
0 95 0
0 95 0
0 97 0
0 96 0
0 95 0
0 96 0
0 98 0
0 97 0
0 95 0
0 96 0
0 97 0
0 98 0
0 95 0
0 96 0
0 98 0
0 97 0
0 96 0
0 96 0
0 97 0
0 97 0
0 94 0
0 97 0
0 98 0
0 97 0
0 97 0
0 96 0
0 95 0
0 97 0
0 97 0
0 95 0
0 96 0
0 98 0
0 97 0
0 96 0
0 96 0
0 96 0
0 96 0
0 98 0
0 97 0
0 97 0
0 97 0
0 98 0
0 97 0
0 98 0
0 97 0
0 97 0
0 97 0
0 94 0
0 97 0
0 97 0
0 97 0
0 98 0
0 97 0
0 98 0
0 95 0
0 97 0
0 95 0
0 97 0
0 97 0
0 97 0
0 96 0
0 97 0
0 98 0
0 98 0
0 98 0
0 96 0
0 97 0
0 98 0
0 98 0
0 97 0
0 99 0
0 98 0
0 98 0
0 96 0
0 99 0
0 96 0
0 96 0
0 98 0
0 97 0
0 97 0
0 98 0
0 97 0
0 97 0
0 97 0
0 97 0
0 98 0
0 95 0
0 97 0
0 95 0
0 96 0
0 97 0
0 98 0
0 97 0
0 98 0
0 98 0
0 97 0
0 97 0
0 97 0
0 98 0
0 97 0
0 95 0
0 97 0
0 97 0
0 97 0
0 96 0
0 97 0
0 97 0
0 98 0
0 97 0
0 97 0
0 98 0
0 98 0
0 97 0
0 97 0
0 96 0
0 98 0
0 96 0
0 98 0
0 97 0
0 98 0
0 98 0
0 97 0
0 95 0
0 98 0
0 97 0
0 99 0
0 97 0
0 97 0
0 97 0
0 97 0
0 97 0
0 97 0
0 97 0
0 97 0
0 98 0
0 96 0
0 97 0
0 97 0
0 97 0
0 96 0
0 98 0
0 96 0
0 98 0
0 99 0
0 98 0
0 98 0
0 97 0
0 98 0
0 97 0
0 98 0
0 96 0
0 97 0
0 98 0
0 97 0
0 98 0
0 97 0
0 99 0
0 98 0
0 97 0
0 98 0
0 98 0
0 97 0
0 98 0
0 98 0
0 98 0
0 98 0
0 98 0
0 98 0
0 96 0
0 98 0
0 97 0
0 98 0
0 97 0
0 98 0
0 98 0
0 99 0
0 98 0
0 98 0
0 97 0
0 97 0
0 98 0
0 97 0
0 98 0
0 97 0
0 98 0
0 97 0
0 99 0
0 98 0
0 98 0
0 98 0
0 98 0
0 98 0
0 99 0
0 98 0
0 97 0
0 98 0
0 97 0
0 97 0
0 98 0
0 98 0
0 97 0
0 97 0
0 97 0
0 99 0
0 98 0
0 97 0
0 96 0
0 98 0
0 97 0
0 98 0
0 99 0
0 97 0
0 97 0
0 97 0
0 98 0
0 98 0
0 97 0
0 97 0
0 98 0
0 98 0
0 97 0
0 98 0
0 98 0
0 98 0
0 98 0
0 98 0
0 97 0
0 98 0
0 97 0
0 97 0
0 98 0
0 98 0
0 98 0
0 99 0
0 98 0
0 97 0
0 98 0
0 97 0
0 98 0
0 97 0
0 98 0
0 97 0
0 97 0
0 97 0
0 98 0
0 97 0
0 98 0
0 98 0
0 97 0
0 98 0
0 97 0
0 99 0
0 97 0
0 96 0
0 97 0
0 98 0
0 97 0
0 98 0
0 98 0
0 97 0
0 97 0
0 97 0
0 97 0
0 98 0
0 97 0
0 98 0
0 97 0
0 98 0
0 97 0
0 98 0
0 98 0
0 96 0
0 96 0
0 96 0
0 97 0
0 97 0
0 98 0
0 96 0
0 98 0
0 96 0
0 96 0
0 97 0
0 96 0
0 98 0
0 97 0
0 97 0
0 97 0
0 97 0
0 97 0
0 97 0
0 96 0
0 98 0
0 97 0
0 97 0
0 98 0
0 97 0
0 98 0
0 98 0
0 97 0
0 96 0
0 98 0
0 97 0
0 97 0
0 98 0
0 98 0
0 95 0
0 98 0
0 98 0
0 98 0
0 98 0
0 97 0
0 98 0
0 94 0
0 96 0
0 97 0
0 98 0
0 98 0
0 96 0
0 96 0
0 97 0
0 99 0
0 97 0
0 97 0
0 97 0
0 98 0
0 98 0
0 96 0
0 97 0
0 98 0
0 97 0
0 98 0
0 96 0
0 96 0
0 97 0
0 97 0
0 97 0
0 94 0
0 95 0
0 98 0
0 95 0
0 95 0
0 96 0
0 98 0
0 97 0
0 96 0
0 96 0
0 92 0
0 97 0
0 97 0
0 97 0
0 94 0
0 98 0
0 96 0
0 96 0
0 97 0
0 96 0
0 97 0
0 97 0
0 97 0
0 95 0
0 98 0
0 96 0
0 98 0
0 96 0
0 95 0
0 96 0
0 97 0
0 96 0
0 96 0
0 96 0
0 97 0
0 97 0
0 97 0
0 96 0
0 96 0
0 96 0
0 96 0
0 97 0
0 96 0
0 95 0
0 95 0
0 97 0
0 97 0
0 97 0
0 96 0
0 97 0
0 97 0
0 97 0
0 96 0
0 97 0
0 95 0
0 96 0
0 97 0
0 95 0
0 96 0
0 98 0
0 97 0
0 95 0
0 94 0
0 95 0
0 95 0
0 95 0
0 96 0
0 96 0
0 96 0
0 96 0
0 97 0
0 98 0
0 98 0
0 96 0
0 98 0
0 98 0
0 96 0
0 96 0
0 97 0
0 96 0
0 97 0
0 96 0
0 96 0
0 95 0
0 97 0
0 97 0
0 95 0
0 95 0
0 97 0
0 96 0
0 98 0
0 95 0
0 97 0
0 97 0
0 97 0
0 95 0
0 98 0
0 97 0
0 96 0
0 98 0
0 96 0
0 94 0
0 96 0
0 97 0
0 98 0
0 97 0
0 97 0
0 98 0
0 96 0
0 97 0
0 97 0
0 97 0
0 95 0
0 96 0
0 97 0
0 97 0
0 98 0
0 96 0
0 96 0
0 97 0
0 98 0
0 97 0
0 98 0
0 97 0
0 96 0
0 96 0
0 96 0
0 97 0
0 98 0
0 97 0
0 98 0
0 98 0
0 96 0
0 97 0
0 98 0
0 96 0
0 97 0
0 97 0
0 97 0
0 96 0
0 97 0
0 97 0
0 97 0
0 96 0
0 97 0
0 97 0
0 98 0
0 98 0
0 96 0
0 99 0
0 96 0
0 97 0
0 98 0
0 97 0
0 97 0
0 97 0
0 97 0
0 98 0
0 97 0
0 97 0
0 98 0
0 98 0
0 96 0
0 98 0
0 97 0
0 98 0
0 97 0
0 96 0
0 98 0
0 97 0
0 98 0
0 96 0
0 99 0
0 97 0
0 99 0
0 97 0
0 97 0
0 97 0
0 97 0
0 97 0
0 97 0
0 96 0
0 98 0
0 98 0
0 98 0
0 98 0
0 98 0
0 97 0
0 97 0
0 98 0
0 97 0
0 97 0
0 98 0
0 97 0
0 98 0
0 96 0
0 98 0
0 97 0
0 97 0
0 97 0
0 98 0
0 97 0
0 95 0
0 98 0
0 98 0
0 98 0
0 97 0
0 98 0
0 98 0
0 97 0
0 97 0
0 98 0
0 97 0
0 99 0
0 96 0
0 97 0
0 98 0
0 98 0
0 98 0
0 98 0
0 99 0
0 98 0
0 97 0
0 98 0
0 97 0
0 97 0
0 98 0
0 99 0
0 98 0
0 98 0
0 98 0
0 98 0
0 98 0
0 98 0
0 98 0
0 99 0
0 99 0
0 98 0
0 98 0
0 98 0
0 98 0
0 98 0
0 97 0
0 97 0
0 98 0
0 97 0
0 96 0
0 97 0
0 98 0
0 98 0
0 99 0
0 97 0
0 97 0
0 97 0
0 98 0
0 97 0
0 98 0
0 98 0
0 98 0
0 98 0
0 98 0
0 98 0
0 98 0
0 98 0
0 99 0
0 97 0
0 97 0
0 98 0
0 97 0
0 98 0
0 97 0
0 97 0
0 98 0
0 98 0
0 97 0
0 97 0
0 98 0
0 98 0
0 98 0
0 98 0
0 98 0
0 97 0
0 97 0
0 98 0
0 97 0
0 97 0
0 97 0
0 98 0
0 97 0
0 98 0
0 98 0
0 98 0
0 98 0
0 98 0
0 98 0
0 98 0
0 97 0
0 99 0
0 98 0
0 97 0
0 97 0
0 98 0
0 98 0
0 98 0
0 98 0
0 97 0
0 97 0
0 97 0
0 97 0
0 98 0
0 98 0
0 99 0
0 97 0
0 97 0
0 97 0
0 97 0
0 98 0
0 99 0
0 98 0
0 98 0
0 96 0
0 96 0
0 96 0
0 97 0
0 98 0
0 98 0
0 99 0
0 97 0
0 97 0
0 98 0
0 97 0
0 97 0
0 98 0
0 97 0
0 97 0
0 98 0
0 98 0
0 97 0
0 98 0
0 97 0
0 96 0
0 98 0
0 98 0
0 98 0
0 97 0
0 96 0
0 98 0
0 96 0
0 96 0
0 96 0
0 97 0
0 97 0
0 97 0
0 96 0
0 98 0
0 97 0
0 97 0
0 97 0
0 96 0
0 96 0
0 97 0
0 97 0
0 97 0
0 96 0
0 97 0
0 97 0
0 95 0
0 95 0
0 98 0
0 96 0
0 95 0
0 97 0
0 97 0
0 97 0
0 97 0
0 95 0
0 96 0
0 96 0
0 97 0
0 97 0
0 97 0
0 98 0
0 96 0
0 97 0
0 97 0
0 97 0
0 97 0
0 96 0
0 95 0
0 97 0
0 97 0
0 97 0
0 97 0
0 95 0
0 96 0
0 97 0
0 97 0
0 95 0
0 97 0
0 96 0
0 96 0
0 97 0
0 94 0
0 97 0
0 98 0
0 98 0
0 96 0
0 95 0
0 97 0
0 95 0
0 97 0
0 96 0
0 97 0
0 95 0
0 98 0
0 95 0
0 95 0
0 97 0
0 97 0
0 96 0
0 98 0
0 98 0
0 95 0
0 95 0
0 97 0
0 96 0
0 98 0
0 97 0
0 95 0
0 98 0
0 95 0
0 97 0
0 98 0
0 95 0
0 96 0
0 96 0
0 96 0
0 97 0
0 97 0
0 97 0
0 96 0
0 97 0
0 96 0
0 98 0
0 96 0
0 96 0
0 95 0
0 97 0
0 97 0
0 98 0
0 97 0
0 95 0
0 97 0
0 97 0
0 97 0
0 96 0
0 97 0
0 96 0
0 97 0
0 94 0
0 97 0
0 98 0
0 96 0
0 96 0
0 94 0
0 95 0
0 97 0
0 96 0
0 98 0
0 95 0
0 96 0
0 96 0
0 96 0
0 96 0
0 96 0
0 97 0
0 97 0
0 95 0
0 96 0
0 97 0
0 97 0
0 97 0
0 98 0
0 95 0
0 98 0
0 97 0
0 97 0
0 95 0
0 94 0
0 97 0
0 95 0
0 97 0
0 98 0
0 98 0
0 96 0
0 97 0
0 98 0
0 98 0
0 95 0
0 97 0
0 98 0
0 97 0
0 96 0
0 96 0
0 97 0
0 96 0
0 96 0
0 97 0
0 94 0
0 97 0
0 96 0
0 95 0
0 96 0
0 97 0
0 96 0
0 96 0
0 97 0
0 97 0
0 96 0
0 97 0
0 97 0
0 97 0
0 98 0
0 96 0
0 94 0
0 97 0
0 97 0
0 98 0
0 98 0
0 96 0
0 98 0
0 96 0
0 96 0
0 97 0
0 95 0
0 97 0
0 96 0
0 97 0
0 97 0
0 97 0
0 97 0
0 96 0
0 97 0
0 97 0
0 97 0
0 97 0
0 98 0
0 97 0
0 98 0
0 98 0
0 98 0
0 97 0
0 98 0
0 97 0
0 97 0
0 98 0
0 98 0
0 97 0
0 98 0
0 97 0
0 98 0
0 98 0
0 98 0
0 97 0
0 97 0
0 97 0
0 97 0
0 98 0
0 98 0
0 98 0
0 98 0
0 98 0
0 98 0
0 98 0
0 96 0
0 97 0
0 98 0
0 95 0
0 99 0
0 98 0
0 98 0
0 97 0
0 97 0
0 98 0
0 98 0
0 97 0
0 98 0
0 97 0
0 98 0
0 96 0
0 98 0
0 96 0
0 96 0
0 96 0
0 97 0
0 97 0
0 97 0
0 97 0
0 97 0
0 97 0
0 97 0
0 98 0
0 97 0
0 98 0
0 97 0
0 98 0
0 97 0
0 97 0
0 99 0
0 97 0
0 97 0
0 98 0
0 97 0
0 98 0
0 98 0
0 97 0
0 98 0
0 97 0
0 97 0
0 98 0
0 98 0
0 98 0
0 97 0
0 98 0
0 98 0
0 98 0
0 98 0
0 98 0
0 98 0
0 97 0
0 98 0
0 98 0
0 98 0
0 97 0
0 98 0
0 98 0
0 96 0
0 97 0
0 97 0
0 98 0
0 98 0
0 99 0
0 98 0
0 98 0
0 97 0
0 97 0
0 98 0
0 98 0
0 98 0
0 99 0
0 97 0
0 98 0
0 99 0
0 97 0
0 97 0
0 98 0
0 98 0
0 98 0
0 99 0
0 96 0
0 97 0
0 98 0
0 97 0
0 98 0
0 97 0
0 98 0
0 97 0
0 98 0
0 96 0
0 98 0
0 98 0
0 98 0
0 97 0
0 98 0
0 99 0
0 98 0
0 97 0
0 98 0
0 98 0
0 97 0
0 96 0
0 98 0
0 98 0
0 98 0
0 98 0
0 98 0
0 97 0
0 98 0
0 98 0
0 98 0
0 98 0
0 98 0
0 98 0
0 98 0
0 98 0
0 98 0
0 96 0
0 97 0
0 97 0
0 98 0
0 98 0
0 99 0
0 98 0
0 98 0
0 98 0
0 98 0
0 97 0
0 96 0
0 98 0
0 96 0
0 98 0
0 97 0
0 98 0
0 96 0
0 98 0
0 98 0
0 98 0
0 98 0
0 97 0
0 98 0
0 97 0
0 98 0
0 98 0
0 97 0
0 97 0
0 99 0
0 98 0
0 98 0
0 96 0
0 97 0
0 98 0
0 97 0
0 97 0
0 96 0
0 98 0
0 98 0
0 98 0
0 97 0
0 99 0
0 97 0
0 98 0
0 97 0
0 97 0
0 98 0
0 96 0
0 98 0
0 97 0
0 97 0
0 96 0
0 96 0
0 97 0
0 97 0
0 96 0
0 97 0
0 97 0
0 97 0
0 98 0
0 97 0
0 98 0
0 98 0
0 97 0
0 98 0
0 96 0
0 97 0
0 96 0
0 98 0
0 97 0
0 98 0
0 98 0
0 96 0
0 98 0
0 98 0
0 98 0
0 97 0
0 97 0
0 97 0
0 97 0
0 95 0
0 97 0
0 96 0
0 96 0
0 95 0
0 96 0
0 97 0
0 96 0
0 96 0
0 95 0
0 97 0
0 97 0
0 98 0
0 98 0
0 96 0
0 98 0
0 98 0
0 96 0
0 95 0
0 97 0
0 94 0
0 96 0
0 96 0
0 97 0
0 95 0
0 97 0
0 97 0
0 95 0
0 97 0
0 96 0
0 95 0
0 96 0
0 97 0
0 96 0
0 98 0
0 98 0
0 97 0
0 97 0
0 97 0
0 98 0
0 97 0
0 96 0
0 94 0
0 95 0
0 97 0
0 95 0
0 96 0
0 99 0
0 97 0
0 97 0
0 97 0
0 97 0
0 94 0
0 97 0
0 96 0
0 96 0
0 98 0
0 95 0
0 97 0
0 96 0
0 95 0
0 96 0
0 96 0
0 94 0
0 96 0
0 97 0
0 98 0
0 97 0
0 96 0
0 98 0
0 96 0
0 96 0
0 96 0
0 98 0
0 97 0
0 98 0
0 96 0
0 94 0
0 98 0
0 98 0
0 97 0
0 96 0
0 96 0
0 96 0
0 95 0
0 98 0
0 98 0
0 97 0
0 98 0
0 96 0
0 97 0
0 97 0
0 96 0
0 97 0
0 97 0
0 96 0
0 96 0
0 95 0
0 97 0
0 96 0
0 95 0
0 96 0
0 98 0
0 96 0
0 97 0
0 97 0
0 97 0
0 96 0
0 97 0
0 98 0
0 97 0
0 98 0
0 98 0
0 96 0
0 98 0
0 98 0
0 97 0
0 96 0
0 97 0
0 96 0
0 97 0
0 96 0
0 96 0
0 98 0
0 97 0
0 97 0
0 96 0
0 96 0
0 96 0
0 96 0
0 97 0
0 96 0
0 94 0
0 97 0
0 96 0
0 98 0
0 97 0
0 97 0
0 96 0
0 96 0
0 96 0
0 97 0
0 97 0
0 97 0
0 97 0
0 96 0
0 97 0
0 96 0
0 96 0
0 97 0
0 97 0
0 95 0
0 96 0
0 97 0
0 97 0
0 95 0
0 98 0
0 97 0
0 97 0
0 97 0
0 97 0
0 98 0
0 97 0
0 96 0
0 98 0
0 95 0
0 96 0
0 97 0
0 96 0
0 97 0
0 97 0
0 98 0
0 97 0
0 97 0
0 97 0
0 97 0
0 97 0
0 98 0
0 98 0
0 95 0
0 97 0
0 96 0
0 97 0
0 97 0
0 97 0
0 96 0
0 97 0
0 97 0
0 97 0
0 97 0
0 98 0
0 98 0
0 97 0
0 97 0
0 97 0
0 96 0
0 98 0
0 98 0
0 98 0
0 98 0
0 98 0
0 97 0
0 97 0
0 97 0
0 97 0
0 97 0
0 97 0
0 98 0
0 97 0
0 98 0
0 98 0
0 98 0
0 97 0
0 97 0
0 97 0
0 98 0
0 97 0
0 98 0
0 99 0
0 98 0
0 97 0
0 98 0
0 98 0
0 98 0
0 98 0
0 98 0
0 95 0
0 98 0
0 98 0
0 98 0
0 96 0
0 99 0
0 97 0
0 99 0
0 98 0
0 98 0
0 98 0
0 98 0
0 99 0
0 96 0
0 98 0
0 98 0
0 98 0
0 98 0
0 98 0
0 97 0
0 98 0
0 98 0
0 98 0
0 98 0
0 98 0
0 98 0
0 97 0
0 98 0
0 98 0
0 97 0
0 97 0
0 99 0
0 98 0
0 98 0
0 97 0
0 97 0
0 97 0
0 98 0
0 97 0
0 98 0
0 97 0
0 97 0
0 98 0
0 96 0
0 97 0
0 97 0
0 97 0
0 97 0
0 98 0
0 98 0
0 98 0
0 99 0
0 96 0
0 99 0
0 98 0
0 98 0
0 99 0
0 97 0
0 98 0
0 98 0
0 97 0
0 96 0
0 98 0
0 98 0
0 98 0
0 97 0
0 98 0
0 98 0
0 98 0
0 98 0
0 98 0
0 98 0
0 97 0
0 97 0
0 99 0
0 98 0
0 97 0
0 97 0
0 98 0
0 98 0
0 98 0
0 98 0
0 97 0
0 97 0
0 98 0
0 97 0
0 97 0
0 97 0
0 98 0
0 98 0
0 96 0
0 98 0
0 98 0
0 97 0
0 99 0
0 96 0
0 97 0
0 98 0
0 98 0
0 98 0
0 97 0
0 97 0
0 96 0
0 96 0
0 96 0
0 97 0
0 96 0
0 98 0
0 99 0
0 97 0
0 97 0
0 98 0
0 97 0
0 97 0
0 97 0
0 97 0
0 98 0
0 97 0
0 98 0
0 98 0
0 98 0
0 98 0
0 98 0
0 95 0
0 97 0
0 98 0
0 98 0
0 96 0
0 98 0
0 99 0
0 98 0
0 98 0
0 98 0
0 98 0
0 96 0
0 95 0
0 98 0
0 95 0
0 98 0
0 97 0
0 98 0
0 98 0
0 96 0
0 98 0
0 98 0
0 97 0
0 98 0
0 97 0
0 95 0
0 96 0
0 97 0
0 97 0
0 97 0
0 97 0
0 96 0
0 97 0
0 97 0
0 96 0
0 97 0
0 96 0
0 96 0
0 97 0
0 97 0
0 97 0
0 96 0
0 97 0
0 97 0
0 96 0
0 97 0
0 96 0
0 96 0
0 96 0
0 97 0
0 97 0
0 97 0
0 95 0
0 95 0
0 97 0
0 97 0
0 97 0
0 99 0
0 97 0
0 98 0
0 97 0
0 95 0
0 97 0
0 95 0
0 98 0
0 97 0
0 96 0
0 97 0
0 97 0
0 96 0
0 96 0
0 96 0
0 95 0
0 97 0
0 98 0
0 96 0
0 98 0
0 96 0
0 95 0
0 96 0
0 98 0
0 97 0
0 97 0
0 97 0
0 97 0
0 97 0
0 96 0
0 97 0
0 98 0
0 97 0
0 97 0
0 97 0
0 95 0
0 96 0
0 95 0
0 97 0
0 97 0
0 96 0
0 98 0
0 97 0
0 97 0
0 96 0
0 97 0
0 98 0
0 96 0
0 96 0
0 97 0
0 97 0
0 97 0
0 98 0
0 98 0
0 95 0
0 96 0
0 96 0
0 96 0
0 95 0
0 96 0
0 96 0
0 97 0
0 98 0
0 95 0
0 96 0
0 97 0
0 96 0
0 96 0
0 97 0
0 97 0
0 96 0
0 97 0
0 97 0
0 96 0
0 96 0
0 96 0
0 95 0
0 98 0
0 97 0
0 95 0
0 96 0
0 96 0
0 98 0
0 97 0
0 98 0
0 98 0
0 97 0
0 98 0
0 96 0
0 97 0
0 97 0
0 95 0
0 96 0
0 96 0
0 98 0
0 98 0
0 97 0
0 97 0
0 96 0
0 97 0
0 97 0
0 95 0
0 97 0
0 97 0
0 97 0
0 97 0
0 98 0
0 97 0
0 97 0
0 97 0
0 98 0
0 96 0
0 98 0
0 96 0
0 98 0
0 97 0
0 97 0
0 96 0
0 96 0
0 95 0
0 98 0
0 96 0
0 96 0
0 97 0
0 96 0
0 97 0
0 96 0
0 96 0
0 97 0
0 95 0
0 96 0
0 96 0
0 98 0
0 97 0
0 97 0
0 98 0
0 98 0
0 96 0
0 96 0
0 96 0
0 95 0
0 97 0
0 97 0
0 97 0
0 98 0
0 96 0
0 96 0
0 96 0
0 96 0
0 98 0
0 97 0
0 97 0
0 95 0
0 97 0
0 97 0
0 97 0
0 97 0
0 98 0
0 99 0
0 97 0
0 97 0
0 97 0
0 96 0
0 97 0
0 98 0
0 98 0
0 98 0
0 98 0
0 97 0
0 97 0
0 98 0
0 96 0
0 97 0
0 96 0
0 98 0
0 95 0
0 97 0
0 98 0
0 98 0
0 98 0
0 97 0
0 97 0
0 97 0
0 97 0
0 96 0
0 97 0
0 97 0
0 97 0
0 98 0
0 97 0
0 96 0
0 97 0
0 96 0
0 98 0
0 98 0
0 97 0
0 97 0
0 98 0
0 97 0
0 97 0
0 97 0
0 96 0
0 97 0
0 99 0
0 98 0
0 98 0
0 97 0
0 97 0
0 97 0
0 98 0
0 97 0
0 98 0
0 97 0
0 97 0
0 99 0
0 97 0
0 98 0
0 99 0
0 97 0
0 98 0
0 98 0
0 98 0
0 98 0
0 98 0
0 98 0
0 99 0
0 97 0
0 98 0
0 98 0
0 98 0
0 97 0
0 98 0
0 98 0
0 98 0
0 97 0
0 98 0
0 98 0
0 98 0
0 98 0
0 98 0
0 99 0
0 98 0
0 96 0
0 98 0
0 98 0
0 98 0
0 99 0
0 98 0
0 98 0
0 98 0
0 97 0
0 97 0
0 98 0
0 98 0
0 97 0
0 98 0
0 98 0
0 97 0
0 97 0
0 96 0
0 98 0
0 98 0
0 98 0
0 98 0
0 97 0
0 98 0
0 98 0
0 98 0
0 98 0
0 97 0
0 98 0
0 98 0
0 98 0
0 97 0
0 97 0
0 98 0
0 98 0
0 99 0
0 97 0
0 97 0
0 98 0
0 98 0
0 98 0
0 99 0
0 98 0
0 98 0
0 98 0
0 97 0
0 97 0
0 97 0
0 98 0
0 97 0
0 98 0
0 99 0
0 97 0
0 97 0
0 98 0
0 98 0
0 97 0
0 98 0
0 98 0
0 97 0
0 97 0
0 97 0
0 96 0
0 98 0
0 98 0
0 98 0
0 98 0
0 98 0
0 97 0
0 98 0
0 98 0
0 97 0
0 98 0
0 97 0
0 98 0
0 99 0
0 99 0
0 98 0
0 97 0
0 98 0
0 97 0
0 97 0
0 97 0
0 98 0
0 97 0
0 98 0
0 97 0
0 96 0
0 98 0
0 98 0
0 95 0
0 98 0
0 96 0
0 98 0
0 98 0
0 99 0
0 97 0
0 96 0
0 98 0
0 98 0
0 98 0
0 97 0
0 98 0
0 97 0
0 97 0
0 97 0
0 98 0
0 98 0
0 98 0
0 98 0
0 98 0
0 97 0
0 97 0
0 98 0
0 97 0
0 95 0
0 96 0
0 97 0
0 97 0
0 99 0
0 98 0
0 98 0
0 98 0
0 96 0
0 98 0
0 96 0
0 98 0
0 96 0
0 97 0
0 99 0
0 97 0
0 96 0
0 96 0
0 97 0
0 96 0
0 95 0
0 97 0
0 97 0
0 98 0
0 96 0
0 96 0
0 97 0
0 96 0
0 95 0
0 96 0
0 97 0
0 97 0
0 95 0
0 96 0
0 96 0
0 98 0
0 97 0
0 97 0
0 97 0
0 96 0
0 97 0
0 98 0
0 97 0
0 98 0
0 96 0
0 97 0
0 97 0
0 96 0
0 98 0
0 96 0
0 98 0
0 97 0
0 98 0
0 96 0
0 96 0
0 98 0
0 97 0
0 97 0
0 97 0
0 97 0
0 97 0
0 97 0
0 96 0
0 97 0
0 98 0
0 95 0
0 97 0
0 97 0
0 97 0
0 95 0
0 98 0
0 97 0
0 96 0
0 96 0
0 96 0
0 95 0
0 95 0
0 95 0
0 96 0
0 96 0
0 97 0
0 98 0
0 96 0
0 96 0
0 98 0
0 94 0
0 97 0
0 98 0
0 98 0
0 98 0
0 97 0
0 96 0
0 95 0
0 97 0
0 98 0
0 96 0
0 95 0
0 98 0
0 95 0
0 96 0
0 96 0
0 96 0
0 96 0
0 96 0
0 97 0
0 98 0
0 96 0
0 97 0
0 96 0
0 97 0
0 97 0
0 96 0
0 97 0
0 95 0
0 97 0
0 97 0
0 96 0
0 96 0
0 98 0
0 98 0
0 98 0
0 94 0
0 97 0
0 96 0
0 96 0
0 98 0
0 96 0
0 98 0
0 95 0
0 96 0
0 96 0
0 95 0
0 97 0
0 97 0
0 96 0
0 95 0
0 97 0
0 97 0
0 96 0
0 98 0
0 96 0
0 96 0
0 97 0
0 97 0
0 97 0
0 97 0
0 97 0
0 97 0
0 96 0
0 97 0
0 97 0
0 96 0
0 97 0
0 97 0
0 98 0
0 96 0
0 96 0
0 97 0
0 97 0
0 94 0
0 97 0
0 97 0
0 95 0
0 97 0
0 96 0
0 97 0
0 98 0
0 95 0
0 98 0
0 97 0
0 97 0
0 97 0
0 98 0
0 98 0
0 97 0
0 98 0
0 99 0
0 98 0
0 97 0
0 98 0
0 96 0
0 97 0
0 97 0
0 98 0
0 97 0
0 95 0
0 98 0
0 96 0
0 95 0
0 97 0
0 98 0
0 98 0
0 98 0
0 96 0
0 97 0
0 95 0
0 97 0
0 97 0
0 97 0
0 99 0
0 97 0
0 96 0
0 98 0
0 98 0
0 97 0
0 97 0
0 97 0
0 96 0
0 96 0
0 98 0
0 98 0
0 98 0
0 98 0
0 98 0
0 98 0
0 97 0
0 98 0
0 98 0
0 98 0
0 97 0
0 97 0
0 96 0
0 97 0
0 98 0
0 98 0
0 97 0
0 98 0
0 97 0
0 98 0
0 98 0
0 99 0
0 97 0
0 99 0
0 97 0
0 99 0
0 98 0
0 97 0
0 97 0
0 98 0
0 98 0
0 96 0
0 97 0
0 97 0
0 96 0
0 98 0
0 98 0
0 97 0
0 97 0
0 98 0
0 97 0
0 98 0
0 98 0
0 98 0
0 98 0
0 99 0
0 98 0
0 98 0
0 98 0
0 98 0
0 97 0
0 97 0
0 97 0
0 97 0
0 98 0
0 97 0
0 96 0
0 96 0
0 98 0
0 98 0
0 95 0
0 97 0
0 98 0
0 96 0
0 97 0
0 97 0
0 99 0
0 96 0
0 97 0
0 98 0
0 98 0
0 98 0
0 97 0
0 97 0
0 98 0
0 98 0
0 98 0
0 98 0
0 98 0
0 98 0
0 98 0
0 98 0
0 97 0
0 97 0
0 98 0
0 98 0
0 97 0
0 98 0
0 97 0
0 97 0
0 97 0
0 97 0
0 98 0
0 97 0
0 99 0
0 99 0
0 98 0
0 98 0
0 98 0
0 97 0
0 98 0
0 98 0
0 98 0
0 97 0
0 97 0
0 98 0
0 98 0
0 98 0
0 97 0
0 98 0
0 97 0
0 98 0
0 97 0
0 97 0
0 98 0
0 98 0
0 98 0
0 98 0
0 97 0
0 98 0
0 97 0
0 97 0
0 98 0
0 98 0
0 98 0
0 97 0
0 98 0
0 97 0
0 98 0
0 97 0
0 97 0
0 98 0
0 98 0
0 98 0
0 98 0
0 98 0
0 97 0
0 97 0
0 99 0
0 98 0
0 98 0
0 98 0
0 97 0
0 96 0
0 98 0
0 98 0
0 97 0
0 98 0
0 98 0
0 98 0
0 96 0
0 98 0
0 97 0
0 96 0
0 96 0
0 97 0
0 98 0
0 97 0
0 96 0
0 97 0
0 98 0
0 99 0
0 96 0
0 97 0
0 96 0
0 96 0
0 98 0
0 98 0
0 99 0
0 99 0
0 97 0
0 98 0
0 97 0
0 97 0
0 98 0
0 98 0
0 98 0
0 97 0
0 96 0
0 97 0
0 98 0
0 98 0
0 98 0
0 96 0
0 97 0
0 96 0
0 98 0
0 97 0
0 97 0
0 98 0
0 98 0
0 98 0
0 97 0
0 98 0
0 98 0
0 98 0
0 98 0
0 98 0
0 98 0
0 99 0
0 97 0
0 96 0
0 96 0
0 97 0
0 97 0
0 98 0
0 96 0
0 97 0
0 97 0
0 96 0
0 96 0
0 98 0
0 97 0
0 97 0
0 98 0
0 98 0
0 95 0
0 97 0
0 98 0
0 98 0
0 96 0
0 97 0
0 98 0
0 96 0
0 98 0
0 97 0
0 96 0
0 96 0
0 97 0
0 96 0
0 96 0
0 97 0
0 97 0
0 96 0
0 96 0
0 97 0
0 97 0
0 97 0
0 97 0
0 98 0
0 96 0
0 97 0
0 97 0
0 98 0
0 98 0
0 96 0
0 97 0
0 97 0
0 98 0
0 97 0
0 97 0
0 98 0
0 97 0
0 96 0
0 98 0
0 96 0
0 98 0
0 97 0
0 98 0
0 95 0
0 95 0
0 98 0
0 97 0
0 97 0
0 97 0
0 97 0
0 98 0
0 97 0
0 96 0
0 97 0
0 97 0
0 98 0
0 95 0
0 96 0
0 97 0
0 96 0
0 97 0
0 95 0
0 96 0
0 97 0
0 97 0
0 96 0
0 96 0
0 98 0
0 96 0
0 96 0
0 97 0
0 96 0
0 98 0
0 97 0
0 96 0
0 96 0
0 97 0
0 97 0
0 97 0
0 96 0
0 97 0
0 97 0
0 97 0
0 97 0
0 98 0
0 97 0
0 97 0
0 97 0
0 98 0
0 97 0
0 97 0
0 97 0
0 97 0
0 95 0
0 97 0
0 98 0
0 96 0
0 97 0
0 97 0
0 96 0
0 96 0
0 96 0
0 96 0
0 96 0
0 97 0
0 97 0
0 96 0
0 97 0
0 98 0
0 96 0
0 97 0
0 96 0
0 97 0
0 97 0
0 96 0
0 97 0
0 96 0
0 96 0
0 96 0
0 96 0
0 96 0
0 96 0
0 96 0
0 97 0
0 95 0
0 98 0
0 98 0
0 97 0
0 96 0
0 97 0
0 95 0
0 96 0
0 97 0
0 96 0
0 95 0
0 97 0
0 96 0
0 98 0
0 98 0
0 97 0
0 96 0
0 97 0
0 95 0
0 98 0
0 98 0
0 97 0
0 95 0
0 98 0
0 97 0
0 97 0
0 95 0
0 98 0
0 96 0
0 98 0
0 98 0
0 97 0
0 96 0
0 97 0
0 98 0
0 98 0
0 97 0
0 96 0
0 98 0
0 96 0
0 97 0
0 97 0
0 95 0
0 98 0
0 98 0
0 97 0
0 97 0
0 98 0
0 97 0
0 95 0
0 97 0
0 97 0
0 97 0
0 97 0
0 97 0
0 97 0
0 96 0
0 95 0
0 97 0
0 97 0
0 98 0
0 97 0
0 97 0
0 97 0
0 99 0
0 97 0
0 98 0
0 97 0
0 98 0
0 97 0
0 96 0
0 96 0
0 96 0
0 98 0
0 98 0
0 98 0
0 97 0
0 96 0
0 97 0
0 98 0
0 97 0
0 98 0
0 97 0
0 98 0
0 96 0
0 97 0
0 96 0
0 98 0
0 97 0
0 97 0
0 99 0
0 98 0
0 98 0
0 98 0
0 97 0
0 98 0
0 97 0
0 97 0
0 97 0
0 97 0
0 98 0
0 98 0
0 97 0
0 97 0
0 98 0
0 97 0
0 97 0
0 97 0
0 99 0
0 98 0
0 97 0
0 98 0
0 98 0
0 97 0
0 97 0
0 98 0
0 97 0
0 98 0
0 97 0
0 98 0
0 96 0
0 97 0
0 97 0
0 98 0
0 97 0
0 97 0
0 97 0
0 98 0
0 98 0
0 98 0
0 97 0
0 97 0
0 98 0
0 98 0
0 96 0
0 98 0
0 99 0
0 98 0
0 98 0
0 98 0
0 97 0
0 97 0
0 97 0
0 98 0
0 98 0
0 98 0
0 98 0
0 98 0
0 98 0
0 98 0
0 98 0
0 99 0
0 98 0
0 98 0
0 98 0
0 97 0
0 97 0
0 98 0
0 98 0
0 97 0
0 97 0
0 98 0
0 97 0
0 98 0
0 98 0
0 98 0
0 98 0
0 97 0
0 98 0
0 98 0
0 98 0
0 97 0
0 98 0
0 98 0
0 98 0
0 97 0
0 98 0
0 98 0
0 97 0
0 98 0
0 97 0
0 99 0
0 98 0
0 98 0
0 98 0
0 98 0
0 97 0
0 97 0
0 96 0
0 98 0
0 98 0
0 97 0
0 98 0
0 97 0
0 98 0
0 96 0
0 99 0
0 97 0
0 98 0
0 98 0
0 98 0
0 98 0
0 98 0
0 98 0
0 96 0
0 97 0
0 98 0
0 99 0
0 96 0
0 98 0
0 97 0
0 99 0
0 97 0
0 98 0
0 97 0
0 98 0
0 97 0
0 98 0
0 98 0
0 96 0
0 97 0
0 98 0
0 98 0
0 97 0
0 97 0
0 98 0
0 98 0
0 97 0
0 97 0
0 97 0
0 95 0
0 98 0
0 98 0
0 97 0
0 97 0
0 98 0
0 98 0
0 96 0
0 98 0
0 98 0
0 97 0
0 97 0
0 97 0
0 98 0
0 97 0
0 97 0
0 99 0
0 96 0
0 98 0
0 97 0
0 97 0
0 98 0
0 96 0
0 98 0
0 97 0
0 97 0
0 97 0
0 97 0
0 98 0
0 98 0
0 97 0
0 96 0
0 97 0
0 96 0
0 98 0
0 98 0
0 98 0
0 96 0
0 99 0
0 96 0
0 95 0
0 97 0
0 96 0
0 96 0
0 97 0
0 98 0
0 97 0
0 97 0
0 96 0
0 98 0
0 96 0
0 96 0
0 97 0
0 98 0
0 96 0
0 96 0
0 97 0
0 96 0
0 96 0
0 97 0
0 96 0
0 97 0
0 97 0
0 97 0
0 97 0
0 97 0
0 96 0
0 96 0
0 97 0
0 98 0
0 97 0
0 96 0
0 98 0
0 97 0
0 97 0
0 98 0
0 98 0
0 97 0
0 97 0
0 98 0
0 97 0
0 97 0
0 96 0
0 97 0
0 98 0
0 98 0
0 98 0
0 96 0
0 96 0
0 98 0
0 97 0
0 96 0
0 99 0
0 97 0
0 97 0
0 97 0
0 97 0
0 97 0
0 97 0
0 97 0
0 98 0
0 97 0
0 97 0
0 97 0
0 97 0
0 98 0
0 97 0
0 97 0
0 98 0
0 96 0
0 95 0
0 96 0
0 97 0
0 98 0
0 97 0
0 97 0
0 97 0
0 96 0
0 98 0
0 97 0
0 98 0
0 97 0
0 97 0
0 97 0
0 98 0
0 97 0
0 97 0
0 98 0
0 96 0
0 96 0
0 97 0
0 96 0
0 94 0
0 96 0
0 98 0
0 96 0
0 97 0
0 98 0
0 96 0
0 97 0
0 98 0
0 96 0
0 98 0
0 97 0
0 96 0
0 96 0
0 96 0
0 96 0
0 98 0
0 97 0
0 97 0
0 97 0
0 97 0
0 98 0
0 98 0
0 97 0
0 97 0
0 97 0
0 98 0
0 97 0
0 96 0
0 95 0
0 98 0
0 96 0
0 97 0
0 96 0
0 98 0
0 96 0
0 96 0
0 97 0
0 95 0
0 97 0
0 96 0
0 96 0
0 97 0
0 96 0
0 95 0
0 98 0
0 96 0
0 98 0
0 97 0
0 98 0
0 98 0
0 97 0
0 97 0
0 97 0
0 96 0
0 96 0
0 95 0
0 97 0
0 96 0
0 97 0
0 95 0
0 98 0
0 97 0
0 96 0
0 97 0
0 97 0
0 98 0
0 97 0
0 97 0
0 98 0
0 97 0
0 97 0
0 96 0
0 98 0
0 97 0
0 97 0
0 97 0
0 96 0
0 97 0
0 97 0
0 98 0
0 97 0
0 97 0
0 98 0
0 96 0
0 96 0
0 96 0
0 98 0
0 98 0
0 97 0
0 98 0
0 97 0
0 98 0
0 96 0
0 97 0
0 98 0
0 95 0
0 98 0
0 96 0
0 95 0
0 97 0
0 97 0
0 97 0
0 98 0
0 97 0
0 97 0
0 98 0
0 96 0
0 98 0
0 97 0
0 98 0
0 97 0
0 97 0
0 97 0
0 98 0
0 97 0
0 98 0
0 97 0
0 98 0
0 97 0
0 97 0
0 96 0
0 97 0
0 98 0
0 97 0
0 98 0
0 97 0
0 97 0
0 97 0
0 97 0
0 97 0
0 97 0
0 98 0
0 98 0
0 98 0
0 97 0
0 97 0
0 97 0
0 97 0
0 97 0
0 97 0
0 98 0
0 98 0
0 99 0
0 98 0
0 95 0
0 99 0
0 97 0
0 98 0
0 97 0
0 97 0
0 97 0
0 97 0
0 97 0
0 97 0
0 98 0
0 96 0
0 98 0
0 98 0
0 98 0
0 97 0
0 97 0
0 97 0
0 98 0
0 97 0
0 98 0
0 96 0
0 96 0
0 97 0
0 97 0
0 98 0
0 99 0
0 97 0
0 98 0
0 97 0
0 96 0
0 98 0
0 97 0
0 97 0
0 97 0
0 97 0
0 97 0
0 98 0
0 97 0
0 98 0
0 98 0
0 98 0
0 97 0
0 98 0
0 98 0
0 97 0
0 98 0
0 97 0
0 99 0
0 98 0
0 98 0
0 98 0
0 97 0
0 98 0
0 98 0
0 98 0
0 98 0
0 98 0
0 98 0
0 98 0
0 98 0
0 98 0
0 97 0
0 98 0
0 98 0
0 98 0
0 98 0
0 97 0
0 98 0
0 96 0
0 97 0
0 97 0
0 98 0
0 97 0
0 99 0
0 98 0
0 97 0
0 98 0
0 98 0
0 97 0
0 99 0
0 98 0
0 99 0
0 97 0
0 98 0
0 98 0
0 98 0
0 98 0
0 97 0
0 98 0
0 97 0
0 98 0
0 98 0
0 97 0
0 97 0
0 98 0
0 98 0
0 97 0
0 98 0
0 99 0
0 98 0
0 99 0
0 98 0
0 98 0
0 96 0
0 97 0
0 97 0
0 99 0
0 98 0
0 97 0
0 98 0
0 98 0
0 97 0
0 98 0
0 97 0
0 98 0
0 97 0
0 99 0
0 96 0
0 98 0
0 97 0
0 97 0
0 98 0
0 98 0
0 96 0
0 98 0
0 98 0
0 97 0
0 97 0
0 98 0
0 97 0
0 98 0
0 98 0
0 97 0
0 97 0
0 97 0
0 98 0
0 97 0
0 97 0
0 98 0
0 97 0
0 97 0
0 96 0
0 98 0
0 96 0
0 98 0
0 98 0
0 97 0
0 96 0
0 97 0
0 98 0
0 98 0
0 97 0
0 97 0
0 97 0
0 96 0
0 98 0
0 97 0
0 98 0
0 97 0
0 98 0
0 98 0
0 98 0
0 96 0
0 98 0
0 97 0
0 99 0
0 97 0
0 97 0
0 96 0
0 97 0
0 98 0
0 98 0
0 98 0
0 96 0
0 96 0
0 96 0
0 96 0
0 98 0
0 97 0
0 97 0
0 96 0
0 98 0
0 98 0
0 94 0
0 96 0
0 97 0
0 97 0
0 98 0
0 97 0
0 98 0
0 98 0
0 97 0
0 97 0
0 97 0
0 97 0
0 97 0
0 97 0
0 97 0
0 98 0
0 98 0
0 98 0
0 97 0
0 97 0
0 95 0
0 98 0
0 95 0
0 97 0
0 98 0
0 97 0
0 97 0
0 98 0
0 96 0
0 97 0
0 97 0
0 98 0
0 98 0
0 97 0
0 97 0
0 97 0
0 96 0
0 94 0
0 97 0
0 96 0
0 97 0
0 97 0
0 96 0
0 96 0
0 97 0
0 96 0
0 98 0
0 96 0
0 97 0
0 96 0
0 98 0
0 98 0
0 97 0
0 96 0
0 96 0
0 96 0
0 98 0
0 98 0
0 95 0
0 96 0
0 96 0
0 99 0
0 97 0
0 98 0
0 96 0
0 96 0
0 97 0
0 98 0
0 97 0
0 98 0
0 96 0
0 97 0
0 97 0
0 97 0
0 96 0
0 98 0
0 98 0
0 97 0
0 98 0
0 96 0
0 96 0
0 95 0
0 98 0
0 97 0
0 97 0
0 95 0
0 95 0
0 96 0
0 96 0
0 95 0
0 98 0
0 94 0
0 96 0
0 96 0
0 98 0
0 97 0
0 98 0
0 97 0
0 97 0
0 97 0
0 97 0
0 97 0
0 97 0
0 97 0
0 97 0
0 97 0
0 98 0
0 97 0
0 98 0
0 96 0
0 97 0
0 96 0
0 97 0
0 96 0
0 98 0
0 96 0
0 97 0
0 96 0
0 97 0
0 95 0
0 96 0
0 97 0
0 98 0
0 98 0
0 98 0
0 98 0
0 97 0
0 96 0
0 96 0
0 97 0
0 97 0
0 98 0
0 95 0
0 97 0
0 97 0
0 97 0
0 98 0
0 94 0
0 96 0
0 97 0
0 97 0
0 98 0
0 97 0
0 96 0
0 98 0
0 97 0
0 97 0
0 97 0
0 97 0
0 98 0
0 97 0
0 97 0
0 98 0
0 97 0
0 98 0
0 97 0
0 97 0
0 97 0
0 98 0
0 98 0
0 97 0
0 97 0
0 97 0
0 97 0
0 97 0
0 98 0
0 97 0
0 97 0
0 96 0
0 97 0
0 99 0
0 96 0
0 98 0
0 97 0
0 98 0
0 97 0
0 98 0
0 96 0
0 97 0
0 95 0
0 97 0
0 97 0
0 97 0
0 97 0
0 98 0
0 97 0
0 96 0
0 96 0
0 98 0
0 97 0
0 97 0
0 97 0
0 97 0
0 98 0
0 96 0
0 97 0
0 98 0
0 98 0
0 96 0
0 98 0
0 96 0
0 98 0
0 98 0
0 98 0
0 98 0
0 98 0
0 97 0
0 97 0
0 98 0
0 97 0
0 98 0
0 97 0
0 98 0
0 98 0
0 98 0
0 96 0
0 98 0
0 97 0
0 98 0
0 98 0
0 98 0
0 97 0
0 97 0
0 98 0
0 98 0
0 98 0
0 99 0
0 98 0
0 98 0
0 98 0
0 98 0
0 98 0
0 97 0
0 97 0
0 96 0
0 97 0
0 97 0
0 98 0
0 98 0
0 98 0
0 99 0
0 98 0
0 97 0
0 97 0
0 97 0
0 97 0
0 98 0
0 97 0
0 97 0
0 98 0
0 98 0
0 98 0
0 98 0
0 98 0
0 98 0
0 97 0
0 97 0
0 99 0
0 98 0
0 98 0
0 97 0
0 97 0
0 99 0
0 98 0
0 98 0
0 98 0
0 98 0
0 97 0
0 98 0
0 97 0
0 98 0
0 97 0
0 98 0
0 98 0
0 98 0
0 98 0
0 98 0
0 98 0
0 98 0
0 98 0
0 98 0
0 98 0
0 97 0
0 98 0
0 99 0
0 97 0
0 98 0
0 97 0
0 98 0
0 98 0
0 97 0
0 98 0
0 98 0
0 97 0
0 98 0
0 98 0
0 98 0
0 98 0
0 98 0
0 97 0
0 97 0
0 98 0
0 98 0
0 98 0
0 98 0
0 98 0
0 98 0
0 97 0
0 99 0
0 96 0
0 97 0
0 98 0
0 99 0
0 98 0
0 97 0
0 98 0
0 99 0
0 96 0
0 98 0
0 98 0
0 98 0
0 97 0
0 98 0
0 98 0
0 98 0
0 98 0
0 98 0
0 97 0
0 98 0
0 98 0
0 98 0
0 97 0
0 98 0
0 98 0
0 97 0
0 97 0
0 97 0
0 98 0
0 99 0
0 97 0
0 98 0
0 97 0
0 98 0
0 97 0
0 99 0
0 97 0
0 97 0
0 98 0
0 98 0
0 96 0
0 97 0
0 99 0
0 97 0
0 97 0
0 98 0
0 97 0
0 96 0
0 98 0
0 97 0
0 98 0
0 96 0
0 98 0
0 95 0
0 97 0
0 98 0
0 98 0
0 98 0
0 97 0
0 97 0
0 96 0
0 98 0
0 98 0
0 98 0
0 98 0
0 98 0
0 97 0
0 97 0
0 98 0
0 97 0
0 98 0
0 97 0
0 97 0
0 98 0
0 97 0
0 95 0
0 98 0
0 97 0
0 98 0
0 96 0
0 98 0
0 98 0
0 98 0
0 97 0
0 98 0
0 98 0
0 97 0
0 97 0
0 97 0
0 97 0
0 98 0
0 96 0
0 97 0
0 97 0
0 95 0
0 97 0
0 96 0
0 97 0
0 98 0
0 96 0
0 97 0
0 96 0
0 96 0
0 96 0
0 97 0
0 99 0
0 96 0
0 96 0
0 98 0
0 96 0
0 96 0
0 97 0
0 98 0
0 98 0
0 96 0
0 96 0
0 96 0
0 97 0
0 96 0
0 96 0
0 96 0
0 95 0
0 96 0
0 96 0
0 95 0
0 96 0
0 96 0
0 96 0
0 97 0
0 96 0
0 96 0
0 98 0
0 97 0
0 96 0
0 96 0
0 98 0
0 96 0
0 98 0
0 98 0
0 97 0
0 96 0
0 97 0
0 96 0
0 98 0
0 97 0
0 97 0
0 97 0
0 97 0
0 97 0
0 97 0
0 98 0
0 95 0
0 97 0
0 99 0
0 96 0
0 97 0
0 97 0
0 97 0
0 98 0
0 96 0
0 97 0
0 98 0
0 96 0
0 96 0
0 97 0
0 97 0
0 96 0
0 97 0
0 98 0
0 96 0
0 98 0
0 95 0
0 97 0
0 96 0
0 97 0
0 97 0
0 96 0
0 95 0
0 97 0
0 96 0
0 97 0
0 96 0
0 97 0
0 97 0
0 97 0
0 96 0
0 97 0
0 98 0
0 98 0
0 97 0
0 98 0
0 97 0
0 97 0
0 97 0
0 98 0
0 96 0
0 97 0
0 98 0
0 97 0
0 98 0
0 96 0
0 97 0
0 96 0
0 97 0
0 96 0
0 98 0
0 97 0
0 96 0
0 97 0
0 98 0
0 97 0
0 98 0
0 98 0
0 95 0
0 96 0
0 97 0
0 97 0
0 97 0
0 97 0
0 96 0
0 97 0
0 98 0
0 97 0
0 98 0
0 98 0
0 99 0
0 97 0
0 97 0
0 97 0
0 96 0
0 97 0
0 97 0
0 97 0
0 97 0
0 96 0
0 96 0
0 98 0
0 97 0
0 96 0
0 97 0
0 97 0
0 97 0
0 96 0
0 97 0
0 97 0
0 96 0
0 98 0
0 98 0
0 97 0
0 97 0
0 98 0
0 98 0
0 98 0
0 97 0
0 97 0
0 98 0
0 97 0
0 97 0
0 96 0
0 97 0
0 98 0
0 97 0
0 98 0
0 98 0
0 97 0
0 97 0
0 97 0
0 97 0
0 96 0
0 97 0
0 98 0
0 96 0
0 96 0
0 98 0
0 97 0
0 98 0
0 97 0
0 97 0
0 97 0
0 97 0
0 96 0
0 97 0
0 97 0
0 97 0
0 97 0
0 98 0
0 97 0
0 97 0
0 97 0
0 98 0
0 98 0
0 98 0
0 99 0
0 97 0
0 97 0
0 99 0
0 97 0
0 97 0
0 98 0
0 98 0
0 98 0
0 98 0
0 99 0
0 98 0
0 97 0
0 97 0
0 97 0
0 98 0
0 97 0
0 96 0
0 96 0
0 98 0
0 98 0
0 97 0
0 98 0
0 96 0
0 98 0
0 97 0
0 97 0
0 96 0
0 97 0
0 97 0
0 97 0
0 97 0
0 97 0
0 95 0
0 97 0
0 97 0
0 98 0
0 98 0
0 98 0
0 99 0
0 98 0
0 98 0
0 97 0
0 96 0
0 98 0
0 98 0
0 97 0
0 98 0
0 98 0
0 99 0
0 98 0
0 99 0
0 97 0
0 96 0
0 97 0
0 98 0
0 99 0
0 98 0
0 98 0
0 99 0
0 98 0
0 99 0
0 97 0
0 97 0
0 97 0
0 98 0
0 98 0
0 98 0
0 98 0
0 99 0
0 98 0
0 96 0
0 98 0
0 97 0
0 98 0
0 98 0
0 96 0
0 98 0
0 98 0
0 98 0
0 98 0
0 98 0
0 99 0
0 98 0
0 98 0
0 97 0
0 97 0
0 98 0
0 98 0
0 97 0
0 98 0
0 98 0
0 98 0
0 98 0
0 99 0
0 98 0
0 98 0
0 98 0
0 98 0
0 98 0
0 99 0
0 97 0
0 97 0
0 99 0
0 98 0
0 98 0
0 98 0
0 99 0
0 98 0
0 97 0
0 98 0
0 98 0
0 96 0
0 98 0
0 98 0
0 96 0
0 98 0
0 98 0
0 97 0
0 98 0
0 98 0
0 98 0
0 97 0
0 99 0
0 98 0
0 97 0
0 98 0
0 99 0
0 96 0
0 98 0
0 97 0
0 98 0
0 99 0
0 99 0
0 98 0
0 97 0
0 97 0
0 97 0
0 98 0
0 98 0
0 98 0
0 98 0
0 98 0
0 95 0
0 96 0
0 97 0
0 96 0
0 97 0
0 98 0
0 98 0
0 98 0
0 97 0
0 97 0
0 98 0
0 98 0
0 98 0
0 97 0
0 98 0
0 98 0
0 97 0
0 98 0
0 98 0
0 96 0
0 96 0
0 99 0
0 97 0
0 98 0
0 97 0
0 97 0
0 97 0
0 96 0
0 96 0
0 97 0
0 97 0
0 98 0
0 96 0
0 98 0
0 98 0
0 97 0
0 98 0
0 97 0
0 96 0
0 96 0
0 98 0
0 97 0
0 98 0
0 97 0
0 97 0
0 96 0
0 96 0
0 98 0
0 97 0
0 97 0
0 98 0
0 98 0
0 97 0
0 96 0
0 97 0
0 98 0
0 98 0
0 98 0
0 95 0
0 99 0
0 96 0
0 97 0
0 97 0
0 97 0
0 95 0
0 97 0
0 99 0
0 98 0
0 96 0
0 97 0
0 96 0
0 97 0
0 96 0
0 98 0
0 98 0
0 97 0
0 98 0
0 96 0
0 96 0
0 95 0
0 96 0
0 97 0
0 95 0
0 97 0
0 96 0
0 97 0
0 96 0
0 97 0
0 97 0
0 98 0
0 98 0
0 98 0
0 96 0
0 97 0
0 96 0
0 97 0
0 97 0
0 98 0
0 96 0
0 96 0
0 96 0
0 98 0
0 97 0
0 97 0
0 96 0
0 96 0
0 97 0
0 98 0
0 97 0
0 96 0
0 98 0
0 93 0
0 98 0
0 98 0
0 98 0
0 96 0
0 97 0
0 96 0
0 96 0
0 96 0
0 97 0
0 98 0
0 96 0
0 97 0
0 96 0
0 96 0
0 95 0
0 97 0
0 97 0
0 96 0
0 95 0
0 96 0
0 98 0
0 96 0
0 97 0
0 96 0
0 98 0
0 96 0
0 97 0
0 97 0
0 96 0
0 96 0
0 95 0
0 96 0
0 96 0
0 96 0
0 97 0
0 96 0
0 97 0
0 96 0
0 97 0
0 97 0
0 96 0
0 98 0
0 97 0
0 97 0
0 98 0
0 97 0
0 96 0
0 97 0
0 97 0
0 98 0
0 97 0
0 96 0
0 97 0
0 97 0
0 98 0
0 96 0
0 96 0
0 97 0
0 98 0
0 98 0
0 95 0
0 97 0
0 97 0
0 96 0
0 97 0
0 96 0
0 98 0
0 97 0
0 95 0
0 96 0
0 97 0
0 98 0
0 98 0
0 98 0
0 96 0
0 98 0
0 98 0
0 98 0
0 97 0
0 98 0
0 98 0
0 98 0
0 96 0
0 96 0
0 98 0
0 98 0
0 98 0
0 98 0
0 95 0
0 98 0
0 95 0
0 96 0
0 97 0
0 98 0
0 96 0
0 97 0
0 96 0
0 97 0
0 98 0
0 98 0
0 97 0
0 97 0
0 98 0
0 96 0
0 97 0
0 96 0
0 96 0
0 97 0
0 97 0
0 97 0
0 97 0
0 98 0
0 97 0
0 97 0
0 97 0
0 97 0
0 97 0
0 96 0
0 97 0
0 97 0
0 97 0
0 96 0
0 98 0
0 98 0
0 98 0
0 96 0
0 97 0
0 97 0
0 98 0
0 98 0
0 96 0
0 96 0
0 97 0
0 97 0
0 97 0
0 98 0
0 97 0
0 97 0
0 98 0
0 98 0
0 96 0
0 97 0
0 97 0
0 98 0
0 97 0
0 97 0
0 98 0
0 97 0
0 98 0
0 97 0
0 99 0
0 97 0
0 98 0
0 98 0
0 96 0
0 98 0
0 98 0
0 98 0
0 98 0
0 97 0
0 97 0
0 98 0
0 97 0
0 98 0
0 98 0
0 96 0
0 98 0
0 98 0
0 97 0
0 97 0
0 96 0
0 97 0
0 97 0
0 97 0
0 98 0
0 96 0
0 98 0
0 97 0
0 97 0
0 98 0
0 98 0
0 98 0
0 98 0
0 98 0
0 97 0
0 98 0
0 99 0
0 98 0
0 97 0
0 97 0
0 98 0
0 97 0
0 99 0
0 97 0
0 97 0
0 98 0
0 98 0
0 96 0
0 97 0
0 97 0
0 96 0
0 97 0
0 97 0
0 97 0
0 97 0
0 98 0
0 98 0
0 98 0
0 96 0
0 98 0
0 98 0
0 98 0
0 99 0
0 96 0
0 98 0
0 98 0
0 97 0
0 98 0
0 98 0
0 98 0
0 98 0
0 99 0
0 98 0
0 98 0
0 98 0
0 97 0
0 98 0
0 98 0
0 98 0
0 97 0
0 98 0
0 99 0
0 99 0
0 98 0
0 98 0
0 99 0
0 99 0
0 99 0
0 99 0
0 98 0
0 98 0
0 98 0
0 97 0
0 98 0
0 97 0
0 98 0
0 97 0
0 98 0
0 97 0
0 97 0
0 98 0
0 97 0
0 97 0
0 97 0
0 98 0
0 98 0
0 98 0
0 98 0
0 98 0
0 98 0
0 98 0
0 98 0
0 97 0
0 97 0
0 98 0
0 97 0
0 97 0
0 98 0
0 98 0
0 98 0
0 99 0
0 98 0
0 98 0
0 97 0
0 96 0
0 97 0
0 98 0
0 98 0
0 96 0
0 98 0
0 98 0
0 98 0
0 97 0
0 97 0
0 97 0
0 97 0
0 97 0
0 98 0
0 96 0
0 98 0
0 96 0
0 97 0
0 98 0
0 98 0
0 96 0
0 97 0
0 98 0
0 98 0
0 97 0
0 98 0
0 98 0
0 96 0
0 97 0
0 98 0
0 97 0
0 98 0
0 98 0
0 97 0
0 97 0
0 97 0
0 97 0
0 97 0
0 98 0
0 97 0
0 99 0
0 97 0
0 96 0
0 97 0
0 97 0
0 98 0
0 97 0
0 98 0
0 97 0
0 97 0
0 97 0
0 97 0
0 98 0
0 96 0
0 98 0
0 98 0
0 99 0
0 97 0
0 97 0
0 97 0
0 95 0
0 97 0
0 95 0
0 98 0
0 98 0
0 98 0
0 98 0
0 98 0
0 97 0
0 97 0
0 96 0
0 96 0
0 98 0
0 96 0
0 98 0
0 98 0
0 97 0
0 98 0
0 98 0
0 97 0
0 96 0
0 97 0
0 97 0
0 97 0
0 98 0
0 97 0
0 97 0
0 96 0
0 97 0
0 97 0
0 97 0
0 98 0
0 95 0
0 97 0
0 97 0
0 97 0
0 96 0
0 97 0
0 97 0
0 99 0
0 97 0
0 97 0
0 98 0
0 98 0
0 96 0
0 97 0
0 97 0
0 99 0
0 97 0
0 98 0
0 97 0
0 96 0
0 97 0
0 97 0
0 96 0
0 98 0
0 97 0
0 98 0
0 95 0
0 96 0
0 98 0
0 96 0
0 97 0
0 97 0
0 97 0
0 98 0
0 98 0
0 97 0
0 98 0
0 96 0
0 97 0
0 97 0
0 98 0
0 97 0
0 98 0
0 98 0
0 97 0
0 96 0
0 98 0
0 98 0
0 98 0
0 95 0
0 96 0
0 97 0
0 99 0
0 97 0
0 95 0
0 96 0
0 97 0
0 96 0
0 96 0
0 96 0
0 98 0
0 96 0
0 97 0
0 97 0
0 97 0
0 96 0
0 98 0
0 96 0
0 96 0
0 98 0
0 97 0
0 96 0
0 96 0
0 96 0
0 97 0
0 97 0
0 98 0
0 97 0
0 98 0
0 97 0
0 97 0
0 96 0
0 97 0
0 96 0
0 96 0
0 97 0
0 97 0
0 94 0
0 96 0
0 97 0
0 96 0
0 97 0
0 96 0
0 97 0
0 98 0
0 97 0
0 96 0
0 97 0
0 96 0
0 97 0
0 97 0
0 98 0
0 97 0
0 98 0
0 96 0
0 97 0
0 98 0
0 98 0
0 97 0
0 97 0
0 98 0
0 97 0
0 98 0
0 97 0
0 97 0
0 98 0
0 96 0
0 96 0
0 96 0
0 98 0
0 97 0
0 98 0
0 98 0
0 98 0
0 97 0
0 98 0
0 97 0
0 98 0
0 98 0
0 96 0
0 96 0
0 98 0
0 96 0
0 98 0
0 96 0
0 98 0
0 98 0
0 98 0
0 98 0
0 98 0
0 97 0
0 98 0
0 98 0
0 98 0
0 98 0
0 97 0
0 97 0
0 98 0
0 97 0
0 97 0
0 96 0
0 98 0
0 97 0
0 97 0
0 97 0
0 97 0
0 99 0
0 97 0
0 98 0
0 98 0
0 98 0
0 98 0
0 96 0
0 98 0
0 98 0
0 98 0
0 98 0
0 98 0
0 98 0
0 98 0
0 97 0
0 97 0
0 98 0
0 96 0
0 98 0
0 97 0
0 97 0
0 98 0
0 97 0
0 98 0
0 98 0
0 98 0
0 98 0
0 98 0
0 97 0
0 97 0
0 96 0
0 98 0
0 98 0
0 96 0
0 97 0
0 98 0
0 97 0
0 97 0
0 97 0
0 97 0
0 99 0
0 98 0
0 97 0
0 99 0
0 98 0
0 97 0
0 97 0
0 98 0
0 98 0
0 97 0
0 98 0
0 97 0
0 97 0
0 98 0
0 97 0
0 97 0
0 98 0
0 98 0
0 98 0
0 98 0
0 98 0
0 97 0
0 98 0
0 98 0
0 98 0
0 97 0
0 98 0
0 98 0
0 97 0
0 98 0
0 97 0
0 98 0
0 98 0
0 96 0
0 96 0
0 97 0
0 99 0
0 98 0
0 98 0
0 97 0
0 98 0
0 97 0
0 97 0
0 98 0
0 98 0
0 98 0
0 98 0
0 97 0
0 98 0
0 97 0
0 98 0
0 97 0
0 98 0
0 99 0
0 98 0
0 98 0
0 98 0
0 98 0
0 98 0
0 98 0
0 98 0
0 97 0
0 97 0
0 97 0
0 98 0
0 98 0
0 98 0
0 98 0
0 97 0
0 98 0
0 99 0
0 98 0
0 98 0
0 97 0
0 99 0
0 97 0
0 98 0
0 97 0
0 98 0
0 98 0
0 98 0
0 97 0
0 98 0
0 97 0
0 99 0
0 98 0
0 98 0
0 98 0
0 98 0
0 97 0
0 98 0
0 97 0
0 97 0
0 97 0
0 98 0
0 97 0
0 98 0
0 99 0
0 98 0
0 96 0
0 98 0
0 98 0
0 98 0
0 98 0
0 98 0
0 98 0
0 98 0
0 97 0
0 96 0
0 96 0
0 97 0
0 99 0
0 97 0
0 97 0
0 97 0
0 96 0
0 98 0
0 97 0
0 98 0
0 98 0
0 99 0
0 97 0
0 97 0
0 97 0
0 97 0
0 97 0
0 96 0
0 98 0
0 98 0
0 98 0
0 98 0
0 98 0
0 98 0
0 97 0
0 97 0
0 97 0
0 97 0
0 99 0
0 97 0
0 98 0
0 96 0
0 98 0
0 99 0
0 97 0
0 97 0
0 97 0
0 98 0
0 97 0
0 97 0
0 97 0
0 98 0
0 96 0
0 97 0
0 97 0
0 98 0
0 98 0
0 98 0
0 98 0
0 97 0
0 97 0
0 98 0
0 96 0
0 98 0
0 97 0
0 98 0
0 98 0
0 99 0
0 96 0
0 98 0
0 98 0
0 97 0
0 96 0
0 96 0
0 97 0
0 98 0
0 98 0
0 97 0
0 97 0
0 97 0
0 97 0
0 96 0
0 96 0
0 98 0
0 98 0
0 95 0
0 96 0
0 95 0
0 96 0
0 97 0
0 97 0
0 96 0
0 96 0
0 97 0
0 97 0
0 97 0
0 98 0
0 97 0
0 97 0
0 98 0
0 95 0
0 96 0
0 96 0
0 98 0
0 98 0
0 98 0
0 98 0
0 99 0
0 98 0
0 98 0
0 97 0
0 97 0
0 96 0
0 97 0
0 98 0
0 98 0
0 97 0
0 97 0
0 96 0
0 96 0
0 98 0
0 96 0
0 98 0
0 97 0
0 96 0
0 97 0
0 97 0
0 97 0
0 97 0
0 95 0
0 97 0
0 98 0
0 96 0
0 95 0
0 98 0
0 96 0
0 97 0
0 97 0
0 95 0
0 96 0
0 97 0
0 97 0
0 98 0
0 97 0
0 97 0
0 98 0
0 97 0
0 97 0
0 97 0
0 97 0
0 97 0
0 95 0
0 98 0
0 98 0
0 98 0
0 97 0
0 97 0
0 97 0
0 97 0
0 96 0
0 97 0
0 96 0
0 99 0
0 97 0
0 97 0
0 97 0
0 97 0
0 97 0
0 97 0
0 97 0
0 98 0
0 97 0
0 94 0
0 98 0
0 96 0
0 97 0
0 98 0
0 96 0
0 96 0
0 97 0
0 97 0
0 97 0
0 96 0
0 98 0
0 96 0
0 98 0
0 98 0
0 97 0
0 97 0
0 97 0
0 97 0
0 96 0
0 97 0
0 97 0
0 96 0
0 96 0
0 97 0
0 96 0
0 98 0
0 98 0
0 97 0
0 96 0
0 97 0
0 97 0
0 95 0
0 96 0
0 97 0
0 99 0
0 97 0
0 98 0
0 98 0
0 97 0
0 98 0
0 97 0
0 97 0
0 95 0
0 96 0
0 96 0
0 97 0
0 98 0
0 96 0
0 98 0
0 97 0
0 98 0
0 95 0
0 97 0
0 96 0
0 96 0
0 98 0
0 97 0
0 98 0
0 98 0
0 97 0
0 98 0
0 97 0
0 98 0
0 97 0
0 98 0
0 96 0
0 97 0
0 97 0
0 96 0
0 98 0
0 98 0
0 98 0
0 97 0
0 97 0
0 95 0
0 97 0
0 98 0
0 97 0
0 96 0
0 97 0
0 97 0
0 97 0
0 96 0
0 98 0
0 96 0
0 98 0
0 97 0
0 97 0
0 98 0
0 97 0
0 97 0
0 97 0
0 96 0
0 96 0
0 98 0
0 97 0
0 97 0
0 97 0
0 98 0
0 97 0
0 99 0
0 97 0
0 96 0
0 99 0
0 97 0
0 98 0
0 97 0
0 98 0
0 97 0
0 96 0
0 98 0
0 98 0
0 98 0
0 97 0
0 97 0
0 98 0
0 97 0
0 97 0
0 98 0
0 97 0
0 98 0
0 98 0
0 98 0
0 96 0
0 97 0
0 98 0
0 97 0
0 97 0
0 98 0
0 97 0
0 97 0
0 98 0
0 98 0
0 99 0
0 97 0
0 98 0
0 99 0
0 97 0
0 97 0
0 98 0
0 97 0
0 97 0
0 98 0
0 98 0
0 99 0
0 97 0
0 97 0
0 96 0
0 97 0
0 98 0
0 97 0
0 97 0
0 97 0
0 97 0
0 97 0
0 97 0
0 97 0
0 98 0
0 98 0
0 98 0
0 97 0
0 98 0
0 98 0
0 97 0
0 98 0
0 98 0
0 98 0
0 98 0
0 97 0
0 97 0
0 98 0
0 98 0
0 96 0
0 98 0
0 98 0
0 98 0
0 98 0
0 98 0
0 97 0
0 98 0
0 98 0
0 98 0
0 97 0
0 98 0
0 98 0
0 97 0
0 97 0
0 98 0
0 98 0
0 98 0
0 98 0
0 98 0
0 98 0
0 97 0
0 98 0
0 98 0
0 98 0
0 97 0
0 98 0
0 98 0
0 97 0
0 98 0
0 98 0
0 98 0
0 98 0
0 98 0
0 97 0
0 99 0
0 97 0
0 98 0
0 98 0
0 98 0
0 98 0
0 97 0
0 98 0
0 97 0
0 99 0
0 98 0
0 98 0
0 98 0
0 97 0
0 98 0
0 98 0
0 98 0
0 98 0
0 96 0
0 98 0
0 97 0
0 97 0
0 98 0
0 98 0
0 97 0
0 97 0
0 97 0
0 97 0
0 97 0
0 97 0
0 98 0
0 97 0
0 99 0
0 97 0
0 98 0
0 97 0
0 97 0
0 96 0
0 98 0
0 96 0
0 99 0
0 97 0
0 98 0
0 98 0
0 97 0
0 97 0
0 98 0
0 98 0
0 98 0
0 98 0
0 97 0
0 98 0
0 98 0
0 97 0
0 97 0
0 98 0
0 98 0
0 96 0
0 98 0
0 97 0
0 97 0
0 98 0
0 97 0
0 97 0
0 98 0
0 98 0
0 97 0
0 98 0
0 95 0
0 98 0
0 97 0
0 97 0
0 98 0
0 99 0
0 98 0
0 97 0
0 97 0
0 97 0
0 97 0
0 97 0
0 98 0
0 96 0
0 97 0
0 98 0
0 97 0
0 96 0
0 98 0
0 97 0
0 97 0
0 95 0
0 97 0
0 98 0
0 97 0
0 97 0
0 97 0
0 98 0
0 97 0
0 96 0
0 98 0
0 99 0
0 96 0
0 97 0
0 97 0
0 99 0
0 98 0
0 98 0
0 97 0
0 99 0
0 96 0
0 97 0
0 97 0
0 96 0
0 96 0
0 96 0
0 96 0
0 98 0
0 97 0
0 98 0
0 98 0
0 97 0
0 98 0
0 97 0
0 96 0
0 97 0
0 98 0
0 98 0
0 96 0
0 98 0
0 97 0
0 96 0
0 97 0
0 97 0
0 96 0
0 97 0
0 97 0
0 97 0
0 96 0
0 97 0
0 96 0
0 98 0
0 96 0
0 97 0
0 96 0
0 97 0
0 97 0
0 96 0
0 96 0
0 97 0
0 97 0
0 97 0
0 97 0
0 97 0
0 96 0
0 97 0
0 98 0
0 97 0
0 96 0
0 98 0
0 97 0
0 98 0
0 95 0
0 96 0
0 97 0
0 97 0
0 97 0
0 98 0
0 98 0
0 96 0
0 97 0
0 97 0
0 98 0
0 97 0
0 97 0
0 97 0
0 97 0
0 96 0
0 95 0
0 98 0
0 97 0
0 98 0
0 96 0
0 97 0
0 97 0
0 98 0
0 97 0
0 97 0
0 97 0
0 97 0
0 97 0
0 97 0
0 97 0
0 98 0
0 98 0
0 97 0
0 95 0
0 98 0
0 98 0
0 97 0
0 97 0
0 97 0
0 97 0
0 97 0
0 97 0
0 96 0
0 97 0
0 96 0
0 96 0
0 98 0
0 97 0
0 97 0
0 94 0
0 98 0
0 95 0
0 97 0
0 97 0
0 98 0
0 97 0
0 97 0
0 98 0
0 97 0
0 94 0
0 97 0
0 98 0
0 97 0
0 96 0
0 98 0
0 96 0
0 95 0
0 97 0
0 98 0
0 97 0
0 97 0
0 97 0
0 98 0
0 97 0
0 96 0
0 98 0
0 97 0
0 97 0
0 97 0
0 97 0
0 96 0
0 96 0
0 98 0
0 97 0
0 98 0
0 97 0
0 97 0
0 97 0
0 98 0
0 96 0
0 99 0
0 97 0
0 97 0
0 97 0
0 98 0
0 97 0
0 98 0
0 98 0
0 98 0
0 95 0
0 99 0
0 94 0
0 97 0
0 98 0
0 97 0
0 95 0
0 97 0
0 96 0
0 98 0
0 97 0
0 98 0
0 97 0
0 97 0
0 98 0
0 98 0
0 97 0
0 98 0
0 97 0
0 98 0
0 97 0
0 98 0
0 97 0
0 98 0
0 97 0
0 97 0
0 98 0
0 97 0
0 97 0
0 98 0
0 98 0
0 97 0
0 97 0
0 98 0
0 97 0
0 99 0
0 97 0
0 98 0
0 98 0
0 98 0
0 98 0
0 97 0
0 97 0
0 97 0
0 97 0
0 97 0
0 97 0
0 96 0
0 98 0
0 97 0
0 98 0
0 98 0
0 96 0
0 97 0
0 98 0
0 98 0
0 97 0
0 98 0
0 97 0
0 98 0
0 97 0
0 98 0
0 97 0
0 98 0
0 98 0
0 98 0
0 98 0
0 96 0
0 96 0
0 97 0
0 97 0
0 98 0
0 98 0
0 98 0
0 97 0
0 98 0
0 97 0
0 99 0
0 98 0
0 98 0
0 98 0
0 98 0
0 98 0
0 98 0
0 97 0
0 98 0
0 97 0
0 97 0
0 98 0
0 98 0
0 98 0
0 98 0
0 98 0
0 98 0
0 98 0
0 98 0
0 98 0
0 97 0
0 98 0
0 97 0
0 98 0
0 98 0
0 98 0
0 98 0
0 97 0
0 98 0
0 98 0
0 99 0
0 98 0
0 98 0
0 97 0
0 97 0
0 97 0
0 96 0
0 98 0
0 97 0
0 97 0
0 98 0
0 97 0
0 99 0
0 98 0
0 98 0
0 98 0
0 97 0
0 98 0
0 98 0
0 97 0
0 98 0
0 99 0
0 99 0
0 98 0
0 97 0
0 97 0
0 97 0
0 97 0
0 98 0
0 97 0
0 97 0
0 98 0
0 97 0
0 97 0
0 99 0
0 98 0
0 98 0
0 98 0
0 98 0
0 98 0
0 98 0
0 98 0
0 97 0
0 98 0
0 97 0
0 98 0
0 97 0
0 98 0
0 98 0
0 98 0
0 98 0
0 98 0
0 98 0
0 97 0
0 97 0
0 98 0
0 97 0
0 98 0
0 98 0
0 97 0
0 98 0
0 97 0
0 99 0
0 97 0
0 98 0
0 96 0
0 97 0
0 96 0
0 98 0
0 97 0
0 98 0
0 98 0
0 98 0
0 97 0
0 98 0
0 98 0
0 97 0
0 97 0
0 98 0
0 97 0
0 98 0
0 98 0
0 99 0
0 97 0
0 98 0
0 97 0
0 97 0
0 99 0
0 96 0
0 97 0
0 97 0
0 98 0
0 96 0
0 97 0
0 97 0
0 98 0
0 98 0
0 98 0
0 97 0
0 97 0
0 97 0
0 98 0
0 98 0
0 98 0
0 99 0
0 98 0
0 97 0
0 97 0
0 98 0
0 97 0
0 97 0
0 95 0
0 97 0
0 97 0
0 97 0
0 98 0
0 97 0
0 95 0
0 97 0
0 97 0
0 97 0
0 97 0
0 98 0
0 97 0
0 98 0
0 97 0
0 97 0
0 99 0
0 96 0
0 96 0
0 98 0
0 98 0
0 98 0
0 97 0
0 96 0
0 96 0
0 98 0
0 97 0
0 97 0
0 95 0
0 97 0
0 97 0
0 97 0
0 97 0
0 98 0
0 97 0
0 97 0
0 95 0
0 96 0
0 96 0
0 97 0
0 97 0
0 98 0
0 95 0
0 99 0
0 96 0
0 96 0
0 98 0
0 99 0
0 97 0
0 96 0
0 98 0
0 97 0
0 96 0
0 97 0
0 97 0
0 96 0
0 95 0
0 97 0
0 97 0
0 97 0
0 98 0
0 96 0
0 97 0
0 96 0
0 96 0
0 97 0
0 98 0
0 97 0
0 97 0
0 96 0
0 97 0
0 98 0
0 97 0
0 98 0
0 97 0
0 97 0
0 96 0
0 98 0
0 97 0
0 97 0
0 97 0
0 96 0
0 97 0
0 97 0
0 98 0
0 97 0
0 98 0
0 97 0
0 97 0
0 97 0
0 96 0
0 96 0
0 98 0
0 98 0
0 97 0
0 97 0
0 96 0
0 98 0
0 98 0
0 97 0
0 97 0
0 97 0
0 97 0
0 97 0
0 96 0
0 97 0
0 98 0
0 98 0
0 97 0
0 97 0
0 98 0
0 98 0
0 96 0
0 97 0
0 98 0
0 96 0
0 98 0
0 97 0
0 97 0
0 96 0
0 98 0
0 97 0
0 97 0
0 95 0
0 96 0
0 98 0
0 97 0
0 97 0
0 96 0
0 97 0
0 98 0
0 95 0
0 97 0
0 96 0
0 96 0
0 97 0
0 97 0
0 98 0
0 96 0
0 98 0
0 97 0
0 98 0
0 97 0
0 97 0
0 96 0
0 97 0
0 97 0
0 96 0
0 98 0
0 97 0
0 97 0
0 96 0
0 97 0
0 96 0
0 97 0
0 97 0
0 97 0
0 98 0
0 97 0
0 97 0
0 96 0
0 97 0
0 96 0
0 99 0
0 98 0
0 97 0
0 96 0
0 97 0
0 98 0
0 96 0
0 97 0
0 97 0
0 97 0
0 97 0
0 97 0
0 98 0
0 97 0
0 96 0
0 98 0
0 96 0
0 98 0
0 98 0
0 97 0
0 96 0
0 98 0
0 97 0
0 97 0
0 98 0
0 96 0
0 97 0
0 98 0
0 98 0
0 96 0
0 97 0
0 97 0
0 97 0
0 95 0
0 97 0
0 97 0
0 98 0
0 97 0
0 97 0
0 99 0
0 98 0
0 97 0
0 98 0
0 96 0
0 97 0
0 98 0
0 97 0
0 96 0
0 97 0
0 95 0
0 97 0
0 97 0
0 97 0
0 97 0
0 97 0
0 97 0
0 99 0
0 97 0
0 96 0
0 97 0
0 97 0
0 98 0
0 98 0
0 98 0
0 98 0
0 99 0
0 98 0
0 97 0
0 98 0
0 96 0
0 97 0
0 98 0
0 98 0
0 97 0
0 97 0
0 98 0
0 98 0
0 98 0
0 99 0
0 97 0
0 97 0
0 98 0
0 98 0
0 97 0
0 98 0
0 98 0
0 96 0
0 98 0
0 98 0
0 98 0
0 98 0
0 97 0
0 98 0
0 98 0
0 97 0
0 99 0
0 99 0
0 98 0
0 98 0
0 97 0
0 98 0
0 98 0
0 98 0
0 96 0
0 98 0
0 97 0
0 98 0
0 97 0
0 97 0
0 97 0
0 97 0
0 97 0
0 98 0
0 98 0
0 97 0
0 98 0
0 97 0
0 98 0
0 98 0
0 98 0
0 98 0
0 97 0
0 99 0
0 98 0
0 96 0
0 98 0
0 97 0
0 97 0
0 97 0
0 97 0
0 98 0
0 97 0
0 98 0
0 98 0
0 97 0
0 97 0
0 97 0
0 98 0
0 98 0
0 97 0
0 98 0
0 97 0
0 97 0
0 98 0
0 97 0
0 98 0
0 98 0
0 98 0
0 98 0
0 98 0
0 99 0
0 98 0
0 98 0
0 98 0
0 97 0
0 98 0
0 98 0
0 98 0
0 98 0
0 97 0
0 98 0
0 97 0
0 97 0
0 97 0
0 98 0
0 99 0
0 97 0
0 98 0
0 98 0
0 98 0
0 98 0
0 99 0
0 99 0
0 97 0
0 97 0
0 98 0
0 97 0
0 99 0
0 98 0
0 97 0
0 98 0
0 98 0
0 97 0
0 98 0
0 97 0
0 97 0
0 98 0
0 98 0
0 98 0
0 97 0
0 97 0
0 98 0
0 98 0
0 98 0
0 96 0
0 98 0
0 98 0
0 97 0
0 98 0
0 98 0
0 98 0
0 98 0
0 98 0
0 98 0
0 97 0
0 97 0
0 98 0
0 97 0
0 97 0
0 97 0
0 97 0
0 97 0
0 97 0
0 98 0
0 97 0
0 97 0
0 98 0
0 98 0
0 96 0
0 98 0
0 98 0
0 98 0
0 97 0
0 97 0
0 97 0
0 98 0
0 98 0
0 99 0
0 98 0
0 98 0
0 98 0
0 98 0
0 97 0
0 97 0
0 97 0
0 97 0
0 97 0
0 96 0
0 96 0
0 98 0
0 97 0
0 97 0
0 97 0
0 96 0
0 97 0
0 98 0
0 96 0
0 97 0
0 98 0
0 98 0
0 98 0
0 98 0
0 97 0
0 98 0
0 98 0
0 98 0
0 97 0
0 95 0
0 97 0
0 99 0
0 98 0
0 96 0
0 98 0
0 97 0
0 98 0
0 97 0
0 98 0
0 96 0
0 97 0
0 98 0
0 96 0
0 99 0
0 98 0
0 98 0
0 97 0
0 98 0
0 97 0
0 97 0
0 96 0
0 96 0
0 98 0
0 98 0
0 98 0
0 98 0
0 96 0
0 97 0
0 98 0
0 98 0
0 97 0
0 98 0
0 97 0
0 98 0
0 97 0
0 97 0
0 95 0
0 97 0
0 97 0
0 97 0
0 98 0
0 96 0
0 97 0
0 97 0
0 97 0
0 96 0
0 98 0
0 97 0
0 97 0
0 97 0
0 96 0
0 97 0
0 98 0
0 97 0
0 98 0
0 98 0
0 96 0
0 96 0
0 98 0
0 98 0
0 98 0
0 96 0
0 97 0
0 97 0
0 97 0
0 98 0
0 98 0
0 97 0
0 97 0
0 96 0
0 98 0
0 95 0
0 97 0
0 98 0
0 97 0
0 95 0
0 95 0
0 96 0
0 98 0
0 97 0
0 98 0
0 97 0
0 96 0
0 98 0
0 97 0
0 97 0
0 97 0
0 96 0
0 98 0
0 98 0
0 97 0
0 96 0
0 97 0
0 97 0
0 97 0
0 95 0
0 98 0
0 96 0
0 98 0
0 98 0
0 96 0
0 98 0
0 98 0
0 98 0
0 97 0
0 97 0
0 96 0
0 97 0
0 98 0
0 97 0
0 97 0
0 97 0
0 97 0
0 98 0
0 98 0
0 96 0
0 97 0
0 97 0
0 98 0
0 96 0
0 96 0
0 96 0
0 95 0
0 96 0
0 98 0
0 96 0
0 96 0
0 97 0
0 97 0
0 96 0
0 97 0
0 98 0
0 99 0
0 98 0
0 97 0
0 96 0
0 97 0
0 97 0
0 98 0
0 96 0
0 97 0
0 98 0
0 95 0
0 97 0
0 98 0
0 98 0
0 97 0
0 97 0
0 96 0
0 97 0
0 98 0
0 97 0
0 96 0
0 97 0
0 96 0
0 97 0
0 98 0
0 96 0
0 98 0
0 95 0
0 98 0
0 98 0
0 97 0
0 96 0
0 97 0
0 97 0
0 97 0
0 97 0
0 96 0
0 97 0
0 97 0
0 97 0
0 97 0
0 97 0
0 96 0
0 98 0
0 97 0
0 96 0
0 97 0
0 98 0
0 97 0
0 96 0
0 98 0
0 97 0
0 97 0
0 97 0
0 98 0
0 97 0
0 99 0
0 96 0
0 98 0
0 98 0
0 97 0
0 97 0
0 96 0
0 98 0
0 97 0
0 96 0
0 98 0
0 98 0
0 97 0
0 97 0
0 97 0
0 97 0
0 98 0
0 98 0
0 97 0
0 98 0
0 97 0
0 97 0
0 98 0
0 97 0
0 97 0
0 97 0
0 98 0
0 97 0
0 97 0
0 98 0
0 97 0
0 97 0
0 97 0
0 98 0
0 98 0
0 97 0
0 98 0
0 98 0
0 98 0
0 97 0
0 99 0
0 96 0
0 97 0
0 98 0
0 98 0
0 98 0
0 97 0
0 98 0
0 99 0
0 96 0
0 97 0
0 97 0
0 98 0
0 98 0
0 98 0
0 98 0
0 98 0
0 98 0
0 98 0
0 98 0
0 98 0
0 97 0
0 97 0
0 98 0
0 98 0
0 98 0
0 99 0
0 98 0
0 97 0
0 97 0
0 98 0
0 98 0
0 98 0
0 98 0
0 98 0
0 98 0
0 98 0
0 97 0
0 96 0
0 97 0
0 97 0
0 98 0
0 98 0
0 98 0
0 98 0
0 98 0
0 98 0
0 98 0
0 98 0
0 97 0
0 96 0
0 98 0
0 98 0
0 97 0
0 99 0
0 98 0
0 98 0
0 97 0
0 98 0
0 99 0
0 97 0
0 98 0
0 98 0
0 97 0
0 98 0
0 97 0
0 97 0
0 98 0
0 98 0
0 97 0
0 98 0
0 98 0
0 98 0
0 98 0
0 97 0
0 97 0
0 98 0
0 97 0
0 98 0
0 99 0
0 98 0
0 99 0
0 97 0
0 98 0
0 98 0
0 97 0
0 97 0
0 98 0
0 97 0
0 98 0
0 99 0
0 98 0
0 98 0
0 98 0
0 97 0
0 98 0
0 98 0
0 98 0
0 98 0
0 98 0
0 98 0
0 99 0
0 97 0
0 97 0
0 97 0
0 96 0
0 96 0
0 98 0
0 97 0
0 97 0
0 98 0
0 96 0
0 97 0
0 96 0
0 99 0
0 97 0
0 98 0
0 98 0
0 98 0
0 97 0
0 96 0
0 97 0
0 97 0
0 98 0
0 98 0
0 99 0
0 96 0
0 97 0
0 98 0
0 98 0
0 98 0
0 97 0
0 96 0
0 97 0
0 98 0
0 97 0
0 97 0
0 98 0
0 98 0
0 98 0
0 98 0
0 97 0
0 98 0
0 98 0
0 97 0
0 97 0
0 97 0
0 98 0
0 97 0
0 98 0
0 98 0
0 97 0
0 97 0
0 97 0
0 97 0
0 99 0
0 97 0
0 97 0
0 97 0
0 98 0
0 98 0
0 97 0
0 97 0
0 98 0
0 97 0
0 97 0
0 97 0
0 97 0
0 98 0
0 97 0
0 97 0
0 97 0
0 97 0
0 98 0
0 97 0
0 98 0
0 97 0
0 97 0
0 98 0
0 95 0
0 97 0
0 98 0
0 97 0
0 97 0
0 96 0
0 97 0
0 96 0
0 96 0
0 97 0
0 97 0
0 96 0
0 98 0
0 98 0
0 97 0
0 97 0
0 95 0
0 95 0
0 98 0
0 98 0
0 98 0
0 98 0
0 97 0
0 98 0
0 95 0
0 96 0
0 96 0
0 95 0
0 97 0
0 95 0
0 98 0
0 97 0
0 97 0
0 98 0
0 98 0
0 97 0
0 96 0
0 97 0
0 98 0
0 98 0
0 96 0
0 98 0
0 97 0
0 98 0
0 96 0
0 97 0
0 97 0
0 97 0
0 96 0
0 98 0
0 97 0
0 98 0
0 97 0
0 96 0
0 97 0
0 97 0
0 98 0
0 98 0
0 98 0
0 98 0
0 98 0
0 96 0
0 97 0
0 96 0
0 97 0
0 97 0
0 98 0
0 99 0
0 98 0
0 97 0
0 97 0
0 98 0
0 98 0
0 95 0
0 93 0
0 96 0
0 98 0
0 97 0
0 97 0
0 98 0
0 97 0
0 96 0
0 98 0
0 98 0
0 98 0
0 96 0
0 98 0
0 97 0
0 96 0
0 97 0
0 97 0
0 97 0
0 97 0
0 97 0
0 98 0
0 96 0
0 98 0
0 95 0
0 98 0
0 97 0
0 97 0
0 97 0
0 96 0
0 97 0
0 96 0
0 98 0
0 97 0
0 98 0
0 96 0
0 97 0
0 97 0
0 96 0
0 98 0
0 95 0
0 97 0
0 97 0
0 98 0
0 98 0
0 98 0
0 98 0
0 98 0
0 97 0
0 97 0
0 99 0
0 98 0
0 95 0
0 97 0
0 96 0
0 97 0
0 97 0
0 97 0
0 94 0
0 97 0
0 96 0
0 97 0
0 97 0
0 98 0
0 98 0
0 98 0
0 98 0
0 97 0
0 98 0
0 98 0
0 96 0
0 96 0
0 98 0
0 97 0
0 98 0
0 97 0
0 98 0
0 97 0
0 96 0
0 97 0
0 97 0
0 97 0
0 98 0
0 98 0
0 97 0
0 98 0
0 97 0
0 97 0
0 98 0
0 96 0
0 98 0
0 98 0
0 97 0
0 96 0
0 96 0
0 99 0
0 96 0
0 98 0
0 98 0
0 99 0
0 97 0
0 97 0
0 97 0
0 97 0
0 97 0
0 97 0
0 94 0
0 98 0
0 98 0
0 98 0
0 98 0
0 96 0
0 98 0
0 99 0
0 97 0
0 98 0
0 96 0
0 97 0
0 97 0
0 96 0
0 98 0
0 98 0
0 98 0
0 97 0
0 98 0
0 97 0
0 97 0
0 98 0
0 98 0
0 97 0
0 98 0
0 97 0
0 96 0
0 97 0
0 97 0
0 98 0
0 97 0
0 97 0
0 97 0
0 98 0
0 99 0
0 97 0
0 97 0
0 97 0
0 96 0
0 97 0
0 98 0
0 97 0
0 98 0
0 98 0
0 98 0
0 98 0
0 96 0
0 97 0
0 97 0
0 97 0
0 99 0
0 97 0
0 97 0
0 97 0
0 98 0
0 97 0
0 97 0
0 98 0
0 99 0
0 97 0
0 98 0
0 98 0
0 96 0
0 98 0
0 97 0
0 98 0
0 97 0
0 98 0
0 97 0
0 97 0
0 98 0
0 97 0
0 98 0
0 97 0
0 98 0
0 98 0
0 98 0
0 97 0
0 98 0
0 98 0
0 99 0
0 97 0
0 98 0
0 98 0
0 98 0
0 98 0
0 96 0
0 99 0
0 97 0
0 98 0
0 97 0
0 96 0
0 98 0
0 98 0
0 97 0
0 96 0
0 98 0
0 98 0
0 98 0
0 98 0
0 97 0
0 96 0
0 98 0
0 99 0
0 98 0
0 99 0
0 99 0
0 98 0
0 97 0
0 98 0
0 98 0
0 97 0
0 98 0
0 98 0
0 98 0
0 98 0
0 98 0
0 97 0
0 96 0
0 99 0
0 98 0
0 98 0
0 97 0
0 98 0
0 98 0
0 97 0
0 98 0
0 98 0
0 98 0
0 98 0
0 98 0
0 97 0
0 97 0
0 98 0
0 98 0
0 98 0
0 98 0
0 96 0
0 97 0
0 96 0
0 97 0
0 99 0
0 97 0
0 97 0
0 97 0
0 97 0
0 97 0
0 97 0
0 96 0
0 97 0
0 97 0
0 99 0
0 97 0
0 98 0
0 98 0
0 98 0
0 98 0
0 97 0
0 98 0
0 97 0
0 97 0
0 98 0
0 98 0
0 98 0
0 98 0
0 99 0
0 98 0
0 97 0
0 97 0
0 98 0
0 96 0
0 98 0
0 98 0
0 99 0
0 99 0
0 98 0
0 96 0
0 96 0
0 98 0
0 97 0
0 97 0
0 99 0
0 97 0
0 97 0
0 96 0
0 97 0
0 97 0
0 97 0
0 98 0
0 98 0
0 96 0
0 98 0
0 97 0
0 96 0
0 97 0
0 97 0
0 98 0
0 96 0
0 98 0
0 97 0
0 97 0
0 98 0
0 96 0
0 98 0
0 98 0
0 96 0
0 96 0
0 98 0
0 96 0
0 98 0
0 96 0
0 97 0
0 97 0
0 96 0
0 98 0
0 98 0
0 97 0
0 97 0
0 96 0
0 97 0
0 98 0
0 95 0
0 96 0
0 95 0
0 98 0
0 97 0
0 97 0
0 98 0
0 99 0
0 97 0
0 98 0
0 97 0
0 96 0
0 98 0
0 98 0
0 98 0
0 97 0
0 97 0
0 97 0
0 97 0
0 97 0
0 97 0
0 98 0
0 97 0
0 96 0
0 98 0
0 97 0
0 95 0
0 98 0
0 97 0
0 96 0
0 98 0
0 96 0
0 98 0
0 95 0
0 98 0
0 98 0
0 97 0
0 98 0
0 97 0
0 98 0
0 97 0
0 98 0
0 96 0
0 95 0
0 97 0
0 98 0
0 98 0
0 96 0
0 95 0
0 97 0
0 96 0
0 97 0
0 98 0
0 97 0
0 97 0
0 97 0
0 96 0
0 95 0
0 97 0
0 95 0
0 97 0
0 96 0
0 98 0
0 96 0
0 97 0
0 95 0
0 98 0
0 96 0
0 96 0
0 97 0
0 97 0
0 97 0
0 97 0
0 96 0
0 96 0
0 96 0
0 98 0
0 97 0
0 98 0
0 96 0
0 97 0
0 97 0
0 97 0
0 95 0
0 97 0
0 97 0
0 99 0
0 95 0
0 98 0
0 98 0
0 98 0
0 98 0
0 98 0
0 97 0
0 97 0
0 98 0
0 96 0
0 98 0
0 96 0
0 97 0
0 97 0
0 98 0
0 97 0
0 97 0
0 98 0
0 97 0
0 96 0
0 98 0
0 98 0
0 97 0
0 97 0
0 98 0
0 97 0
0 98 0
0 96 0
0 95 0
0 97 0
0 97 0
0 97 0
0 98 0
0 98 0
0 98 0
0 96 0
0 97 0
0 97 0
0 97 0
0 97 0
0 97 0
0 97 0
0 97 0
0 98 0
0 98 0
0 98 0
0 96 0
0 97 0
0 96 0
0 98 0
0 97 0
0 97 0
0 96 0
0 96 0
0 98 0
0 96 0
0 97 0
0 97 0
0 97 0
0 97 0
0 97 0
0 97 0
0 98 0
0 97 0
0 97 0
0 99 0
0 98 0
0 97 0
0 97 0
0 97 0
0 96 0
0 97 0
0 96 0
0 96 0
0 98 0
0 97 0
0 97 0
0 95 0
0 97 0
0 97 0
0 97 0
0 98 0
0 97 0
0 97 0
0 99 0
0 98 0
0 98 0
0 96 0
0 98 0
0 98 0
0 98 0
0 98 0
0 97 0
0 96 0
0 98 0
0 96 0
0 97 0
0 97 0
0 97 0
0 97 0
0 97 0
0 97 0
0 97 0
0 98 0
0 96 0
0 97 0
0 98 0
0 97 0
0 98 0
0 97 0
0 98 0
0 97 0
0 97 0
0 98 0
0 97 0
0 96 0
0 98 0
0 98 0
0 97 0
0 98 0
0 98 0
0 98 0
0 98 0
0 97 0
0 98 0
0 98 0
0 97 0
0 97 0
0 98 0
0 97 0
0 98 0
0 98 0
0 98 0
0 98 0
0 97 0
0 98 0
0 98 0
0 98 0
0 98 0
0 98 0
0 97 0
0 97 0
0 98 0
0 98 0
0 98 0
0 97 0
0 98 0
0 98 0
0 98 0
0 98 0
0 98 0
0 96 0
0 98 0
0 97 0
0 97 0
0 97 0
0 98 0
0 98 0
0 97 0
0 98 0
0 97 0
0 98 0
0 97 0
0 97 0
0 97 0
0 98 0
0 98 0
0 99 0
0 98 0
0 98 0
0 98 0
0 96 0
0 97 0
0 99 0
0 97 0
0 98 0
0 97 0
0 97 0
0 98 0
0 98 0
0 97 0
0 97 0
0 99 0
0 98 0
0 98 0
0 98 0
0 99 0
0 98 0
0 99 0
0 99 0
0 98 0
0 97 0
0 98 0
0 98 0
0 98 0
0 98 0
0 98 0
0 97 0
0 97 0
0 98 0
0 97 0
0 98 0
0 97 0
0 97 0
0 98 0
0 98 0
0 98 0
0 97 0
0 97 0
0 95 0
0 98 0
0 99 0
0 98 0
0 96 0
0 99 0
0 98 0
0 97 0
0 96 0
0 98 0
0 97 0
0 98 0
0 98 0
0 98 0
0 98 0
0 98 0
0 98 0
0 99 0
0 99 0
0 97 0
0 98 0
0 99 0
0 97 0
0 98 0
0 98 0
0 98 0
0 98 0
0 97 0
0 99 0
0 97 0
0 98 0
0 98 0
0 98 0
0 96 0
0 98 0
0 97 0
0 98 0
0 98 0
0 97 0
0 97 0
0 96 0
0 98 0
0 97 0
0 98 0
0 97 0
0 98 0
0 98 0
0 98 0
0 98 0
0 99 0
0 98 0
0 98 0
0 98 0
0 98 0
0 96 0
0 98 0
0 98 0
0 98 0
0 97 0
0 98 0
0 98 0
0 97 0
0 98 0
0 98 0
0 98 0
0 97 0
0 98 0
0 98 0
0 98 0
0 98 0
0 98 0
0 97 0
0 96 0
0 97 0
0 98 0
0 98 0
0 98 0
0 98 0
0 98 0
0 98 0
0 97 0
0 98 0
0 98 0
0 97 0
0 98 0
0 98 0
0 97 0
0 98 0
0 99 0
0 96 0
0 97 0
0 97 0
0 96 0
0 97 0
0 98 0
0 95 0
0 98 0
0 98 0
0 96 0
0 98 0
0 96 0
0 97 0
0 98 0
0 98 0
0 96 0
0 96 0
0 97 0
0 98 0
0 97 0
0 96 0
0 96 0
0 97 0
0 97 0
0 96 0
0 97 0
0 99 0
0 96 0
0 96 0
0 98 0
0 96 0
0 98 0
0 97 0
0 96 0
0 98 0
0 96 0
0 97 0
0 97 0
0 96 0
0 98 0
0 98 0
0 98 0
0 97 0
0 97 0
0 98 0
0 96 0
0 97 0
0 96 0
0 98 0
0 96 0
0 98 0
0 97 0
0 96 0
0 96 0
0 97 0
0 97 0
0 97 0
0 98 0
0 98 0
0 97 0
0 97 0
0 97 0
0 96 0
0 98 0
0 96 0
0 97 0
0 97 0
0 95 0
0 98 0
0 98 0
0 98 0
0 98 0
0 96 0
0 97 0
0 97 0
0 97 0
0 96 0
0 94 0
0 98 0
0 98 0
0 98 0
0 97 0
0 98 0
0 97 0
0 97 0
0 97 0
0 96 0
0 96 0
0 98 0
0 97 0
0 97 0
0 96 0
0 96 0
0 96 0
0 97 0
0 97 0
0 97 0
0 98 0
0 97 0
0 96 0
0 96 0
0 98 0
0 98 0
0 97 0
0 96 0
0 98 0
0 97 0
0 98 0
0 98 0
0 98 0
0 97 0
0 98 0
0 98 0
0 97 0
0 96 0
0 97 0
0 98 0
0 96 0
0 98 0
0 97 0
0 95 0
0 97 0
0 96 0
0 96 0
0 97 0
0 96 0
0 98 0
0 99 0
0 97 0
0 98 0
0 96 0
0 97 0
0 98 0
0 98 0
0 97 0
0 97 0
0 98 0
0 99 0
0 98 0
0 97 0
0 97 0
0 97 0
0 98 0
0 98 0
0 98 0
0 97 0
0 98 0
0 97 0
0 96 0
0 97 0
0 97 0
0 97 0
0 97 0
0 96 0
0 98 0
0 97 0
0 96 0
0 97 0
0 98 0
0 97 0
0 97 0
0 98 0
0 98 0
0 97 0
0 97 0
0 97 0
0 97 0
0 98 0
0 96 0
0 97 0
0 98 0
0 97 0
0 99 0
0 98 0
0 97 0
0 98 0
0 97 0
0 97 0
0 97 0
0 97 0
0 99 0
0 96 0
0 98 0
0 97 0
0 97 0
0 97 0
0 98 0
0 97 0
0 96 0
0 98 0
0 98 0
0 97 0
0 98 0
0 98 0
0 97 0
0 97 0
0 98 0
0 98 0
0 97 0
0 96 0
0 98 0
0 98 0
0 96 0
0 98 0
0 98 0
0 97 0
0 99 0
0 97 0
0 97 0
0 98 0
0 97 0
0 96 0
0 97 0
0 98 0
0 97 0
0 98 0
0 98 0
0 97 0
0 97 0
0 97 0
0 97 0
0 99 0
0 98 0
0 99 0
0 97 0
0 98 0
0 97 0
0 98 0
0 97 0
0 96 0
0 97 0
0 97 0
0 95 0
0 97 0
0 97 0
0 97 0
0 98 0
0 98 0
0 97 0
0 97 0
0 97 0
0 98 0
0 99 0
0 99 0
0 98 0
0 98 0
0 99 0
0 98 0
0 97 0
0 99 0
0 99 0
0 97 0
0 98 0
0 97 0
0 98 0
0 98 0
0 98 0
0 97 0
0 97 0
0 98 0
0 98 0
0 97 0
0 98 0
0 97 0
0 98 0
0 98 0
0 97 0
0 98 0
0 97 0
0 97 0
0 98 0
0 98 0
0 98 0
0 98 0
0 98 0
0 98 0
0 97 0
0 97 0
0 98 0
0 98 0
0 98 0
0 98 0
0 97 0
0 96 0
0 98 0
0 97 0
0 98 0
0 99 0
0 97 0
0 98 0
0 97 0
0 98 0
0 98 0
0 98 0
0 98 0
0 98 0
0 97 0
0 97 0
0 97 0
0 97 0
0 97 0
0 97 0
0 97 0
0 99 0
0 98 0
0 98 0
0 97 0
0 98 0
0 96 0
0 98 0
0 98 0
0 98 0
0 97 0
0 97 0
0 97 0
0 97 0
0 98 0
0 98 0
0 98 0
0 97 0
0 98 0
0 98 0
0 97 0
0 96 0
0 98 0
0 97 0
0 98 0
0 98 0
0 98 0
0 97 0
0 98 0
0 98 0
0 98 0
0 98 0
0 98 0
0 98 0
0 98 0
0 98 0
0 97 0
0 98 0
0 98 0
0 98 0
0 98 0
0 98 0
0 98 0
0 98 0
0 97 0
0 97 0
0 98 0
0 98 0
0 98 0
0 97 0
0 98 0
0 98 0
0 98 0
0 97 0
0 97 0
0 97 0
0 97 0
0 98 0
0 98 0
0 97 0
0 97 0
0 97 0
0 97 0
0 99 0
0 98 0
0 96 0
0 98 0
0 96 0
0 98 0
0 98 0
0 97 0
0 98 0
0 98 0
0 98 0
0 98 0
0 98 0
0 98 0
0 99 0
0 98 0
0 97 0
0 99 0
0 97 0
0 98 0
0 97 0
0 97 0
0 96 0
0 98 0
0 98 0
0 97 0
0 98 0
0 96 0
0 97 0
0 99 0
0 97 0
0 97 0
0 97 0
0 98 0
0 97 0
0 98 0
0 98 0
0 97 0
0 97 0
0 96 0
0 96 0
0 98 0
0 98 0
0 96 0
0 98 0
0 95 0
0 98 0
0 96 0
0 95 0
0 98 0
0 98 0
0 96 0
0 95 0
0 97 0
0 97 0
0 98 0
0 98 0
0 96 0
0 97 0
0 98 0
0 97 0
0 97 0
0 97 0
0 98 0
0 97 0
0 97 0
0 96 0
0 98 0
0 97 0
0 95 0
0 97 0
0 96 0
0 96 0
0 97 0
0 96 0
0 98 0
0 97 0
0 98 0
0 97 0
0 97 0
0 96 0
0 97 0
0 96 0
0 97 0
0 97 0
0 96 0
0 97 0
0 97 0
0 97 0
0 98 0
0 97 0
0 95 0
0 96 0
0 97 0
0 97 0
0 96 0
0 97 0
0 98 0
0 96 0
0 97 0
0 97 0
0 98 0
0 98 0
0 97 0
0 97 0
0 97 0
0 96 0
0 97 0
0 97 0
0 97 0
0 97 0
0 97 0
0 97 0
0 97 0
0 95 0
0 98 0
0 96 0
0 96 0
0 97 0
0 97 0
0 98 0
0 97 0
0 97 0
0 97 0
0 96 0
0 97 0
0 96 0
0 97 0
0 98 0
0 97 0
0 97 0
0 97 0
0 98 0
0 96 0
0 96 0
0 97 0
0 98 0
0 97 0
0 99 0
0 98 0
0 98 0
0 96 0
0 97 0
0 97 0
0 98 0
0 98 0
0 99 0
0 96 0
0 97 0
0 96 0
0 97 0
0 96 0
0 98 0
0 96 0
0 97 0
0 96 0
0 97 0
0 96 0
0 97 0
0 97 0
0 98 0
0 97 0
0 96 0
0 97 0
0 96 0
0 97 0
0 98 0
0 98 0
0 98 0
0 98 0
0 97 0
0 98 0
0 98 0
0 97 0
0 98 0
0 97 0
0 97 0
0 96 0
0 97 0
0 98 0
0 97 0
0 98 0
0 98 0
0 96 0
0 97 0
0 97 0
0 97 0
0 98 0
0 97 0
0 97 0
0 96 0
0 98 0
0 97 0
0 98 0
0 98 0
0 97 0
0 98 0
0 96 0
0 98 0
0 98 0
0 97 0
0 98 0
0 98 0
0 97 0
0 98 0
0 98 0
0 96 0
0 98 0
0 96 0
0 97 0
0 97 0
0 97 0
0 98 0
0 97 0
0 97 0
0 97 0
0 98 0
0 97 0
0 98 0
0 97 0
0 97 0
0 98 0
0 97 0
0 96 0
0 97 0
0 99 0
0 98 0
0 97 0
0 98 0
0 97 0
0 96 0
0 98 0
0 97 0
0 98 0
0 96 0
0 98 0
0 98 0
0 97 0
0 97 0
0 98 0
0 96 0
0 97 0
0 98 0
0 97 0
0 97 0
0 98 0
0 96 0
0 98 0
0 98 0
0 97 0
0 98 0
0 97 0
0 98 0
0 97 0
0 97 0
0 98 0
0 97 0
0 97 0
0 97 0
0 97 0
0 97 0
0 96 0
0 96 0
0 96 0
0 98 0
0 95 0
0 97 0
0 98 0
0 98 0
0 98 0
0 97 0
0 97 0
0 96 0
0 98 0
0 97 0
0 98 0
0 98 0
0 97 0
0 98 0
0 98 0
0 97 0
0 97 0
0 98 0
0 98 0
0 97 0
0 98 0
0 97 0
0 98 0
0 97 0
0 98 0
0 98 0
0 97 0
0 98 0
0 98 0
0 98 0
0 98 0
0 96 0
0 98 0
0 97 0
0 97 0
0 97 0
0 99 0
0 97 0
0 97 0
0 98 0
0 98 0
0 96 0
0 98 0
0 98 0
0 96 0
0 97 0
0 98 0
0 98 0
0 98 0
0 98 0
0 98 0
0 98 0
0 97 0
0 98 0
0 98 0
0 98 0
0 98 0
0 98 0
0 97 0
0 98 0
0 98 0
0 95 0
0 98 0
0 98 0
0 99 0
0 99 0
0 98 0
0 98 0
0 98 0
0 98 0
0 98 0
0 96 0
0 98 0
0 97 0
0 98 0
0 98 0
0 98 0
0 99 0
0 99 0
0 97 0
0 98 0
0 98 0
0 97 0
0 98 0
0 97 0
0 98 0
0 97 0
0 98 0
0 98 0
0 98 0
0 96 0
0 98 0
0 98 0
0 99 0
0 98 0
0 97 0
0 97 0
0 97 0
0 97 0
0 98 0
0 98 0
0 98 0
0 98 0
0 96 0
0 97 0
0 96 0
0 97 0
0 98 0
0 98 0
0 97 0
0 98 0
0 96 0
0 99 0
0 98 0
0 98 0
0 98 0
0 97 0
0 97 0
0 98 0
0 98 0
0 98 0
0 97 0
0 96 0
0 97 0
0 97 0
0 97 0
0 98 0
0 98 0
0 97 0
0 97 0
0 98 0
0 98 0
0 96 0
0 97 0
0 96 0
0 98 0
0 97 0
0 96 0
0 97 0
0 97 0
0 99 0
0 97 0
0 98 0
0 98 0
0 97 0
0 96 0
0 98 0
0 97 0
0 98 0
0 97 0
0 97 0
0 98 0
0 98 0
0 98 0
0 97 0
0 98 0
0 99 0
0 97 0
0 98 0
0 96 0
0 98 0
0 97 0
0 99 0
0 99 0
0 97 0
0 97 0
0 97 0
0 98 0
0 96 0
0 97 0
0 97 0
0 97 0
0 96 0
0 99 0
0 96 0
0 96 0
0 97 0
0 97 0
0 97 0
0 96 0
0 97 0
0 97 0
0 97 0
0 96 0
0 98 0
0 96 0
0 97 0
0 98 0
0 98 0
0 96 0
0 98 0
0 97 0
0 97 0
0 97 0
0 98 0
0 97 0
0 96 0
0 96 0
0 96 0
0 97 0
0 98 0
0 97 0
0 97 0
0 97 0
0 98 0
0 97 0
0 97 0
0 96 0
0 98 0
0 97 0
0 99 0
0 96 0
0 96 0
0 97 0
0 97 0
0 97 0
0 96 0
0 96 0
0 97 0
0 98 0
0 96 0
0 98 0
0 98 0
0 97 0
0 96 0
0 98 0
0 98 0
0 97 0
0 97 0
0 97 0
0 97 0
0 95 0
0 97 0
0 97 0
0 97 0
0 97 0
0 97 0
0 97 0
0 97 0
0 98 0
0 97 0
0 97 0
0 98 0
0 98 0
0 97 0
0 96 0
0 97 0
0 98 0
0 97 0
0 98 0
0 97 0
0 97 0
0 98 0
0 95 0
0 97 0
0 97 0
0 98 0
0 97 0
0 98 0
0 97 0
0 97 0
0 97 0
0 97 0
0 97 0
0 96 0
0 98 0
0 98 0
0 97 0
0 98 0
0 96 0
0 97 0
0 99 0
0 97 0
0 97 0
0 98 0
0 97 0
0 96 0
0 98 0
0 98 0
0 98 0
0 98 0
0 97 0
0 97 0
0 98 0
0 97 0
0 96 0
0 97 0
0 97 0
0 97 0
0 98 0
0 98 0
0 96 0
0 97 0
0 97 0
0 98 0
0 96 0
0 97 0
0 98 0
0 97 0
0 98 0
0 97 0
0 97 0
0 98 0
0 98 0
0 99 0
0 97 0
0 98 0
0 97 0
0 97 0
0 97 0
0 98 0
0 99 0
0 97 0
0 98 0
0 96 0
0 97 0
0 97 0
0 98 0
0 97 0
0 97 0
0 96 0
0 98 0
0 95 0
0 97 0
0 97 0
0 97 0
0 97 0
0 98 0
0 97 0
0 97 0
0 97 0
0 99 0
0 98 0
0 97 0
0 98 0
0 97 0
0 97 0
0 98 0
0 96 0
0 97 0
0 97 0
0 96 0
0 98 0
0 97 0
0 98 0
0 96 0
0 98 0
0 97 0
0 97 0
0 98 0
0 97 0
0 97 0
0 97 0
0 97 0
0 96 0
0 97 0
0 97 0
0 97 0
0 98 0
0 98 0
0 97 0
0 98 0
0 98 0
0 98 0
0 97 0
0 98 0
0 97 0
0 97 0
0 98 0
0 98 0
0 97 0
0 97 0
0 98 0
0 98 0
0 98 0
0 98 0
0 98 0
0 98 0
0 98 0
0 99 0
0 98 0
0 96 0
0 97 0
0 97 0
0 97 0
0 97 0
0 98 0
0 97 0
0 97 0
0 98 0
0 97 0
0 98 0
0 96 0
0 98 0
0 97 0
0 97 0
0 97 0
0 98 0
0 98 0
0 97 0
0 98 0
0 98 0
0 97 0
0 98 0
0 97 0
0 98 0
0 98 0
0 99 0
0 99 0
0 98 0
0 97 0
0 96 0
0 98 0
0 97 0
0 97 0
0 98 0
0 98 0
0 97 0
0 96 0
0 98 0
0 98 0
0 97 0
0 97 0
0 97 0
0 97 0
0 98 0
0 97 0
0 98 0
0 98 0
0 97 0
0 98 0
0 98 0
0 97 0
0 98 0
0 98 0
0 97 0
0 97 0
0 97 0
0 97 0
0 98 0
0 98 0
0 98 0
0 98 0
0 97 0
0 98 0
0 98 0
0 98 0
0 98 0
0 98 0
0 98 0
0 99 0
0 98 0
0 97 0
0 98 0
0 98 0
0 96 0
0 98 0
0 96 0
0 98 0
0 98 0
0 98 0
0 97 0
0 99 0
0 98 0
0 98 0
0 98 0
0 97 0
0 98 0
0 97 0
0 98 0
0 96 0
0 98 0
0 98 0
0 98 0
0 97 0
0 98 0
0 99 0
0 98 0
0 97 0
0 97 0
0 97 0
0 99 0
0 97 0
0 98 0
0 96 0
0 97 0
0 97 0
0 98 0
0 98 0
0 98 0
0 98 0
0 97 0
0 98 0
0 97 0
0 99 0
0 97 0
0 98 0
0 97 0
0 97 0
0 98 0
0 98 0
0 97 0
0 99 0
0 98 0
0 98 0
0 98 0
0 97 0
0 98 0
0 98 0
0 99 0
0 98 0
0 97 0
0 96 0
0 97 0
0 97 0
0 98 0
0 98 0
0 98 0
0 98 0
0 95 0
0 97 0
0 98 0
0 97 0
0 98 0
0 99 0
0 96 0
0 99 0
0 97 0
0 98 0
0 97 0
0 97 0
0 97 0
0 98 0
0 97 0
0 97 0
0 97 0
0 97 0
0 98 0
0 97 0
0 97 0
0 99 0
0 98 0
0 98 0
0 97 0
0 97 0
0 98 0
0 96 0
0 98 0
0 97 0
0 97 0
0 97 0
0 98 0
0 99 0
0 97 0
0 99 0
0 98 0
0 97 0
0 97 0
0 99 0
0 98 0
0 97 0
0 97 0
0 98 0
0 98 0
0 99 0
0 98 0
0 96 0
0 98 0
0 96 0
0 97 0
0 98 0
0 97 0
0 97 0
0 97 0
0 98 0
0 97 0
0 97 0
0 97 0
0 98 0
0 98 0
0 96 0
0 95 0
0 95 0
0 98 0
0 98 0
0 97 0
0 98 0
0 96 0
0 98 0
0 98 0
0 98 0
0 97 0
0 98 0
0 98 0
0 97 0
0 98 0
0 98 0
0 98 0
0 98 0
0 98 0
0 98 0
0 97 0
0 98 0
0 99 0
0 96 0
0 98 0
0 97 0
0 97 0
0 97 0
0 97 0
0 97 0
0 97 0
0 97 0
0 97 0
0 97 0
0 98 0
0 96 0
0 97 0
0 97 0
0 96 0
0 97 0
0 98 0
0 97 0
0 98 0
0 97 0
0 98 0
0 96 0
0 97 0
0 97 0
0 97 0
0 97 0
0 97 0
0 98 0
0 97 0
0 96 0
0 98 0
0 98 0
0 98 0
0 98 0
0 97 0
0 97 0
0 96 0
0 96 0
0 98 0
0 98 0
0 97 0
0 98 0
0 98 0
0 97 0
0 97 0
0 98 0
0 99 0
0 97 0
0 98 0
0 97 0
0 96 0
0 96 0
0 98 0
0 97 0
0 98 0
0 98 0
0 97 0
0 98 0
0 98 0
0 97 0
0 98 0
0 97 0
0 96 0
0 98 0
0 97 0
0 98 0
0 96 0
0 98 0
0 98 0
0 98 0
0 97 0
0 98 0
0 97 0
0 98 0
0 97 0
0 97 0
0 98 0
0 97 0
0 97 0
0 95 0
0 98 0
0 98 0
0 98 0
0 98 0
0 97 0
0 98 0
0 98 0
0 98 0
0 97 0
0 98 0
0 97 0
0 97 0
0 97 0
0 97 0
0 94 0
0 96 0
0 97 0
0 97 0
0 97 0
0 98 0
0 98 0
0 97 0
0 97 0
0 97 0
0 98 0
0 96 0
0 98 0
0 97 0
0 96 0
0 98 0
0 97 0
0 97 0
0 97 0
0 96 0
0 98 0
0 96 0
0 97 0
0 97 0
0 97 0
0 97 0
0 96 0
0 97 0
0 98 0
0 97 0
0 96 0
0 97 0
0 97 0
0 97 0
0 98 0
0 97 0
0 97 0
0 96 0
0 97 0
0 98 0
0 97 0
0 98 0
0 97 0
0 97 0
0 96 0
0 97 0
0 97 0
0 98 0
0 98 0
0 98 0
0 97 0
0 98 0
0 97 0
0 98 0
0 96 0
0 97 0
0 98 0
0 96 0
0 98 0
0 97 0
0 98 0
0 98 0
0 98 0
0 95 0
0 98 0
0 97 0
0 98 0
0 97 0
0 97 0
0 98 0
0 97 0
0 97 0
0 97 0
0 97 0
0 97 0
0 97 0
0 98 0
0 98 0
0 97 0
0 98 0
0 97 0
0 96 0
0 97 0
0 97 0
0 98 0
0 98 0
0 97 0
0 98 0
0 97 0
0 97 0
0 97 0
0 98 0
0 97 0
0 98 0
0 97 0
0 97 0
0 98 0
0 97 0
0 97 0
0 97 0
0 97 0
0 98 0
0 97 0
0 97 0
0 98 0
0 99 0
0 97 0
0 99 0
0 98 0
0 98 0
0 98 0
0 99 0
0 98 0
0 99 0
0 98 0
0 98 0
0 96 0
0 97 0
0 98 0
0 98 0
0 97 0
0 98 0
0 97 0
0 98 0
0 98 0
0 97 0
0 98 0
0 98 0
0 97 0
0 98 0
0 97 0
0 97 0
0 98 0
0 98 0
0 98 0
0 97 0
0 97 0
0 98 0
0 98 0
0 98 0
0 97 0
0 97 0
0 98 0
0 99 0
0 98 0
0 97 0
0 98 0
0 98 0
0 99 0
0 98 0
0 97 0
0 97 0
0 98 0
0 98 0
0 98 0
0 97 0
0 98 0
0 98 0
0 98 0
0 97 0
0 98 0
0 97 0
0 98 0
0 97 0
0 98 0
0 98 0
0 98 0
0 98 0
0 97 0
0 98 0
0 98 0
0 97 0
0 98 0
0 97 0
0 97 0
0 99 0
0 97 0
0 98 0
0 98 0
0 97 0
0 98 0
0 98 0
0 98 0
0 99 0
0 98 0
0 97 0
0 97 0
0 98 0
0 98 0
0 97 0
0 97 0
0 98 0
0 98 0
0 99 0
0 98 0
0 98 0
0 97 0
0 97 0
0 97 0
0 98 0
0 98 0
0 98 0
0 98 0
0 99 0
0 98 0
0 97 0
0 97 0
0 97 0
0 97 0
0 95 0
0 99 0
0 97 0
0 98 0
0 98 0
0 98 0
0 98 0
0 97 0
0 97 0
0 98 0
0 99 0
0 97 0
0 98 0
0 97 0
0 97 0
0 98 0
0 97 0
0 97 0
0 96 0
0 98 0
0 97 0
0 98 0
0 98 0
0 98 0
0 97 0
0 97 0
0 97 0
0 98 0
0 98 0
0 98 0
0 98 0
0 94 0
0 97 0
0 98 0
0 98 0
0 97 0
0 96 0
0 97 0
0 97 0
0 98 0
0 97 0
0 97 0
0 97 0
0 97 0
0 97 0
0 97 0
0 98 0
0 98 0
0 97 0
0 98 0
0 98 0
0 98 0
0 97 0
0 97 0
0 96 0
0 98 0
0 96 0
0 97 0
0 98 0
0 97 0
0 96 0
0 97 0
0 97 0
0 97 0
0 98 0
0 97 0
0 97 0
0 98 0
0 97 0
0 98 0
0 98 0
0 98 0
0 96 0
0 96 0
0 97 0
0 97 0
0 97 0
0 98 0
0 97 0
0 97 0
0 96 0
0 98 0
0 97 0
0 97 0
0 97 0
0 96 0
0 97 0
0 96 0
0 97 0
0 97 0
0 97 0
0 98 0
0 96 0
0 97 0
0 97 0
0 97 0
0 98 0
0 99 0
0 98 0
0 98 0
0 96 0
0 98 0
0 98 0
0 97 0
0 97 0
0 97 0
0 98 0
0 98 0
0 97 0
0 97 0
0 97 0
0 97 0
0 96 0
0 97 0
0 97 0
0 97 0
0 95 0
0 96 0
0 97 0
0 97 0
0 98 0
0 97 0
0 98 0
0 98 0
0 98 0
0 98 0
0 98 0
0 98 0
0 97 0
0 97 0
0 98 0
0 97 0
0 98 0
0 96 0
0 98 0
0 98 0
0 97 0
0 95 0
0 98 0
0 96 0
0 97 0
0 97 0
0 96 0
0 97 0
0 98 0
0 98 0
0 98 0
0 97 0
0 97 0
0 98 0
0 98 0
0 98 0
0 95 0
0 96 0
0 98 0
0 98 0
0 96 0
0 97 0
0 97 0
0 95 0
0 97 0
0 97 0
0 97 0
0 96 0
0 99 0
0 96 0
0 97 0
0 98 0
0 97 0
0 98 0
0 95 0
0 97 0
0 97 0
0 98 0
0 97 0
0 96 0
0 97 0
0 98 0
0 97 0
0 95 0
0 98 0
0 97 0
0 96 0
0 96 0
0 97 0
0 97 0
0 97 0
0 97 0
0 98 0
0 97 0
0 97 0
0 97 0
0 96 0
0 98 0
0 98 0
0 97 0
0 95 0
0 97 0
0 98 0
0 98 0
0 97 0
0 97 0
0 96 0
0 99 0
0 95 0
0 97 0
0 98 0
0 96 0
0 96 0
0 96 0
0 98 0
0 98 0
0 96 0
0 97 0
0 97 0
0 99 0
0 97 0
0 96 0
0 98 0
0 97 0
0 96 0
0 97 0
0 97 0
0 98 0
0 98 0
0 95 0
0 98 0
0 98 0
0 98 0
0 95 0
0 98 0
0 98 0
0 97 0
0 98 0
0 97 0
0 98 0
0 98 0
0 97 0
0 98 0
0 95 0
0 97 0
0 98 0
0 97 0
0 98 0
0 96 0
0 98 0
0 96 0
0 98 0
0 98 0
0 96 0
0 97 0
0 98 0
0 98 0
0 98 0
0 97 0
0 97 0
0 97 0
0 96 0
0 95 0
0 96 0
0 98 0
0 96 0
0 98 0
0 96 0
0 98 0
0 98 0
0 97 0
0 97 0
0 98 0
0 96 0
0 97 0
0 97 0
0 98 0
0 97 0
0 97 0
0 98 0
0 98 0
0 98 0
0 97 0
0 98 0
0 98 0
0 98 0
0 98 0
0 97 0
0 98 0
0 98 0
0 98 0
0 96 0
0 97 0
0 98 0
0 95 0
0 98 0
0 97 0
0 97 0
0 98 0
0 98 0
0 97 0
0 98 0
0 98 0
0 98 0
0 97 0
0 98 0
0 98 0
0 96 0
0 98 0
0 98 0
0 98 0
0 97 0
0 98 0
0 98 0
0 98 0
0 98 0
0 97 0
0 98 0
0 98 0
0 98 0
0 98 0
0 98 0
0 97 0
0 97 0
0 98 0
0 97 0
0 97 0
0 97 0
0 97 0
0 97 0
0 98 0
0 97 0
0 99 0
0 97 0
0 97 0
0 97 0
0 97 0
0 98 0
0 98 0
0 98 0
0 99 0
0 98 0
0 98 0
0 98 0
0 98 0
0 98 0
0 97 0
0 97 0
0 97 0
0 98 0
0 98 0
0 99 0
0 97 0
0 98 0
0 98 0
0 98 0
0 98 0
0 99 0
0 99 0
0 97 0
0 97 0
0 98 0
0 98 0
0 98 0
0 97 0
0 98 0
0 98 0
0 97 0
0 98 0
0 98 0
0 97 0
0 99 0
0 98 0
0 98 0
0 98 0
0 97 0
0 98 0
0 98 0
0 97 0
0 98 0
0 98 0
0 99 0
0 98 0
0 97 0
0 96 0
0 97 0
0 98 0
0 98 0
0 99 0
0 96 0
0 98 0
0 99 0
0 97 0
0 98 0
0 97 0
0 98 0
0 97 0
0 97 0
0 99 0
0 98 0
0 97 0
0 98 0
0 96 0
0 98 0
0 98 0
0 98 0
0 98 0
0 98 0
0 98 0
0 98 0
0 98 0
0 96 0
0 98 0
0 97 0
0 97 0
0 99 0
0 98 0
0 98 0
0 97 0
0 97 0
0 98 0
0 97 0
0 98 0
0 98 0
0 98 0
0 97 0
0 97 0
0 98 0
0 97 0
0 98 0
0 97 0
0 98 0
0 98 0
0 97 0
0 98 0
0 98 0
0 97 0
0 97 0
0 97 0
0 98 0
0 98 0
0 97 0
0 97 0
0 98 0
0 98 0
0 98 0
0 97 0
0 98 0
0 99 0
0 97 0
0 98 0
0 97 0
0 98 0
0 97 0
0 99 0
0 97 0
0 97 0
0 98 0
0 99 0
0 98 0
0 98 0
0 98 0
0 98 0
0 98 0
0 98 0
0 99 0
0 96 0
0 96 0
0 97 0
0 98 0
0 96 0
0 97 0
0 98 0
0 96 0
0 98 0
0 97 0
0 96 0
0 98 0
0 98 0
0 98 0
0 98 0
0 98 0
0 98 0
0 99 0
0 97 0
0 98 0
0 98 0
0 97 0
0 98 0
0 96 0
0 98 0
0 98 0
0 98 0
0 98 0
0 98 0
0 98 0
0 98 0
0 97 0
0 96 0
0 98 0
0 98 0
0 97 0
0 98 0
0 98 0
0 97 0
0 98 0
0 97 0
0 99 0
0 97 0
0 97 0
0 97 0
0 98 0
0 97 0
0 97 0
0 98 0
0 96 0
0 96 0
0 96 0
0 98 0
0 96 0
0 97 0
0 99 0
0 97 0
0 99 0
0 96 0
0 95 0
0 97 0
0 97 0
0 98 0
0 98 0
0 98 0
0 97 0
0 96 0
0 97 0
0 96 0
0 98 0
0 98 0
0 97 0
0 97 0
0 98 0
0 98 0
0 97 0
0 98 0
0 97 0
0 97 0
0 97 0
0 97 0
0 97 0
0 98 0
0 97 0
0 98 0
0 97 0
0 98 0
0 98 0
0 97 0
0 96 0
0 98 0
0 97 0
0 97 0
0 97 0
0 99 0
0 98 0
0 97 0
0 98 0
0 96 0
0 97 0
0 98 0
0 97 0
0 97 0
0 98 0
0 97 0
0 97 0
0 98 0
0 98 0
0 98 0
0 97 0
0 97 0
0 97 0
0 97 0
0 96 0
0 98 0
0 98 0
0 98 0
0 96 0
0 96 0
0 98 0
0 98 0
0 98 0
0 98 0
0 97 0
0 97 0
0 96 0
0 99 0
0 98 0
0 99 0
0 97 0
0 97 0
0 97 0
0 97 0
0 97 0
0 98 0
0 97 0
0 98 0
0 97 0
0 98 0
0 96 0
0 96 0
0 98 0
0 97 0
0 98 0
0 95 0
0 97 0
0 98 0
0 96 0
0 97 0
0 97 0
0 96 0
0 97 0
0 96 0
0 97 0
0 97 0
0 96 0
0 98 0
0 97 0
0 98 0
0 97 0
0 98 0
0 97 0
0 97 0
0 97 0
0 98 0
0 98 0
0 98 0
0 96 0
0 96 0
0 98 0
0 97 0
0 97 0
0 98 0
0 98 0
0 97 0
0 98 0
0 97 0
0 98 0
0 97 0
0 96 0
0 97 0
0 97 0
0 98 0
0 96 0
0 97 0
0 97 0
0 98 0
0 97 0
0 97 0
0 98 0
0 96 0
0 97 0
0 97 0
0 96 0
0 97 0
0 98 0
0 98 0
0 97 0
0 97 0
0 98 0
0 97 0
0 97 0
0 98 0
0 98 0
0 98 0
0 98 0
0 97 0
0 99 0
0 97 0
0 98 0
0 97 0
0 98 0
0 97 0
0 98 0
0 96 0
0 98 0
0 98 0
0 98 0
0 97 0
0 98 0
0 97 0
0 98 0
0 97 0
0 97 0
0 98 0
0 97 0
0 98 0
0 99 0
0 97 0
0 97 0
0 99 0
0 98 0
0 97 0
0 97 0
0 96 0
0 98 0
0 98 0
0 97 0
0 97 0
0 98 0
0 98 0
0 98 0
0 99 0
0 97 0
0 97 0
0 99 0
0 97 0
0 97 0
0 98 0
0 98 0
0 98 0
0 98 0
0 98 0
0 98 0
0 97 0
0 97 0
0 97 0
0 98 0
0 98 0
0 97 0
0 96 0
0 98 0
0 97 0
0 98 0
0 97 0
0 99 0
0 98 0
0 98 0
0 98 0
0 97 0
0 98 0
0 96 0
0 98 0
0 97 0
0 98 0
0 98 0
0 98 0
0 98 0
0 98 0
0 98 0
0 98 0
0 95 0
0 97 0
0 98 0
0 97 0
0 97 0
0 96 0
0 99 0
0 97 0
0 99 0
0 98 0
0 98 0
0 98 0
0 97 0
0 97 0
0 96 0
0 97 0
0 98 0
0 99 0
0 98 0
0 97 0
0 97 0
0 97 0
0 98 0
0 97 0
0 97 0
0 98 0
0 99 0
0 99 0
0 98 0
0 98 0
0 99 0
0 98 0
0 99 0
0 97 0
0 97 0
0 98 0
0 98 0
0 97 0
0 98 0
0 97 0
0 98 0
0 98 0
0 96 0
0 98 0
0 97 0
0 98 0
0 97 0
0 97 0
0 99 0
0 99 0
0 97 0
0 98 0
0 98 0
0 98 0
0 99 0
0 98 0
0 97 0
0 98 0
0 99 0
0 98 0
0 98 0
0 97 0
0 98 0
0 98 0
0 99 0
0 97 0
0 99 0
0 98 0
0 98 0
0 98 0
0 98 0
0 99 0
0 97 0
0 98 0
0 97 0
0 98 0
0 98 0
0 97 0
0 97 0
0 97 0
0 98 0
0 97 0
0 98 0
0 98 0
0 97 0
0 97 0
0 97 0
0 97 0
0 97 0
0 97 0
0 99 0
0 98 0
0 96 0
0 98 0
0 97 0
0 98 0
0 98 0
0 97 0
0 98 0
0 97 0
0 97 0
0 98 0
0 97 0
0 96 0
0 97 0
0 97 0
0 98 0
0 98 0
0 98 0
0 98 0
0 98 0
0 99 0
0 97 0
0 98 0
0 97 0
0 96 0
0 97 0
0 97 0
0 97 0
0 98 0
0 96 0
0 99 0
0 97 0
0 98 0
0 97 0
0 97 0
0 98 0
0 98 0
0 98 0
0 98 0
0 98 0
0 99 0
0 97 0
0 97 0
0 96 0
0 97 0
0 96 0
0 97 0
0 98 0
0 96 0
0 96 0
0 97 0
0 96 0
0 95 0
0 96 0
0 97 0
0 97 0
0 95 0
0 96 0
0 98 0
0 98 0
0 97 0
0 97 0
0 96 0
0 96 0
0 98 0
0 97 0
0 97 0
0 99 0
0 96 0
0 98 0
0 97 0
0 97 0
0 98 0
0 98 0
0 98 0
0 97 0
0 97 0
0 97 0
0 97 0
0 97 0
0 97 0
0 97 0
0 97 0
0 98 0
0 98 0
0 97 0
0 97 0
0 98 0
0 96 0
0 97 0
0 98 0
0 97 0
0 98 0
0 97 0
0 97 0
0 95 0
0 97 0
0 97 0
0 96 0
0 98 0
0 96 0
0 98 0
0 98 0
0 95 0
0 97 0
0 97 0
0 98 0
0 97 0
0 97 0
0 98 0
0 98 0
0 97 0
0 98 0
0 97 0
0 97 0
0 97 0
0 96 0
0 96 0
0 97 0
0 97 0
0 98 0
0 97 0
0 98 0
0 99 0
0 96 0
0 97 0
0 97 0
0 98 0
0 96 0
0 98 0
0 96 0
0 97 0
0 97 0
0 97 0
0 98 0
0 98 0
0 97 0
0 97 0
0 98 0
0 97 0
0 97 0
0 96 0
0 97 0
0 97 0
0 97 0
0 99 0
0 96 0
0 98 0
0 95 0
0 97 0
0 98 0
0 97 0
0 97 0
0 98 0
0 98 0
0 98 0
0 97 0
0 98 0
0 97 0
0 97 0
0 98 0
0 97 0
0 98 0
0 96 0
0 98 0
0 98 0
0 97 0
0 97 0
0 96 0
0 97 0
0 97 0
0 98 0
0 97 0
0 96 0
0 97 0
0 98 0
0 98 0
0 96 0
0 97 0
0 98 0
0 98 0
0 97 0
0 98 0
0 98 0
0 97 0
0 97 0
0 97 0
0 98 0
0 98 0
0 97 0
0 96 0
0 97 0
0 98 0
0 96 0
0 97 0
0 98 0
0 98 0
0 97 0
0 97 0
0 97 0
0 98 0
0 97 0
0 97 0
0 97 0
0 98 0
0 97 0
0 98 0
0 99 0
0 98 0
0 98 0
0 97 0
0 97 0
0 97 0
0 98 0
0 98 0
0 97 0
0 95 0
0 99 0
0 96 0
0 97 0
0 98 0
0 98 0
0 96 0
0 98 0
0 97 0
0 98 0
0 98 0
0 98 0
0 98 0
0 97 0
0 98 0
0 97 0
0 96 0
0 97 0
0 98 0
0 98 0
0 97 0
0 97 0
0 97 0
0 97 0
0 98 0
0 98 0
0 98 0
0 98 0
0 97 0
0 97 0
0 97 0
0 97 0
0 98 0
0 97 0
0 97 0
0 98 0
0 98 0
0 97 0
0 96 0
0 97 0
0 97 0
0 97 0
0 97 0
0 97 0
0 97 0
0 98 0
0 98 0
0 98 0
0 97 0
0 98 0
0 97 0
0 98 0
0 97 0
0 96 0
0 98 0
0 97 0
0 97 0
0 98 0
0 98 0
0 96 0
0 97 0
0 97 0
0 97 0
0 98 0
0 98 0
0 98 0
0 97 0
0 97 0
0 98 0
0 98 0
0 97 0
0 98 0
0 96 0
0 97 0
0 98 0
0 97 0
0 98 0
0 98 0
0 99 0
0 98 0
0 99 0
0 97 0
0 98 0
0 98 0
0 98 0
0 99 0
0 97 0
0 97 0
0 97 0
0 97 0
0 98 0
0 98 0
0 98 0
0 98 0
0 97 0
0 98 0
0 98 0
0 98 0
0 97 0
0 98 0
0 98 0
0 98 0
0 97 0
0 98 0
0 98 0
0 99 0
0 96 0
0 98 0
0 98 0
0 99 0
0 98 0
0 98 0
0 98 0
0 98 0
0 97 0
0 98 0
0 98 0
0 98 0
0 97 0
0 97 0
0 98 0
0 97 0
0 97 0
0 99 0
0 97 0
0 97 0
0 98 0
0 97 0
0 98 0
0 98 0
0 98 0
0 98 0
0 98 0
0 98 0
0 98 0
0 98 0
0 99 0
0 97 0
0 98 0
0 98 0
0 97 0
0 98 0
0 96 0
0 97 0
0 97 0
0 97 0
0 98 0
0 98 0
0 98 0
0 98 0
0 97 0
0 97 0
0 97 0
0 97 0
0 98 0
0 98 0
0 98 0
0 98 0
0 97 0
0 98 0
0 98 0
0 97 0
0 97 0
0 96 0
0 98 0
0 97 0
0 97 0
0 97 0
0 98 0
0 97 0
0 98 0
0 98 0
0 98 0
0 96 0
0 98 0
0 98 0
0 97 0
0 97 0
0 97 0
0 98 0
0 97 0
0 98 0
0 98 0
0 98 0
0 99 0
0 98 0
0 97 0
0 96 0
0 99 0
0 97 0
0 98 0
0 96 0
0 98 0
0 98 0
0 99 0
0 97 0
0 98 0
0 98 0
0 97 0
0 97 0
0 97 0
0 98 0
0 98 0
0 98 0
0 97 0
0 98 0
0 99 0
0 96 0
0 97 0
0 97 0
0 97 0
0 97 0
0 97 0
0 98 0
0 97 0
0 97 0
0 97 0
0 96 0
0 97 0
0 99 0
0 97 0
0 97 0
0 95 0
0 98 0
0 96 0
0 98 0
0 96 0
0 98 0
0 98 0
0 98 0
0 97 0
0 97 0
0 98 0
0 97 0
0 96 0
0 98 0
0 97 0
0 97 0
0 98 0
0 96 0
0 97 0
0 97 0
0 98 0
0 97 0
0 97 0
0 98 0
0 98 0
0 98 0
0 97 0
0 98 0
0 98 0
0 97 0
0 98 0
0 97 0
0 97 0
0 96 0
0 98 0
0 97 0
0 98 0
0 97 0
0 98 0
0 98 0
0 97 0
0 99 0
0 99 0
0 96 0
0 97 0
0 97 0
0 97 0
0 98 0
0 97 0
0 98 0
0 97 0
0 97 0
0 98 0
0 97 0
0 98 0
0 98 0
0 97 0
0 97 0
0 97 0
0 96 0
0 97 0
0 97 0
0 97 0
0 96 0
0 98 0
0 98 0
0 97 0
0 98 0
0 96 0
0 99 0
0 97 0
0 97 0
0 99 0
0 98 0
0 97 0
0 98 0
0 98 0
0 97 0
0 97 0
0 97 0
0 98 0
0 98 0
0 97 0
0 98 0
0 98 0
0 97 0
0 98 0
0 98 0
0 97 0
0 98 0
0 98 0
0 97 0
0 98 0
0 97 0
0 97 0
0 98 0
0 96 0
0 97 0
0 98 0
0 97 0
0 97 0
0 97 0
0 96 0
0 96 0
0 98 0
0 98 0
0 98 0
0 98 0
0 97 0
0 98 0
0 97 0
0 96 0
0 98 0
0 97 0
0 96 0
0 97 0
0 98 0
0 96 0
0 97 0
0 98 0
0 98 0
0 98 0
0 99 0
0 95 0
0 97 0
0 98 0
0 96 0
0 96 0
0 97 0
0 97 0
0 96 0
0 97 0
0 98 0
0 97 0
0 98 0
0 98 0
0 97 0
0 96 0
0 98 0
0 98 0
0 98 0
0 98 0
0 97 0
0 98 0
0 98 0
0 97 0
0 98 0
0 96 0
0 97 0
0 98 0
0 99 0
0 97 0
0 97 0
0 96 0
0 97 0
0 97 0
0 98 0
0 97 0
0 96 0
0 96 0
0 98 0
0 96 0
0 98 0
0 98 0
0 99 0
0 98 0
0 98 0
0 98 0
0 97 0
0 99 0
0 97 0
0 96 0
0 98 0
0 98 0
0 98 0
0 98 0
0 98 0
0 98 0
0 98 0
0 97 0
0 98 0
0 97 0
0 97 0
0 97 0
0 97 0
0 95 0
0 99 0
0 97 0
0 97 0
0 98 0
0 98 0
0 97 0
0 98 0
0 97 0
0 97 0
0 98 0
0 98 0
0 97 0
0 97 0
0 98 0
0 98 0
0 97 0
0 97 0
0 98 0
0 98 0
0 98 0
0 97 0
0 98 0
0 97 0
0 98 0
0 97 0
0 98 0
0 99 0
0 98 0
0 97 0
0 97 0
0 97 0
0 98 0
0 97 0
0 98 0
0 98 0
0 97 0
0 99 0
0 97 0
0 97 0
0 98 0
0 98 0
0 97 0
0 98 0
0 98 0
0 98 0
0 98 0
0 98 0
0 97 0
0 98 0
0 98 0
0 98 0
0 97 0
0 98 0
0 98 0
0 98 0
0 98 0
0 99 0
0 98 0
0 96 0
0 98 0
0 97 0
0 96 0
0 98 0
0 98 0
0 98 0
0 98 0
0 99 0
0 97 0
0 98 0
0 97 0
0 99 0
0 96 0
0 99 0
0 97 0
0 98 0
0 99 0
0 96 0
0 97 0
0 97 0
0 98 0
0 98 0
0 99 0
0 97 0
0 98 0
0 98 0
0 98 0
0 98 0
0 97 0
0 96 0
0 97 0
0 97 0
0 98 0
0 98 0
0 99 0
0 97 0
0 99 0
0 97 0
0 97 0
0 98 0
0 97 0
0 97 0
0 98 0
0 97 0
0 98 0
0 98 0
0 98 0
0 97 0
0 99 0
0 97 0
0 98 0
0 97 0
0 98 0
0 98 0
0 98 0
0 97 0
0 98 0
0 97 0
0 97 0
0 99 0
0 98 0
0 98 0
0 97 0
0 97 0
0 97 0
0 97 0
0 97 0
0 99 0
0 98 0
0 97 0
0 97 0
0 99 0
0 98 0
0 96 0
0 98 0
0 97 0
0 97 0
0 97 0
0 97 0
0 97 0
0 97 0
0 98 0
0 97 0
0 97 0
0 97 0
0 98 0
0 97 0
0 97 0
0 97 0
0 98 0
0 98 0
0 98 0
0 97 0
0 98 0
0 97 0
0 97 0
0 98 0
0 98 0
0 97 0
0 98 0
0 98 0
0 97 0
0 96 0
0 98 0
0 98 0
0 98 0
0 97 0
0 97 0
0 97 0
0 98 0
0 98 0
0 96 0
0 98 0
0 98 0
0 97 0
0 97 0
0 97 0
0 98 0
0 98 0
0 98 0
0 98 0
0 97 0
0 99 0
0 98 0
0 98 0
0 98 0
0 98 0
0 98 0
0 98 0
0 97 0
0 97 0
0 98 0
0 97 0
0 97 0
0 97 0
0 98 0
0 97 0
0 98 0
0 98 0
0 98 0
0 97 0
0 97 0
0 98 0
0 98 0
0 96 0
0 97 0
0 97 0
0 98 0
0 97 0
0 97 0
0 97 0
0 98 0
0 96 0
0 97 0
0 96 0
0 97 0
0 98 0
0 97 0
0 98 0
0 98 0
0 96 0
0 98 0
0 98 0
0 96 0
0 98 0
0 98 0
0 97 0
0 99 0
0 98 0
0 98 0
0 97 0
0 98 0
0 97 0
0 97 0
0 97 0
0 97 0
0 97 0
0 97 0
0 97 0
0 98 0
0 97 0
0 96 0
0 98 0
0 96 0
0 97 0
0 97 0
0 97 0
0 96 0
0 97 0
0 98 0
0 97 0
0 97 0
0 97 0
0 97 0
0 97 0
0 97 0
0 97 0
0 97 0
0 98 0
0 97 0
0 98 0
0 98 0
0 97 0
0 98 0
0 97 0
0 96 0
0 97 0
0 97 0
0 97 0
0 98 0
0 97 0
0 99 0
0 98 0
0 97 0
0 97 0
0 97 0
0 98 0
0 96 0
0 97 0
0 98 0
0 96 0
0 98 0
0 98 0
0 98 0
0 98 0
0 98 0
0 97 0
0 96 0
0 97 0
0 97 0
0 98 0
0 96 0
0 97 0
0 98 0
0 97 0
0 97 0
0 97 0
0 98 0
0 98 0
0 97 0
0 97 0
0 97 0
0 97 0
0 97 0
0 96 0
0 97 0
0 98 0
0 98 0
0 98 0
0 97 0
0 97 0
0 98 0
0 97 0
0 97 0
0 99 0
0 98 0
0 97 0
0 97 0
0 98 0
0 97 0
0 97 0
0 97 0
0 97 0
0 99 0
0 97 0
0 96 0
0 97 0
0 97 0
0 97 0
0 97 0
0 98 0
0 97 0
0 96 0
0 98 0
0 98 0
0 98 0
0 97 0
0 97 0
0 97 0
0 98 0
0 97 0
0 96 0
0 98 0
0 97 0
0 97 0
0 97 0
0 99 0
0 98 0
0 97 0
0 98 0
0 97 0
0 96 0
0 97 0
0 97 0
0 95 0
0 97 0
0 98 0
0 96 0
0 96 0
0 97 0
0 96 0
0 97 0
0 98 0
0 96 0
0 96 0
0 97 0
0 96 0
0 98 0
0 97 0
0 98 0
0 97 0
0 96 0
0 98 0
0 98 0
0 97 0
0 97 0
0 98 0
0 98 0
0 98 0
0 96 0
0 97 0
0 98 0
0 97 0
0 96 0
0 98 0
0 97 0
0 97 0
0 99 0
0 97 0
0 97 0
0 97 0
0 98 0
0 96 0
0 98 0
0 97 0
0 97 0
0 97 0
0 96 0
0 97 0
0 98 0
0 98 0
0 97 0
0 97 0
0 97 0
0 96 0
0 99 0
0 98 0
0 97 0
0 97 0
0 97 0
0 97 0
0 98 0
0 97 0
0 98 0
0 98 0
0 98 0
0 99 0
0 96 0
0 97 0
0 98 0
0 98 0
0 97 0
0 97 0
0 97 0
0 98 0
0 97 0
0 98 0
0 97 0
0 98 0
0 98 0
0 98 0
0 99 0
0 98 0
0 99 0
0 96 0
0 98 0
0 96 0
0 98 0
0 98 0
0 97 0
0 98 0
0 98 0
0 99 0
0 99 0
0 97 0
0 97 0
0 97 0
0 98 0
0 99 0
0 98 0
0 99 0
0 98 0
0 98 0
0 97 0
0 95 0
0 98 0
0 97 0
0 98 0
0 97 0
0 97 0
0 98 0
0 97 0
0 99 0
0 98 0
0 97 0
0 96 0
0 98 0
0 97 0
0 97 0
0 97 0
0 98 0
0 98 0
0 98 0
0 97 0
0 97 0
0 98 0
0 97 0
0 98 0
0 96 0
0 97 0
0 98 0
0 98 0
0 98 0
0 97 0
0 96 0
0 97 0
0 99 0
0 97 0
0 97 0
0 99 0
0 98 0
0 97 0
0 98 0
0 99 0
0 96 0
0 98 0
0 98 0
0 98 0
0 97 0
0 97 0
0 98 0
0 98 0
0 98 0
0 98 0
0 99 0
0 98 0
0 98 0
0 98 0
0 98 0
0 98 0
0 97 0
0 97 0
0 97 0
0 97 0
0 98 0
0 98 0
0 98 0
0 98 0
0 97 0
0 97 0
0 98 0
0 98 0
0 97 0
0 97 0
0 97 0
0 97 0
0 98 0
0 97 0
0 97 0
0 98 0
0 98 0
0 98 0
0 98 0
0 98 0
0 98 0
0 98 0
0 97 0
0 98 0
0 98 0
0 97 0
0 98 0
0 98 0
0 98 0
0 97 0
0 98 0
0 98 0
0 98 0
0 98 0
0 98 0
0 99 0
0 98 0
0 97 0
0 95 0
0 98 0
0 98 0
0 97 0
0 97 0
0 98 0
0 97 0
0 96 0
0 98 0
0 99 0
0 97 0
0 97 0
0 98 0
0 98 0
0 98 0
0 98 0
0 98 0
0 96 0
0 97 0
0 96 0
0 97 0
0 96 0
0 97 0
0 98 0
0 98 0
0 98 0
0 96 0
0 98 0
0 97 0
0 98 0
0 98 0
0 99 0
0 99 0
0 97 0
0 97 0
0 96 0
0 98 0
0 98 0
0 96 0
0 98 0
0 97 0
0 98 0
0 95 0
0 97 0
0 97 0
0 98 0
0 98 0
0 97 0
0 98 0
0 97 0
0 96 0
0 97 0
0 98 0
0 97 0
0 98 0
0 98 0
0 96 0
0 98 0
0 98 0
0 98 0
0 97 0
0 96 0
0 97 0
0 96 0
0 98 0
0 98 0
0 96 0
0 96 0
0 98 0
0 95 0
0 99 0
0 97 0
0 97 0
0 97 0
0 97 0
0 97 0
0 98 0
0 97 0
0 97 0
0 98 0
0 98 0
0 96 0
0 98 0
0 97 0
0 97 0
0 97 0
0 98 0
0 98 0
0 99 0
0 95 0
0 97 0
0 98 0
0 97 0
0 98 0
0 98 0
0 98 0
0 98 0
0 97 0
0 98 0
0 98 0
0 98 0
0 98 0
0 96 0
0 97 0
0 97 0
0 97 0
0 97 0
0 97 0
0 97 0
0 98 0
0 98 0
0 98 0
0 98 0
0 98 0
0 96 0
0 98 0
0 97 0
0 97 0
0 98 0
0 97 0
0 99 0
0 97 0
0 98 0
0 97 0
0 97 0
0 98 0
0 98 0
0 97 0
0 98 0
0 98 0
0 97 0
0 96 0
0 98 0
0 98 0
0 98 0
0 96 0
0 98 0
0 97 0
0 97 0
0 97 0
0 96 0
0 97 0
0 98 0
0 98 0
0 97 0
0 97 0
0 96 0
0 95 0
0 97 0
0 99 0
0 98 0
0 98 0
0 98 0
0 97 0
0 97 0
0 98 0
0 97 0
0 98 0
0 98 0
0 97 0
0 98 0
0 97 0
0 96 0
0 97 0
0 98 0
0 97 0
0 97 0
0 98 0
0 98 0
0 97 0
0 97 0
0 98 0
0 98 0
0 97 0
0 95 0
0 97 0
0 97 0
0 97 0
0 99 0
0 97 0
0 97 0
0 98 0
0 98 0
0 98 0
0 99 0
0 97 0
0 98 0
0 96 0
0 97 0
0 98 0
0 98 0
0 98 0
0 96 0
0 97 0
0 97 0
0 98 0
0 97 0
0 97 0
0 97 0
0 97 0
0 97 0
0 97 0
0 98 0
0 97 0
0 96 0
0 97 0
0 97 0
0 98 0
0 98 0
0 98 0
0 97 0
0 97 0
0 98 0
0 97 0
0 98 0
0 98 0
0 97 0
0 97 0
0 96 0
0 98 0
0 97 0
0 97 0
0 98 0
0 97 0
0 97 0
0 98 0
0 97 0
0 98 0
0 98 0
0 97 0
0 98 0
0 97 0
0 98 0
0 98 0
0 97 0
0 98 0
0 96 0
0 97 0
0 96 0
0 97 0
0 97 0
0 98 0
0 98 0
0 96 0
0 97 0
0 97 0
0 98 0
0 96 0
0 98 0
0 97 0
0 97 0
0 96 0
0 98 0
0 97 0
0 98 0
0 96 0
0 98 0
0 97 0
0 98 0
0 98 0
0 98 0
0 99 0
0 98 0
0 98 0
0 97 0
0 97 0
0 98 0
0 98 0
0 97 0
0 98 0
0 98 0
0 98 0
0 98 0
0 97 0
0 99 0
0 98 0
0 97 0
0 98 0
0 98 0
0 96 0
0 98 0
0 98 0
0 97 0
0 99 0
0 97 0
0 97 0
0 98 0
0 98 0
0 97 0
0 97 0
0 97 0
0 96 0
0 98 0
0 98 0
0 98 0
0 97 0
0 97 0
0 98 0
0 98 0
0 98 0
0 97 0
0 98 0
0 98 0
0 97 0
0 97 0
0 96 0
0 98 0
0 96 0
0 97 0
0 97 0
0 98 0
0 98 0
0 98 0
0 97 0
0 98 0
0 98 0
0 98 0
0 97 0
0 97 0
0 98 0
0 98 0
0 97 0
0 98 0
0 97 0
0 97 0
0 97 0
0 98 0
0 99 0
0 96 0
0 98 0
0 98 0
0 98 0
0 98 0
0 98 0
0 97 0
0 98 0
0 98 0
0 98 0
0 99 0
0 98 0
0 97 0
0 99 0
0 98 0
0 98 0
0 97 0
0 99 0
0 98 0
0 97 0
0 99 0
0 96 0
0 98 0
0 98 0
0 97 0
0 96 0
0 97 0
0 97 0
0 98 0
0 98 0
0 97 0
0 98 0
0 97 0
0 97 0
0 97 0
0 98 0
0 98 0
0 98 0
0 98 0
0 96 0
0 98 0
0 98 0
0 98 0
0 98 0
0 99 0
0 98 0
0 98 0
0 98 0
0 97 0
0 98 0
0 97 0
0 98 0
0 97 0
0 97 0
0 98 0
0 98 0
0 99 0
0 98 0
0 98 0
0 98 0
0 98 0
0 97 0
0 98 0
0 98 0
0 98 0
0 97 0
0 98 0
0 97 0
0 98 0
0 97 0
0 97 0
0 98 0
0 97 0
0 97 0
0 98 0
0 99 0
0 97 0
0 98 0
0 98 0
0 98 0
0 97 0
0 97 0
0 98 0
0 98 0
0 99 0
0 97 0
0 99 0
0 97 0
0 98 0
0 98 0
0 97 0
0 98 0
0 97 0
0 98 0
0 98 0
0 97 0
0 97 0
0 98 0
0 98 0
0 98 0
0 97 0
0 97 0
0 97 0
0 99 0
0 98 0
0 97 0
0 95 0
0 97 0
0 98 0
0 98 0
0 98 0
0 98 0
0 97 0
0 97 0
0 97 0
0 98 0
0 98 0
0 97 0
0 98 0
0 98 0
0 95 0
0 98 0
0 97 0
0 99 0
0 98 0
0 97 0
0 98 0
0 96 0
0 98 0
0 97 0
0 97 0
0 97 0
0 97 0
0 99 0
0 98 0
0 99 0
0 97 0
0 99 0
0 98 0
0 95 0
0 98 0
0 97 0
0 97 0
0 97 0
0 98 0
0 97 0
0 97 0
0 98 0
0 97 0
0 96 0
0 97 0
0 97 0
0 97 0
0 97 0
0 97 0
0 97 0
0 97 0
0 97 0
0 97 0
0 97 0
0 97 0
0 98 0
0 97 0
0 97 0
0 95 0
0 97 0
0 97 0
0 97 0
0 98 0
0 97 0
0 96 0
0 98 0
0 98 0
0 96 0
0 96 0
0 97 0
0 97 0
0 97 0
0 97 0
0 98 0
0 97 0
0 98 0
0 99 0
0 98 0
0 97 0
0 96 0
0 98 0
0 96 0
0 97 0
0 97 0
0 98 0
0 97 0
0 98 0
0 98 0
0 97 0
0 98 0
0 98 0
0 97 0
0 96 0
0 98 0
0 96 0
0 96 0
0 98 0
0 98 0
0 97 0
0 98 0
0 96 0
0 97 0
0 98 0
0 96 0
0 97 0
0 97 0
0 97 0
0 98 0
0 98 0
0 98 0
0 97 0
0 97 0
0 99 0
0 98 0
0 98 0
0 96 0
0 97 0
0 97 0
0 97 0
0 97 0
0 97 0
0 97 0
0 99 0
0 97 0
0 97 0
0 96 0
0 98 0
0 97 0
0 97 0
0 97 0
0 96 0
0 97 0
0 98 0
0 97 0
0 96 0
0 97 0
0 98 0
0 97 0
0 96 0
0 98 0
0 97 0
0 97 0
0 98 0
0 96 0
0 98 0
0 96 0
0 97 0
0 96 0
0 98 0
0 97 0
0 98 0
0 97 0
0 96 0
0 97 0
0 98 0
0 97 0
0 97 0
0 96 0
0 96 0
0 97 0
0 97 0
0 98 0
0 98 0
0 96 0
0 96 0
0 98 0
0 97 0
0 98 0
0 98 0
0 98 0
0 97 0
0 96 0
0 97 0
0 96 0
0 98 0
0 97 0
0 98 0
0 98 0
0 98 0
0 98 0
0 97 0
0 98 0
0 97 0
0 98 0
0 96 0
0 97 0
0 97 0
0 96 0
0 98 0
0 97 0
0 98 0
0 99 0
0 98 0
0 98 0
0 98 0
0 98 0
0 98 0
0 97 0
0 98 0
0 98 0
0 97 0
0 98 0
0 96 0
0 97 0
0 98 0
0 98 0
0 98 0
0 98 0
0 98 0
0 98 0
0 98 0
0 97 0
0 98 0
0 97 0
0 97 0
0 98 0
0 98 0
0 99 0
0 98 0
0 98 0
0 98 0
0 97 0
0 97 0
0 98 0
0 96 0
0 97 0
0 98 0
0 98 0
0 97 0
0 96 0
0 98 0
0 98 0
0 98 0
0 98 0
0 97 0
0 97 0
0 98 0
0 98 0
0 98 0
0 96 0
0 97 0
0 96 0
0 98 0
0 98 0
0 97 0
0 96 0
0 97 0
0 98 0
0 96 0
0 97 0
0 98 0
0 98 0
0 97 0
0 96 0
0 97 0
0 98 0
0 99 0
0 98 0
0 98 0
0 98 0
0 96 0
0 98 0
0 96 0
0 97 0
0 97 0
0 99 0
0 97 0
0 97 0
0 98 0
0 97 0
0 98 0
0 98 0
0 97 0
0 98 0
0 96 0
0 97 0
0 98 0
0 96 0
0 97 0
0 98 0
0 99 0
0 98 0
0 97 0
0 98 0
0 98 0
0 98 0
0 97 0
0 97 0
0 97 0
0 97 0
0 97 0
0 98 0
0 98 0
0 96 0
0 98 0
0 98 0
0 97 0
0 98 0
0 97 0
0 99 0
0 98 0
0 97 0
0 97 0
0 97 0
0 99 0
0 97 0
0 99 0
0 96 0
0 98 0
0 98 0
0 98 0
0 98 0
0 98 0
0 99 0
0 98 0
0 98 0
0 97 0
0 97 0
0 98 0
0 98 0
0 98 0
0 97 0
0 98 0
0 99 0
0 97 0
0 98 0
0 98 0
0 99 0
0 97 0
0 99 0
0 98 0
0 98 0
0 96 0
0 97 0
0 98 0
0 97 0
0 98 0
0 98 0
0 98 0
0 99 0
0 97 0
0 98 0
0 97 0
0 98 0
0 97 0
0 99 0
0 96 0
0 97 0
0 98 0
0 98 0
0 97 0
0 99 0
0 97 0
0 98 0
0 98 0
0 96 0
0 95 0
0 98 0
0 97 0
0 99 0
0 98 0
0 98 0
0 98 0
0 97 0
0 96 0
0 97 0
0 98 0
0 97 0
0 98 0
0 98 0
0 98 0
0 98 0
0 98 0
0 97 0
0 98 0
0 98 0
0 98 0
0 97 0
0 97 0
0 98 0
0 98 0
0 97 0
0 96 0
0 96 0
0 97 0
0 98 0
0 98 0
0 98 0
0 97 0
0 97 0
0 98 0
0 98 0
0 98 0
0 97 0
0 98 0
0 98 0
0 97 0
0 98 0
0 97 0
0 97 0
0 98 0
0 98 0
0 99 0
0 98 0
0 98 0
0 96 0
0 97 0
0 98 0
0 98 0
0 98 0
0 98 0
0 98 0
0 98 0
0 98 0
0 97 0
0 98 0
0 99 0
0 97 0
0 98 0
0 98 0
0 97 0
0 98 0
0 97 0
0 98 0
0 99 0
0 98 0
0 97 0
0 97 0
0 98 0
0 96 0
0 97 0
0 97 0
0 98 0
0 98 0
0 97 0
0 98 0
0 97 0
0 98 0
0 97 0
0 97 0
0 96 0
0 97 0
0 96 0
0 97 0
0 97 0
0 98 0
0 98 0
0 98 0
0 98 0
0 98 0
0 97 0
0 98 0
0 96 0
0 99 0
0 97 0
0 97 0
0 98 0
0 97 0
0 98 0
0 97 0
0 98 0
0 98 0
0 96 0
0 97 0
0 98 0
0 97 0
0 97 0
0 97 0
0 97 0
0 98 0
0 97 0
0 98 0
0 97 0
0 97 0
0 97 0
0 96 0
0 97 0
0 96 0
0 97 0
0 98 0
0 99 0
0 97 0
0 98 0
0 96 0
0 98 0
0 97 0
0 98 0
0 96 0
0 98 0
0 97 0
0 97 0
0 98 0
0 97 0
0 97 0
0 97 0
0 97 0
0 97 0
0 97 0
0 98 0
0 98 0
0 97 0
0 97 0
0 97 0
0 97 0
0 98 0
0 98 0
0 96 0
0 97 0
0 99 0
0 97 0
0 97 0
0 98 0
0 96 0
0 98 0
0 97 0
0 97 0
0 98 0
0 99 0
0 98 0
0 98 0
0 98 0
0 98 0
0 97 0
0 97 0
0 98 0
0 97 0
0 98 0
0 96 0
0 98 0
0 97 0
0 96 0
0 98 0
0 96 0
0 97 0
0 98 0
0 98 0
0 97 0
0 97 0
0 97 0
0 96 0
0 98 0
0 99 0
0 98 0
0 98 0
0 98 0
0 96 0
0 97 0
0 98 0
0 96 0
0 98 0
0 97 0
0 99 0
0 98 0
0 97 0
0 97 0
0 97 0
0 98 0
0 97 0
0 97 0
0 98 0
0 97 0
0 97 0
0 97 0
0 99 0
0 97 0
0 97 0
0 98 0
0 98 0
0 98 0
0 97 0
0 98 0
0 97 0
0 97 0
0 98 0
0 96 0
0 98 0
0 97 0
0 98 0
0 97 0
0 97 0
0 97 0
0 96 0
0 98 0
0 98 0
0 98 0
0 97 0
0 98 0
0 96 0
0 97 0
0 98 0
0 98 0
0 97 0
0 98 0
0 98 0
0 97 0
0 97 0
0 98 0
0 98 0
0 98 0
0 97 0
0 98 0
0 97 0
0 97 0
0 97 0
0 98 0
0 97 0
0 97 0
0 98 0
0 95 0
0 98 0
0 98 0
0 98 0
0 98 0
0 97 0
0 97 0
0 98 0
0 97 0
0 96 0
0 98 0
0 98 0
0 98 0
0 98 0
0 97 0
0 98 0
0 97 0
0 98 0
0 96 0
0 97 0
0 98 0
0 97 0
0 98 0
0 99 0
0 97 0
0 99 0
0 98 0
0 98 0
0 97 0
0 96 0
0 98 0
0 96 0
0 98 0
0 97 0
0 98 0
0 96 0
0 97 0
0 98 0
0 98 0
0 99 0
0 97 0
0 97 0
0 97 0
0 97 0
0 98 0
0 98 0
0 96 0
0 98 0
0 97 0
0 98 0
0 97 0
0 97 0
0 98 0
0 98 0
0 97 0
0 96 0
0 98 0
0 98 0
0 98 0
0 98 0
0 96 0
0 98 0
0 98 0
0 98 0
0 98 0
0 98 0
0 98 0
0 98 0
0 97 0
0 97 0
0 97 0
0 98 0
0 98 0
0 97 0
0 98 0
0 98 0
0 97 0
0 97 0
0 98 0
0 98 0
0 97 0
0 97 0
0 98 0
0 99 0
0 97 0
0 99 0
0 96 0
0 98 0
0 98 0
0 97 0
0 98 0
0 97 0
0 98 0
0 98 0
0 99 0
0 97 0
0 99 0
0 97 0
0 98 0
0 97 0
0 98 0
0 98 0
0 98 0
0 98 0
0 97 0
0 98 0
0 98 0
0 98 0
0 98 0
0 98 0
0 97 0
0 98 0
0 98 0
0 96 0
0 98 0
0 98 0
0 97 0
0 99 0
0 98 0
0 98 0
0 97 0
0 97 0
0 98 0
0 99 0
0 98 0
0 97 0
0 98 0
0 97 0
0 96 0
0 98 0
0 98 0
0 97 0
0 97 0
0 98 0
0 97 0
0 98 0
0 98 0
0 97 0
0 98 0
0 98 0
0 98 0
0 98 0
0 97 0
0 97 0
0 96 0
0 97 0
0 98 0
0 97 0
0 98 0
0 97 0
0 97 0
0 97 0
0 98 0
0 98 0
0 98 0
0 97 0
0 98 0
0 98 0
0 97 0
0 99 0
0 97 0
0 97 0
0 97 0
0 97 0
0 98 0
0 96 0
0 98 0
0 98 0
0 97 0
0 99 0
0 98 0
0 97 0
0 97 0
0 97 0
0 98 0
0 97 0
0 99 0
0 97 0
0 98 0
0 98 0
0 97 0
0 98 0
0 97 0
0 97 0
0 97 0
0 97 0
0 98 0
0 97 0
0 96 0
0 97 0
0 97 0
0 97 0
0 98 0
0 97 0
0 98 0
0 97 0
0 96 0
0 97 0
0 98 0
0 97 0
0 98 0
0 98 0
0 97 0
0 98 0
0 97 0
0 98 0
0 97 0
0 97 0
0 97 0
0 97 0
0 98 0
0 97 0
0 99 0
0 96 0
0 98 0
0 98 0
0 97 0
0 98 0
0 98 0
0 97 0
0 97 0
0 97 0
0 96 0
0 96 0
0 98 0
0 98 0
0 98 0
0 96 0
0 96 0
0 98 0
0 98 0
0 98 0
0 98 0
0 97 0
0 97 0
0 97 0
0 98 0
0 98 0
0 98 0
0 97 0
0 97 0
0 97 0
0 98 0
0 96 0
0 98 0
0 98 0
0 96 0
0 97 0
0 98 0
0 98 0
0 98 0
0 98 0
0 96 0
0 97 0
0 97 0
0 99 0
0 96 0
0 98 0
0 98 0
0 96 0
0 97 0
0 98 0
0 98 0
0 97 0
0 98 0
0 98 0
0 95 0
0 97 0
0 97 0
0 98 0
0 95 0
0 98 0
0 97 0
0 97 0
0 97 0
0 97 0
0 97 0
0 97 0
0 96 0
0 97 0
0 97 0
0 97 0
0 98 0
0 97 0
0 97 0
0 98 0
0 97 0
0 98 0
0 98 0
0 96 0
0 96 0
0 97 0
0 98 0
0 98 0
0 97 0
0 97 0
0 97 0
0 97 0
0 95 0
0 95 0
0 97 0
0 96 0
0 97 0
0 96 0
0 98 0
0 98 0
0 98 0
0 97 0
0 98 0
0 98 0
0 96 0
0 97 0
0 98 0
0 98 0
0 97 0
0 98 0
0 98 0
0 98 0
0 98 0
0 96 0
0 96 0
0 98 0
0 98 0
0 97 0
0 96 0
0 96 0
0 98 0
0 96 0
0 95 0
0 97 0
0 96 0
0 96 0
0 97 0
0 98 0
0 97 0
0 98 0
0 98 0
0 97 0
0 98 0
0 95 0
0 97 0
0 98 0
0 97 0
0 96 0
0 98 0
0 98 0
0 98 0
0 96 0
0 98 0
0 97 0
0 98 0
0 96 0
0 98 0
0 98 0
0 97 0
0 96 0
0 97 0
0 98 0
0 98 0
0 96 0
0 98 0
0 97 0
0 98 0
0 97 0
0 98 0
0 98 0
0 97 0
0 97 0
0 97 0
0 97 0
0 97 0
0 98 0
0 98 0
0 97 0
0 96 0
0 98 0
0 99 0
0 97 0
0 97 0
0 98 0
0 98 0
0 97 0
0 99 0
0 97 0
0 97 0
0 98 0
0 98 0
0 97 0
0 98 0
0 97 0
0 97 0
0 97 0
0 98 0
0 97 0
0 97 0
0 97 0
0 97 0
0 98 0
0 97 0
0 98 0
0 98 0
0 97 0
0 98 0
0 97 0
0 97 0
0 98 0
0 98 0
0 98 0
0 97 0
0 99 0
0 97 0
0 98 0
0 97 0
0 98 0
0 97 0
0 97 0
0 98 0
0 97 0
0 98 0
0 97 0
0 98 0
0 97 0
0 97 0
0 99 0
0 97 0
0 96 0
0 97 0
0 98 0
0 97 0
0 97 0
0 98 0
0 97 0
0 97 0
0 97 0
0 98 0
0 98 0
0 99 0
0 98 0
0 98 0
0 98 0
0 98 0
0 97 0
0 98 0
0 97 0
0 97 0
0 97 0
0 97 0
0 98 0
0 98 0
0 98 0
0 98 0
0 98 0
0 98 0
0 98 0
0 97 0
0 98 0
0 97 0
0 98 0
0 98 0
0 98 0
0 97 0
0 98 0
0 97 0
0 99 0
0 97 0
0 97 0
0 98 0
0 99 0
0 98 0
0 96 0
0 97 0
0 98 0
0 98 0
0 98 0
0 98 0
0 98 0
0 98 0
0 98 0
0 98 0
0 97 0
0 97 0
0 98 0
0 97 0
0 99 0
0 98 0
0 98 0
0 97 0
0 98 0
0 98 0
0 97 0
0 98 0
0 97 0
0 98 0
0 99 0
0 99 0
0 99 0
0 97 0
0 98 0
0 98 0
0 97 0
0 98 0
0 99 0
0 99 0
0 98 0
0 98 0
0 98 0
0 98 0
0 98 0
0 98 0
0 97 0
0 98 0
0 97 0
0 99 0
0 98 0
0 98 0
0 98 0
0 97 0
0 97 0
0 98 0
0 98 0
0 98 0
0 98 0
0 98 0
0 98 0
0 98 0
0 98 0
0 98 0
0 98 0
0 97 0
0 98 0
0 98 0
0 98 0
0 98 0
0 98 0
0 98 0
0 98 0
0 98 0
0 97 0
0 97 0
0 98 0
0 98 0
0 98 0
0 98 0
0 98 0
0 98 0
0 98 0
0 96 0
0 97 0
0 98 0
0 98 0
0 96 0
0 98 0
0 98 0
0 98 0
0 98 0
0 98 0
0 97 0
0 98 0
0 98 0
0 96 0
0 98 0
0 98 0
0 98 0
0 97 0
0 98 0
0 98 0
0 99 0
0 97 0
0 97 0
0 98 0
0 97 0
0 96 0
0 98 0
0 97 0
0 98 0
0 98 0
0 98 0
0 98 0
0 98 0
0 98 0
0 98 0
0 98 0
0 98 0
0 99 0
0 97 0
0 97 0
0 98 0
0 98 0
0 98 0
0 97 0
0 98 0
0 98 0
0 98 0
0 97 0
0 97 0
0 97 0
0 98 0
0 98 0
0 98 0
0 98 0
0 98 0
0 99 0
0 98 0
0 97 0
0 98 0
0 98 0
0 97 0
0 98 0
0 97 0
0 97 0
0 96 0
0 99 0
0 99 0
0 97 0
0 98 0
0 96 0
0 98 0
0 96 0
0 98 0
0 98 0
0 97 0
0 98 0
0 99 0
0 97 0
0 97 0
0 97 0
0 97 0
0 97 0
0 99 0
0 98 0
0 97 0
0 98 0
0 98 0
0 98 0
0 97 0
0 98 0
0 96 0
0 97 0
0 98 0
0 98 0
0 96 0
0 97 0
0 97 0
0 97 0
0 98 0
0 96 0
0 98 0
0 98 0
0 97 0
0 98 0
0 98 0
0 98 0
0 97 0
0 97 0
0 98 0
0 98 0
0 98 0
0 98 0
0 97 0
0 97 0
0 99 0
0 97 0
0 97 0
0 98 0
0 96 0
0 98 0
0 97 0
0 96 0
0 96 0
0 97 0
0 97 0
0 98 0
0 98 0
0 97 0
0 98 0
0 96 0
0 98 0
0 98 0
0 98 0
0 98 0
0 96 0
0 98 0
0 98 0
0 95 0
0 99 0
0 97 0
0 96 0
0 97 0
0 97 0
0 97 0
0 98 0
0 98 0
0 97 0
0 97 0
0 97 0
0 97 0
0 99 0
0 97 0
0 98 0
0 98 0
0 97 0
0 97 0
0 98 0
0 99 0
0 98 0
0 97 0
0 98 0
0 97 0
0 97 0
0 97 0
0 97 0
0 95 0
0 97 0
0 95 0
0 97 0
0 98 0
0 97 0
0 94 0
0 96 0
0 98 0
0 97 0
0 98 0
0 96 0
0 97 0
0 95 0
0 97 0
0 96 0
0 98 0
0 97 0
0 98 0
0 97 0
0 98 0
0 97 0
0 99 0
0 97 0
0 98 0
0 96 0
0 96 0
0 98 0
0 98 0
0 97 0
0 98 0
0 98 0
0 97 0
0 96 0
0 98 0
0 98 0
0 96 0
0 96 0
0 98 0
0 97 0
0 98 0
0 96 0
0 97 0
0 97 0
0 98 0
0 97 0
0 98 0
0 97 0
0 97 0
0 96 0
0 98 0
0 97 0
0 98 0
0 98 0
0 98 0
0 98 0
0 97 0
0 98 0
0 97 0
0 97 0
0 96 0
0 97 0
0 97 0
0 97 0
0 97 0
0 98 0
0 98 0
0 97 0
0 98 0
0 98 0
0 96 0
0 98 0
0 97 0
0 96 0
0 97 0
0 97 0
0 98 0
0 97 0
0 97 0
0 97 0
0 99 0
0 97 0
0 97 0
0 97 0
0 98 0
0 98 0
0 96 0
0 98 0
0 96 0
0 98 0
0 97 0
0 97 0
0 97 0
0 97 0
0 98 0
0 97 0
0 97 0
0 97 0
0 98 0
0 97 0
0 98 0
0 98 0
0 97 0
0 97 0
0 98 0
0 98 0
0 98 0
0 98 0
0 98 0
0 98 0
0 99 0
0 97 0
0 98 0
0 98 0
0 97 0
0 98 0
0 97 0
0 98 0
0 98 0
0 97 0
0 98 0
0 97 0
0 98 0
0 98 0
0 98 0
0 98 0
0 98 0
0 98 0
0 98 0
0 98 0
0 96 0
0 97 0
0 97 0
0 97 0
0 98 0
0 97 0
0 98 0
0 98 0
0 97 0
0 98 0
0 98 0
0 98 0
0 97 0
0 97 0
0 96 0
0 97 0
0 96 0
0 98 0
0 98 0
0 98 0
0 99 0
0 98 0
0 97 0
0 97 0
0 98 0
0 98 0
0 98 0
0 97 0
0 98 0
0 98 0
0 98 0
0 98 0
0 98 0
0 98 0
0 98 0
0 97 0
0 99 0
0 98 0
0 97 0
0 97 0
0 98 0
0 98 0
0 96 0
0 98 0
0 98 0
0 97 0
0 97 0
0 96 0
0 98 0
0 97 0
0 97 0
0 97 0
0 97 0
0 97 0
0 98 0
0 96 0
0 98 0
0 98 0
0 97 0
0 97 0
0 98 0
0 99 0
0 99 0
0 98 0
0 97 0
0 97 0
0 98 0
0 97 0
0 99 0
0 98 0
0 98 0
0 97 0
0 96 0
0 98 0
0 99 0
0 96 0
0 98 0
0 98 0
0 97 0
0 97 0
0 97 0
0 98 0
0 97 0
0 98 0
0 98 0
0 98 0
0 98 0
0 98 0
0 98 0
0 98 0
0 97 0
0 98 0
0 97 0
0 97 0
0 98 0
0 98 0
0 98 0
0 98 0
0 99 0
0 97 0
0 98 0
0 98 0
0 97 0
0 98 0
0 98 0
0 98 0
0 97 0
0 97 0
0 98 0
0 98 0
0 98 0
0 97 0
0 98 0
0 98 0
0 97 0
0 98 0
0 98 0
0 98 0
0 98 0
0 98 0
0 98 0
0 97 0
0 99 0
0 98 0
0 98 0
0 98 0
0 98 0
0 97 0
0 98 0
0 99 0
0 98 0
0 97 0
0 98 0
0 99 0
0 97 0
0 97 0
0 97 0
0 98 0
0 98 0
0 98 0
0 98 0
0 99 0
0 98 0
0 97 0
0 98 0
0 95 0
0 98 0
0 97 0
0 97 0
0 98 0
0 97 0
0 98 0
0 98 0
0 97 0
0 98 0
0 98 0
0 98 0
0 97 0
0 98 0
0 97 0
0 98 0
0 98 0
0 97 0
0 97 0
0 96 0
0 98 0
0 97 0
0 97 0
0 98 0
0 97 0
0 98 0
0 97 0
0 97 0
0 97 0
0 98 0
0 97 0
0 96 0
0 97 0
0 97 0
0 98 0
0 98 0
0 97 0
0 98 0
0 97 0
0 98 0
0 97 0
0 98 0
0 97 0
0 98 0
0 98 0
0 97 0
0 98 0
0 97 0
0 97 0
0 98 0
0 98 0
0 97 0
0 97 0
0 98 0
0 98 0
0 97 0
0 97 0
0 97 0
0 97 0
0 98 0
0 98 0
0 97 0
0 97 0
0 97 0
0 97 0
0 97 0
0 97 0
0 96 0
0 98 0
0 97 0
0 98 0
0 97 0
0 97 0
0 98 0
0 97 0
0 97 0
0 97 0
0 98 0
0 97 0
0 97 0
0 98 0
0 98 0
0 97 0
0 98 0
0 98 0
0 97 0
0 96 0
0 98 0
0 96 0
0 97 0
0 98 0
0 98 0
0 97 0
0 97 0
0 97 0
0 98 0
0 97 0
0 96 0
0 97 0
0 98 0
0 96 0
0 98 0
0 98 0
0 96 0
0 97 0
0 97 0
0 98 0
0 96 0
0 98 0
0 98 0
0 97 0
0 96 0
0 98 0
0 98 0
0 98 0
0 98 0
0 97 0
0 98 0
0 97 0
0 98 0
0 98 0
0 99 0
0 98 0
0 96 0
0 98 0
0 97 0
0 98 0
0 98 0
0 97 0
0 95 0
0 98 0
0 97 0
0 98 0
0 97 0
0 97 0
0 97 0
0 98 0
0 99 0
0 96 0
0 98 0
0 98 0
0 96 0
0 96 0
0 98 0
0 97 0
0 98 0
0 97 0
0 98 0
0 97 0
0 97 0
0 98 0
0 98 0
0 98 0
0 97 0
0 97 0
0 97 0
0 98 0
0 97 0
0 97 0
0 97 0
0 98 0
0 98 0
0 97 0
0 97 0
0 97 0
0 97 0
0 98 0
0 98 0
0 97 0
0 98 0
0 97 0
0 98 0
0 97 0
0 98 0
0 97 0
0 96 0
0 98 0
0 97 0
0 98 0
0 98 0
0 98 0
0 98 0
0 96 0
0 96 0
0 97 0
0 98 0
0 98 0
0 97 0
0 98 0
0 98 0
0 98 0
0 95 0
0 96 0
0 96 0
0 97 0
0 98 0
0 98 0
0 98 0
0 98 0
0 97 0
0 97 0
0 99 0
0 98 0
0 98 0
0 99 0
0 97 0
0 97 0
0 98 0
0 97 0
0 97 0
0 98 0
0 98 0
0 97 0
0 97 0
0 97 0
0 97 0
0 97 0
0 98 0
0 95 0
0 97 0
0 98 0
0 98 0
0 96 0
0 97 0
0 98 0
0 98 0
0 98 0
0 97 0
0 97 0
0 96 0
0 98 0
0 98 0
0 98 0
0 96 0
0 97 0
0 97 0
0 97 0
0 98 0
0 97 0
0 98 0
0 98 0
0 98 0
0 98 0
0 99 0
0 98 0
0 97 0
0 97 0
0 97 0
0 98 0
0 97 0
0 98 0
0 99 0
0 97 0
0 98 0
0 96 0
0 97 0
0 98 0
0 98 0
0 97 0
0 98 0
0 97 0
0 97 0
0 98 0
0 97 0
0 98 0
0 98 0
0 97 0
0 98 0
0 97 0
0 97 0
0 96 0
0 98 0
0 98 0
0 98 0
0 98 0
0 98 0
0 97 0
0 97 0
0 97 0
0 97 0
0 97 0
0 99 0
0 98 0
0 98 0
0 96 0
0 97 0
0 97 0
0 98 0
0 98 0
0 97 0
0 98 0
0 97 0
0 97 0
0 99 0
0 98 0
0 98 0
0 98 0
0 98 0
0 98 0
0 98 0
0 99 0
0 97 0
0 97 0
0 97 0
0 98 0
0 98 0
0 98 0
0 97 0
0 99 0
0 98 0
0 99 0
0 97 0
0 97 0
0 98 0
0 98 0
0 97 0
0 98 0
0 98 0
0 99 0
0 99 0
0 99 0
0 99 0
0 98 0
0 98 0
0 96 0
0 96 0
0 98 0
0 98 0
0 97 0
0 97 0
0 98 0
0 98 0
0 96 0
0 97 0
0 97 0
0 98 0
0 97 0
0 98 0
0 97 0
0 97 0
0 98 0
0 97 0
0 98 0
0 98 0
0 98 0
0 98 0
0 99 0
0 98 0
0 98 0
0 98 0
0 98 0
0 97 0
0 97 0
0 98 0
0 98 0
0 98 0
0 97 0
0 99 0
0 98 0
0 97 0
0 98 0
0 97 0
0 98 0
0 97 0
0 98 0
0 98 0
0 98 0
0 97 0
0 97 0
0 96 0
0 98 0
0 98 0
0 97 0
0 98 0
0 97 0
0 98 0
0 97 0
0 97 0
0 98 0
0 98 0
0 98 0
0 98 0
0 97 0
0 99 0
0 98 0
0 98 0
0 97 0
0 98 0
0 98 0
0 98 0
0 98 0
0 97 0
0 98 0
0 99 0
0 98 0
0 97 0
0 98 0
0 98 0
0 97 0
0 98 0
0 98 0
0 97 0
0 96 0
0 97 0
0 98 0
0 97 0
0 98 0
0 97 0
0 98 0
0 97 0
0 98 0
0 98 0
0 97 0
0 97 0
0 98 0
0 98 0
0 98 0
0 97 0
0 98 0
0 98 0
0 97 0
0 97 0
0 97 0
0 98 0
0 98 0
0 97 0
0 98 0
0 97 0
0 98 0
0 98 0
0 98 0
0 97 0
0 97 0
0 97 0
0 97 0
0 99 0
0 97 0
0 98 0
0 98 0
0 97 0
0 98 0
0 98 0
0 96 0
0 98 0
0 98 0
0 96 0
0 97 0
0 98 0
0 96 0
0 97 0
0 99 0
0 98 0
0 97 0
0 97 0
0 98 0
0 97 0
0 97 0
0 97 0
0 97 0
0 97 0
0 97 0
0 98 0
0 97 0
0 97 0
0 98 0
0 97 0
0 97 0
0 98 0
0 98 0
0 98 0
0 98 0
0 98 0
0 97 0
0 97 0
0 97 0
0 97 0
0 96 0
0 98 0
0 97 0
0 97 0
0 97 0
0 97 0
0 97 0
0 97 0
0 97 0
0 97 0
0 98 0
0 99 0
0 98 0
0 98 0
0 99 0
0 97 0
0 98 0
0 97 0
0 96 0
0 97 0
0 97 0
0 98 0
0 98 0
0 98 0
0 98 0
0 97 0
0 97 0
0 97 0
0 98 0
0 97 0
0 96 0
0 98 0
0 98 0
0 97 0
0 98 0
0 97 0
0 98 0
0 98 0
0 99 0
0 97 0
0 98 0
0 97 0
0 97 0
0 97 0
0 96 0
0 98 0
0 98 0
0 98 0
0 97 0
0 98 0
0 97 0
0 97 0
0 98 0
0 98 0
0 98 0
0 97 0
0 97 0
0 97 0
0 98 0
0 98 0
0 98 0
0 97 0
0 97 0
0 97 0
0 96 0
0 96 0
0 99 0
0 97 0
0 96 0
0 97 0
0 98 0
0 97 0
0 97 0
0 96 0
0 98 0
0 96 0
0 98 0
0 97 0
0 97 0
0 97 0
0 97 0
0 97 0
0 97 0
0 98 0
0 97 0
0 98 0
0 98 0
0 98 0
0 97 0
0 98 0
0 97 0
0 98 0
0 97 0
0 97 0
0 97 0
0 98 0
0 98 0
0 98 0
0 98 0
0 96 0
0 98 0
0 97 0
0 98 0
0 97 0
0 98 0
0 98 0
0 96 0
0 98 0
0 99 0
0 96 0
0 97 0
0 97 0
0 97 0
0 98 0
0 96 0
0 98 0
0 98 0
0 97 0
0 98 0
0 98 0
0 96 0
0 97 0
0 98 0
0 98 0
0 98 0
0 98 0
0 95 0
0 97 0
0 97 0
0 97 0
0 98 0
0 96 0
0 98 0
0 97 0
0 97 0
0 98 0
0 96 0
0 98 0
0 97 0
0 98 0
0 98 0
0 97 0
0 98 0
0 97 0
0 98 0
0 98 0
0 97 0
0 98 0
0 98 0
0 97 0
0 97 0
0 97 0
0 98 0
0 97 0
0 96 0
0 97 0
0 98 0
0 97 0
0 98 0
0 98 0
0 97 0
0 95 0
0 97 0
0 97 0
0 98 0
0 97 0
0 98 0
0 97 0
0 97 0
0 97 0
0 99 0
0 98 0
0 98 0
0 99 0
0 98 0
0 97 0
0 98 0
0 98 0
0 98 0
0 98 0
0 97 0
0 97 0
0 98 0
0 97 0
0 98 0
0 98 0
0 97 0
0 98 0
0 98 0
0 98 0
0 97 0
0 96 0
0 98 0
0 98 0
0 98 0
0 99 0
0 98 0
0 97 0
0 97 0
0 98 0
0 95 0
0 97 0
0 98 0
0 99 0
0 99 0
0 98 0
0 96 0
0 98 0
0 98 0
0 98 0
0 98 0
0 98 0
0 99 0
0 97 0
0 97 0
0 97 0
0 97 0
0 97 0
0 98 0
0 99 0
0 98 0
0 98 0
0 97 0
0 97 0
0 98 0
0 97 0
0 97 0
0 96 0
0 98 0
0 98 0
0 97 0
0 98 0
0 98 0
0 98 0
0 98 0
0 97 0
0 99 0
0 98 0
0 98 0
0 97 0
0 98 0
0 98 0
0 98 0
0 99 0
0 98 0
0 98 0
0 97 0
0 98 0
0 98 0
0 98 0
0 98 0
0 98 0
0 98 0
0 98 0
0 97 0
0 98 0
0 98 0
0 98 0
0 98 0
0 97 0
0 98 0
0 98 0
0 98 0
0 98 0
0 98 0
0 98 0
0 98 0
0 98 0
0 98 0
0 98 0
0 98 0
0 97 0
0 98 0
0 98 0
0 98 0
0 97 0
0 99 0
0 97 0
0 98 0
0 99 0
0 98 0
0 98 0
0 97 0
0 98 0
0 97 0
0 98 0
0 99 0
0 97 0
0 99 0
0 98 0
0 97 0
0 97 0
0 97 0
0 98 0
0 97 0
0 98 0
0 98 0
0 96 0
0 98 0
0 97 0
0 99 0
0 98 0
0 97 0
0 98 0
0 98 0
0 98 0
0 97 0
0 98 0
0 98 0
0 98 0
0 97 0
0 97 0
0 98 0
0 97 0
0 98 0
0 97 0
0 97 0
0 98 0
0 98 0
0 97 0
0 98 0
0 98 0
0 98 0
0 98 0
0 98 0
0 98 0
0 98 0
0 96 0
0 97 0
0 97 0
0 98 0
0 98 0
0 98 0
0 96 0
0 99 0
0 96 0
0 97 0
0 96 0
0 99 0
0 96 0
0 97 0
0 97 0
0 98 0
0 98 0
0 96 0
0 97 0
0 98 0
0 98 0
0 99 0
0 97 0
0 98 0
0 98 0
0 97 0
0 98 0
0 97 0
0 97 0
0 98 0
0 97 0
0 97 0
0 97 0
0 98 0
0 98 0
0 97 0
0 95 0
0 98 0
0 98 0
0 98 0
0 98 0
0 97 0
0 97 0
0 97 0
0 98 0
0 98 0
0 98 0
0 98 0
0 97 0
0 98 0
0 97 0
0 96 0
0 98 0
0 98 0
0 97 0
0 97 0
0 98 0
0 97 0
0 98 0
0 97 0
0 97 0
0 98 0
0 98 0
0 96 0
0 97 0
0 96 0
0 96 0
0 97 0
0 96 0
0 96 0
0 98 0
0 98 0
0 99 0
0 98 0
0 97 0
0 96 0
0 98 0
0 98 0
0 97 0
0 98 0
0 96 0
0 98 0
0 98 0
0 97 0
0 98 0
0 98 0
0 96 0
0 98 0
0 97 0
0 97 0
0 98 0
0 96 0
0 98 0
0 97 0
0 98 0
0 97 0
0 97 0
0 97 0
0 98 0
0 98 0
0 98 0
0 97 0
0 98 0
0 96 0
0 98 0
0 98 0
0 96 0
0 98 0
0 97 0
0 98 0
0 98 0
0 96 0
0 96 0
0 98 0
0 98 0
0 96 0
0 97 0
0 97 0
0 97 0
0 97 0
0 98 0
0 95 0
0 98 0
0 98 0
0 97 0
0 96 0
0 97 0
0 96 0
0 98 0
0 97 0
0 97 0
0 97 0
0 97 0
0 98 0
0 95 0
0 96 0
0 97 0
0 97 0
0 97 0
0 98 0
0 97 0
0 98 0
0 96 0
0 97 0
0 98 0
0 98 0
0 98 0
0 98 0
0 98 0
0 98 0
0 98 0
0 97 0
0 97 0
0 98 0
0 97 0
0 97 0
0 96 0
0 98 0
0 96 0
0 97 0
0 96 0
0 96 0
0 97 0
0 98 0
0 98 0
0 96 0
0 98 0
0 98 0
0 97 0
0 97 0
0 97 0
0 97 0
0 97 0
0 98 0
0 98 0
0 98 0
0 96 0
0 98 0
0 98 0
0 98 0
0 95 0
0 97 0
0 96 0
0 97 0
0 98 0
0 97 0
0 96 0
0 97 0
0 97 0
0 97 0
0 98 0
0 98 0
0 98 0
0 98 0
0 99 0
0 97 0
0 96 0
0 98 0
0 97 0
0 98 0
0 98 0
0 98 0
0 97 0
0 96 0
0 97 0
0 97 0
0 98 0
0 98 0
0 98 0
0 97 0
0 98 0
0 97 0
0 97 0
0 98 0
0 98 0
0 97 0
0 98 0
0 97 0
0 97 0
0 94 0
0 98 0
0 98 0
0 97 0
0 97 0
0 97 0
0 98 0
0 97 0
0 98 0
0 98 0
0 99 0
0 97 0
0 98 0
0 98 0
0 97 0
0 98 0
0 97 0
0 96 0
0 98 0
0 95 0
0 98 0
0 96 0
0 98 0
0 98 0
0 97 0
0 98 0
0 99 0
0 96 0
0 98 0
0 96 0
0 98 0
0 99 0
0 98 0
0 98 0
0 96 0
0 98 0
0 98 0
0 98 0
0 97 0
0 97 0
0 97 0
0 98 0
0 97 0
0 98 0
0 98 0
0 97 0
0 98 0
0 98 0
0 96 0
0 96 0
0 99 0
0 99 0
0 98 0
0 98 0
0 98 0
0 97 0
0 98 0
0 97 0
0 97 0
0 98 0
0 98 0
0 98 0
0 98 0
0 99 0
0 97 0
0 97 0
0 98 0
0 96 0
0 98 0
0 98 0
0 97 0
0 98 0
0 96 0
0 98 0
0 97 0
0 97 0
0 98 0
0 97 0
0 96 0
0 97 0
0 98 0
0 98 0
0 98 0
0 97 0
0 97 0
0 98 0
0 97 0
0 99 0
0 98 0
0 97 0
0 98 0
0 98 0
0 98 0
0 97 0
0 98 0
0 99 0
0 99 0
0 97 0
0 97 0
0 98 0
0 98 0
0 97 0
0 97 0
0 98 0
0 98 0
0 98 0
0 99 0
0 98 0
0 98 0
0 98 0
0 97 0
0 97 0
0 98 0
0 97 0
0 98 0
0 98 0
0 97 0
0 98 0
0 96 0
0 97 0
0 97 0
0 98 0
0 98 0
0 97 0
0 98 0
0 97 0
0 98 0
0 98 0
0 98 0
0 98 0
0 98 0
0 98 0
0 98 0
0 97 0
0 98 0
0 97 0
0 97 0
0 98 0
0 97 0
0 98 0
0 98 0
0 98 0
0 98 0
0 98 0
0 98 0
0 97 0
0 97 0
0 98 0
0 97 0
0 99 0
0 97 0
0 97 0
0 97 0
0 98 0
0 99 0
0 98 0
0 97 0
0 97 0
0 97 0
0 97 0
0 97 0
0 98 0
0 98 0
0 98 0
0 97 0
0 98 0
0 98 0
0 98 0
0 97 0
0 98 0
0 98 0
0 98 0
0 98 0
0 97 0
0 97 0
0 99 0
0 97 0
0 97 0
0 97 0
0 98 0
0 98 0
0 97 0
0 97 0
0 97 0
0 97 0
0 98 0
0 97 0
0 97 0
0 97 0
0 95 0
0 97 0
0 98 0
0 96 0
0 97 0
0 97 0
0 97 0
0 98 0
0 97 0
0 96 0
0 98 0
0 97 0
0 96 0
0 95 0
0 97 0
0 98 0
0 97 0
0 95 0
0 98 0
0 99 0
0 97 0
0 98 0
0 97 0
0 96 0
0 98 0
0 97 0
0 98 0
0 99 0
0 98 0
0 97 0
0 98 0
0 97 0
0 97 0
0 97 0
0 98 0
0 98 0
0 98 0
0 97 0
0 98 0
0 98 0
0 98 0
0 97 0
0 98 0
0 98 0
0 96 0
0 96 0
0 97 0
0 96 0
0 97 0
0 97 0
0 97 0
0 98 0
0 98 0
0 98 0
0 98 0
0 97 0
0 95 0
0 98 0
0 98 0
0 98 0
0 98 0
0 98 0
0 97 0
0 98 0
0 98 0
0 96 0
0 97 0
0 96 0
0 96 0
0 99 0
0 97 0
0 98 0
0 98 0
0 98 0
0 96 0
0 98 0
0 98 0
0 97 0
0 99 0
0 98 0
0 96 0
0 97 0
0 98 0
0 98 0
0 98 0
0 98 0
0 96 0
0 96 0
0 98 0
0 97 0
0 98 0
0 97 0
0 98 0
0 98 0
0 98 0
0 98 0
0 98 0
0 97 0
0 97 0
0 98 0
0 97 0
0 98 0
0 97 0
0 99 0
0 96 0
0 98 0
0 98 0
0 96 0
0 97 0
0 99 0
0 98 0
0 98 0
0 98 0
0 98 0
0 97 0
0 98 0
0 98 0
0 97 0
0 98 0
0 98 0
0 98 0
0 98 0
0 97 0
0 97 0
0 97 0
0 97 0
0 97 0
0 97 0
0 98 0
0 99 0
0 98 0
0 97 0
0 98 0
0 97 0
0 98 0
0 98 0
0 96 0
0 97 0
0 98 0
0 97 0
0 98 0
0 98 0
0 96 0
0 98 0
0 97 0
0 97 0
0 98 0
0 98 0
0 97 0
0 98 0
0 99 0
0 97 0
0 96 0
0 97 0
0 98 0
0 97 0
0 98 0
0 98 0
0 97 0
0 98 0
0 98 0
0 98 0
0 98 0
0 97 0
0 97 0
0 98 0
0 97 0
0 98 0
0 97 0
0 98 0
0 97 0
0 98 0
0 97 0
0 97 0
0 98 0
0 98 0
0 98 0
0 98 0
0 97 0
0 98 0
0 96 0
0 98 0
0 98 0
0 97 0
0 98 0
0 97 0
0 97 0
0 98 0
0 97 0
0 97 0
0 97 0
0 98 0
0 97 0
0 98 0
0 98 0
0 98 0
0 98 0
0 98 0
0 96 0
0 98 0
0 97 0
0 97 0
0 98 0
0 96 0
0 97 0
0 96 0
0 98 0
0 98 0
0 97 0
0 97 0
0 98 0
0 98 0
0 99 0
0 97 0
0 98 0
0 98 0
0 98 0
0 97 0
0 97 0
0 97 0
0 98 0
0 99 0
0 97 0
0 99 0
0 97 0
0 97 0
0 98 0
0 95 0
0 99 0
0 98 0
0 97 0
0 98 0
0 97 0
0 98 0
0 97 0
0 97 0
0 98 0
0 97 0
0 97 0
0 97 0
0 98 0
0 97 0
0 97 0
0 96 0
0 97 0
0 98 0
0 98 0
0 98 0
0 98 0
0 97 0
0 98 0
0 98 0
0 98 0
0 98 0
0 98 0
0 98 0
0 98 0
0 98 0
0 98 0
0 97 0
0 98 0
0 97 0
0 98 0
0 97 0
0 98 0
0 98 0
0 98 0
0 98 0
0 98 0
0 98 0
0 98 0
0 98 0
0 97 0
0 98 0
0 98 0
0 97 0
0 97 0
0 97 0
0 98 0
0 98 0
0 97 0
0 98 0
0 97 0
0 99 0
0 97 0
0 98 0
0 98 0
0 98 0
0 97 0
0 97 0
0 98 0
0 99 0
0 98 0
0 99 0
0 98 0
0 98 0
0 98 0
0 98 0
0 98 0
0 99 0
0 98 0
0 98 0
0 98 0
0 97 0
0 98 0
0 98 0
0 97 0
0 98 0
0 99 0
0 98 0
0 99 0
0 98 0
0 98 0
0 96 0
0 98 0
0 98 0
0 98 0
0 97 0
0 97 0
0 99 0
0 98 0
0 97 0
0 98 0
0 98 0
0 99 0
0 99 0
0 97 0
0 97 0
0 96 0
0 96 0
0 99 0
0 98 0
0 97 0
0 98 0
0 98 0
0 97 0
0 99 0
0 98 0
0 98 0
0 98 0
0 98 0
0 97 0
0 98 0
0 98 0
0 97 0
0 98 0
0 98 0
0 97 0
0 99 0
0 98 0
0 98 0
0 98 0
0 97 0
0 98 0
0 97 0
0 98 0
0 98 0
0 98 0
0 97 0
0 97 0
0 98 0
0 97 0
0 98 0
0 98 0
0 97 0
0 98 0
0 98 0
0 97 0
0 97 0
0 99 0
0 98 0
0 98 0
0 96 0
0 98 0
0 97 0
0 98 0
0 96 0
0 99 0
0 98 0
0 98 0
0 97 0
0 96 0
0 97 0
0 99 0
0 98 0
0 98 0
0 96 0
0 97 0
0 97 0
0 98 0
0 97 0
0 98 0
0 96 0
0 98 0
0 97 0
0 98 0
0 98 0
0 98 0
0 98 0
0 98 0
0 99 0
0 97 0
0 97 0
0 98 0
0 97 0
0 98 0
0 97 0
0 98 0
0 97 0
0 98 0
0 97 0
0 98 0
0 98 0
0 98 0
0 97 0
0 98 0
0 97 0
0 97 0
0 97 0
0 98 0
0 98 0
0 97 0
0 97 0
0 97 0
0 98 0
0 98 0
0 97 0
0 98 0
0 98 0
0 97 0
0 97 0
0 98 0
0 98 0
0 97 0
0 98 0
0 98 0
0 97 0
0 97 0
0 98 0
0 97 0
0 97 0
0 98 0
0 98 0
0 98 0
0 97 0
0 96 0
0 97 0
0 98 0
0 97 0
0 97 0
0 97 0
0 98 0
0 97 0
0 97 0
0 96 0
0 98 0
0 98 0
0 97 0
0 98 0
0 97 0
0 97 0
0 98 0
0 97 0
0 98 0
0 98 0
0 97 0
0 97 0
0 97 0
0 97 0
0 96 0
0 97 0
0 98 0
0 97 0
0 97 0
0 97 0
0 98 0
0 98 0
0 97 0
0 98 0
0 98 0
0 98 0
0 97 0
0 98 0
0 98 0
0 98 0
0 98 0
0 97 0
0 98 0
0 95 0
0 99 0
0 97 0
0 96 0
0 97 0
0 98 0
0 95 0
0 95 0
0 98 0
0 97 0
0 98 0
0 98 0
0 99 0
0 96 0
0 98 0
0 97 0
0 97 0
0 96 0
0 98 0
0 97 0
0 99 0
0 97 0
0 99 0
0 98 0
0 98 0
0 98 0
0 96 0
0 98 0
0 98 0
0 97 0
0 97 0
0 97 0
0 97 0
0 97 0
0 98 0
0 98 0
0 98 0
0 98 0
0 95 0
0 98 0
0 98 0
0 96 0
0 98 0
0 97 0
0 98 0
0 96 0
0 98 0
0 98 0
0 98 0
0 97 0
0 99 0
0 97 0
0 98 0
0 97 0
0 97 0
0 98 0
0 97 0
0 97 0
0 98 0
0 96 0
0 97 0
0 97 0
0 98 0
0 95 0
0 97 0
0 98 0
0 97 0
0 97 0
0 98 0
0 98 0
0 97 0
0 97 0
0 97 0
0 98 0
0 97 0
0 98 0
0 97 0
0 96 0
0 97 0
0 96 0
0 96 0
0 98 0
0 97 0
0 96 0
0 98 0
0 98 0
0 98 0
0 98 0
0 98 0
0 97 0
0 98 0
0 98 0
0 97 0
0 97 0
0 97 0
0 98 0
0 97 0
0 97 0
0 98 0
0 98 0
0 99 0
0 97 0
0 96 0
0 98 0
0 96 0
0 97 0
0 99 0
0 98 0
0 97 0
0 98 0
0 98 0
0 98 0
0 99 0
0 97 0
0 97 0
0 98 0
0 96 0
0 98 0
0 97 0
0 97 0
0 98 0
0 98 0
0 96 0
0 97 0
0 99 0
0 96 0
0 99 0
0 98 0
0 98 0
0 98 0
0 98 0
0 96 0
0 95 0
0 98 0
0 97 0
0 97 0
0 97 0
0 97 0
0 97 0
0 97 0
0 98 0
0 98 0
0 98 0
0 97 0
0 98 0
0 98 0
0 98 0
0 97 0
0 97 0
0 98 0
0 98 0
0 97 0
0 97 0
0 97 0
0 97 0
0 97 0
0 98 0
0 98 0
0 98 0
0 97 0
0 98 0
0 97 0
0 97 0
0 98 0
0 98 0
0 97 0
0 99 0
0 98 0
0 98 0
0 97 0
0 98 0
0 98 0
0 97 0
0 99 0
0 98 0
0 98 0
0 98 0
0 98 0
0 97 0
0 98 0
0 97 0
0 97 0
0 97 0
0 98 0
0 98 0
0 98 0
0 99 0
0 98 0
0 98 0
0 98 0
0 97 0
0 98 0
0 98 0
0 98 0
0 98 0
0 98 0
0 97 0
0 98 0
0 98 0
0 98 0
0 98 0
0 98 0
0 98 0
0 98 0
0 98 0
0 97 0
0 98 0
0 98 0
0 98 0
0 98 0
0 97 0
0 97 0
0 98 0
0 98 0
0 97 0
0 97 0
0 98 0
0 99 0
0 98 0
0 97 0
0 97 0
0 98 0
0 99 0
0 96 0
0 97 0
0 98 0
0 99 0
0 99 0
0 97 0
0 98 0
0 97 0
0 97 0
0 99 0
0 98 0
0 98 0
0 99 0
0 97 0
0 97 0
0 97 0
0 98 0
0 98 0
0 98 0
0 98 0
0 98 0
0 98 0
0 98 0
0 98 0
0 97 0
0 97 0
0 98 0
0 97 0
0 99 0
0 98 0
0 97 0
0 98 0
0 98 0
0 98 0
0 98 0
0 98 0
0 98 0
0 97 0
0 98 0
0 98 0
0 99 0
0 98 0
0 98 0
0 97 0
0 97 0
0 97 0
0 97 0
0 98 0
0 98 0
0 98 0
0 99 0
0 98 0
0 98 0
0 98 0
0 97 0
0 99 0
0 98 0
0 98 0
0 99 0
0 98 0
0 98 0
0 98 0
0 97 0
0 98 0
0 97 0
0 97 0
0 98 0
0 97 0
0 97 0
0 98 0
0 98 0
0 98 0
0 98 0
0 97 0
0 97 0
0 98 0
0 98 0
0 98 0
0 97 0
0 98 0
0 98 0
0 98 0
0 98 0
0 97 0
0 98 0
0 97 0
0 96 0
0 97 0
0 97 0
0 98 0
0 96 0
0 98 0
0 97 0
0 98 0
0 98 0
0 98 0
0 98 0
0 98 0
0 98 0
0 98 0
0 97 0
0 98 0
0 98 0
0 98 0
0 96 0
0 97 0
0 98 0
0 97 0
0 98 0
0 98 0
0 97 0
0 97 0
0 97 0
0 97 0
0 98 0
0 95 0
0 96 0
0 98 0
0 98 0
0 98 0
0 96 0
0 98 0
0 97 0
0 97 0
0 98 0
0 97 0
0 98 0
0 96 0
0 96 0
0 98 0
0 97 0
0 98 0
0 98 0
0 97 0
0 98 0
0 98 0
0 97 0
0 99 0
0 98 0
0 98 0
0 97 0
0 96 0
0 98 0
0 98 0
0 98 0
0 98 0
0 98 0
0 97 0
0 98 0
0 98 0
0 98 0
0 98 0
0 99 0
0 98 0
0 97 0
0 98 0
0 97 0
0 97 0
0 98 0
0 97 0
0 96 0
0 96 0
0 97 0
0 97 0
0 98 0
0 98 0
0 97 0
0 97 0
0 99 0
0 96 0
0 98 0
0 97 0
0 97 0
0 98 0
0 97 0
0 98 0
0 98 0
0 99 0
0 96 0
0 97 0
0 98 0
0 97 0
0 97 0
0 97 0
0 98 0
0 98 0
0 98 0
0 97 0
0 98 0
0 98 0
0 97 0
0 96 0
0 96 0
0 97 0
0 97 0
0 97 0
0 97 0
0 98 0
0 97 0
0 96 0
0 96 0
0 98 0
0 97 0
0 98 0
0 98 0
0 96 0
0 98 0
0 97 0
0 98 0
0 98 0
0 97 0
0 97 0
0 97 0
0 96 0
0 98 0
0 98 0
0 97 0
0 96 0
0 97 0
0 96 0
0 98 0
0 97 0
0 96 0
0 97 0
0 98 0
0 97 0
0 96 0
0 98 0
0 98 0
0 99 0
0 98 0
0 98 0
0 98 0
0 98 0
0 97 0
0 98 0
0 98 0
0 98 0
0 98 0
0 98 0
0 98 0
0 97 0
0 98 0
0 97 0
0 97 0
0 97 0
0 98 0
0 98 0
0 98 0
0 98 0
0 96 0
0 97 0
0 98 0
0 98 0
0 99 0
0 99 0
0 97 0
0 98 0
0 98 0
0 98 0
0 98 0
0 97 0
0 97 0
0 98 0
0 96 0
0 98 0
0 99 0
0 95 0
0 98 0
0 97 0
0 98 0
0 98 0
0 98 0
0 97 0
0 97 0
0 97 0
0 97 0
0 97 0
0 97 0
0 97 0
0 96 0
0 97 0
0 97 0
0 96 0
0 98 0
0 97 0
0 96 0
0 96 0
0 98 0
0 98 0
0 98 0
0 98 0
0 97 0
0 96 0
0 98 0
0 96 0
0 96 0
0 98 0
0 97 0
0 98 0
0 97 0
0 96 0
0 98 0
0 98 0
0 96 0
0 98 0
0 98 0
0 97 0
0 98 0
0 99 0
0 97 0
0 97 0
0 98 0
0 96 0
0 98 0
0 96 0
0 97 0
0 97 0
0 97 0
0 97 0
0 98 0
0 98 0
0 97 0
0 96 0
0 98 0
0 97 0
0 98 0
0 97 0
0 97 0
0 98 0
0 97 0
0 97 0
0 98 0
0 97 0
0 99 0
0 98 0
0 97 0
0 99 0
0 97 0
0 98 0
0 98 0
0 99 0
0 97 0
0 98 0
0 98 0
0 97 0
0 97 0
0 97 0
0 97 0
0 97 0
0 98 0
0 98 0
0 97 0
0 98 0
0 98 0
0 98 0
0 97 0
0 98 0
0 98 0
0 97 0
0 97 0
0 97 0
0 97 0
0 98 0
0 99 0
0 98 0
0 99 0
0 99 0
0 98 0
0 97 0
0 99 0
0 97 0
0 98 0
0 99 0
0 97 0
0 98 0
0 98 0
0 98 0
0 97 0
0 98 0
0 98 0
0 97 0
0 98 0
0 99 0
0 97 0
0 98 0
0 97 0
0 98 0
0 98 0
0 98 0
0 98 0
0 98 0
0 97 0
0 97 0
0 98 0
0 98 0
0 98 0
0 98 0
0 98 0
0 98 0
0 98 0
0 97 0
0 98 0
0 98 0
0 98 0
0 98 0
0 97 0
0 98 0
0 98 0
0 97 0
0 98 0
0 98 0
0 99 0
0 98 0
0 97 0
0 98 0
0 98 0
0 98 0
0 98 0
0 98 0
0 97 0
0 99 0
0 96 0
0 97 0
0 98 0
0 97 0
0 98 0
0 98 0
0 97 0
0 96 0
0 99 0
0 98 0
0 97 0
0 98 0
0 98 0
0 97 0
0 98 0
0 98 0
0 98 0
0 98 0
0 99 0
0 97 0
0 98 0
0 98 0
0 97 0
0 98 0
0 98 0
0 98 0
0 98 0
0 98 0
0 98 0
0 97 0
0 99 0
0 97 0
0 97 0
0 97 0
0 98 0
0 98 0
0 99 0
0 97 0
0 98 0
0 98 0
0 98 0
0 96 0
0 97 0
0 98 0
0 99 0
0 98 0
0 98 0
0 98 0
0 98 0
0 98 0
0 97 0
0 96 0
0 97 0
0 99 0
0 96 0
0 98 0
0 98 0
0 98 0
0 97 0
0 98 0
0 97 0
0 96 0
0 97 0
0 98 0
0 98 0
0 96 0
0 98 0
0 97 0
0 98 0
0 98 0
0 99 0
0 98 0
0 98 0
0 98 0
0 97 0
0 96 0
0 98 0
0 98 0
0 98 0
0 96 0
0 98 0
0 97 0
0 97 0
0 98 0
0 97 0
0 97 0
0 96 0
0 98 0
0 98 0
0 97 0
0 98 0
0 97 0
0 98 0
0 97 0
0 97 0
0 99 0
0 98 0
0 97 0
0 98 0
0 98 0
0 97 0
0 98 0
0 97 0
0 98 0
0 97 0
0 97 0
0 97 0
0 98 0
0 96 0
0 97 0
0 96 0
0 97 0
0 97 0
0 98 0
0 98 0
0 97 0
0 96 0
0 98 0
0 99 0
0 97 0
0 98 0
0 96 0
0 97 0
0 96 0
0 98 0
0 98 0
0 97 0
0 97 0
0 98 0
0 98 0
0 98 0
0 98 0
0 97 0
0 96 0
0 98 0
0 98 0
0 97 0
0 98 0
0 98 0
0 97 0
0 99 0
0 97 0
0 97 0
0 98 0
0 96 0
0 98 0
0 98 0
0 98 0
0 98 0
0 98 0
0 98 0
0 97 0
0 99 0
0 98 0
0 97 0
0 98 0
0 97 0
0 98 0
0 98 0
0 97 0
0 98 0
0 97 0
0 97 0
0 97 0
0 97 0
0 97 0
0 97 0
0 97 0
0 97 0
0 98 0
0 98 0
0 97 0
0 97 0
0 97 0
0 98 0
0 97 0
0 97 0
0 97 0
0 97 0
0 98 0
0 97 0
0 97 0
0 96 0
0 96 0
0 98 0
0 98 0
0 98 0
0 98 0
0 98 0
0 97 0
0 99 0
0 97 0
0 97 0
0 97 0
0 97 0
0 97 0
0 98 0
0 97 0
0 97 0
0 98 0
0 96 0
0 97 0
0 97 0
0 97 0
0 99 0
0 98 0
0 98 0
0 97 0
0 97 0
0 98 0
0 97 0
0 98 0
0 98 0
0 98 0
0 98 0
0 97 0
0 97 0
0 97 0
0 96 0
0 98 0
0 97 0
0 98 0
0 97 0
0 96 0
0 98 0
0 97 0
0 97 0
0 97 0
0 97 0
0 98 0
0 96 0
0 97 0
0 97 0
0 98 0
0 98 0
0 98 0
0 98 0
0 97 0
0 97 0
0 98 0
0 98 0
0 97 0
0 98 0
0 99 0
0 98 0
0 98 0
0 96 0
0 98 0
0 96 0
0 98 0
0 98 0
0 97 0
0 98 0
0 98 0
0 97 0
0 97 0
0 98 0
0 97 0
0 98 0
0 98 0
0 98 0
0 98 0
0 97 0
0 98 0
0 96 0
0 97 0
0 97 0
0 98 0
0 97 0
0 98 0
0 98 0
0 98 0
0 98 0
0 97 0
0 98 0
0 97 0
0 97 0
0 97 0
0 98 0
0 96 0
0 97 0
0 98 0
0 98 0
0 98 0
0 98 0
0 98 0
0 98 0
0 97 0
0 98 0
0 98 0
0 97 0
0 96 0
0 98 0
0 98 0
0 96 0
0 97 0
0 97 0
0 98 0
0 98 0
0 98 0
0 97 0
0 98 0
0 97 0
0 97 0
0 97 0
0 97 0
0 98 0
0 98 0
0 98 0
0 96 0
0 98 0
0 96 0
0 98 0
0 99 0
0 97 0
0 97 0
0 98 0
0 98 0
0 98 0
0 98 0
0 97 0
0 97 0
0 98 0
0 98 0
0 98 0
0 98 0
0 98 0
0 97 0
0 98 0
0 97 0
0 99 0
0 98 0
0 99 0
0 99 0
0 97 0
0 97 0
0 97 0
0 97 0
0 98 0
0 98 0
0 97 0
0 99 0
0 96 0
0 98 0
0 97 0
0 97 0
0 98 0
0 99 0
0 97 0
0 98 0
0 98 0
0 98 0
0 98 0
0 98 0
0 98 0
0 98 0
0 98 0
0 98 0
0 97 0
0 98 0
0 98 0
0 98 0
0 97 0
0 98 0
0 98 0
0 98 0
0 97 0
0 98 0
0 97 0
0 97 0
0 97 0
0 98 0
0 98 0
0 98 0
0 99 0
0 98 0
0 98 0
0 98 0
0 98 0
0 97 0
0 98 0
0 98 0
0 98 0
0 99 0
0 98 0
0 99 0
0 98 0
0 98 0
0 98 0
0 96 0
0 98 0
0 98 0
0 98 0
0 98 0
0 98 0
0 97 0
0 97 0
0 98 0
0 98 0
0 98 0
0 98 0
0 98 0
0 98 0
0 96 0
0 97 0
0 97 0
0 98 0
0 97 0
0 98 0
0 99 0
0 98 0
0 97 0
0 98 0
0 99 0
0 98 0
0 98 0
0 98 0
0 98 0
0 98 0
0 98 0
0 97 0
0 97 0
0 97 0
0 98 0
0 98 0
0 98 0
0 98 0
0 98 0
0 97 0
0 97 0
0 98 0
0 97 0
0 97 0
0 98 0
0 97 0
0 98 0
0 98 0
0 99 0
0 98 0
0 98 0
0 97 0
0 98 0
0 99 0
0 97 0
0 98 0
0 97 0
0 98 0
0 97 0
0 98 0
0 98 0
0 98 0
0 97 0
0 97 0
0 97 0
0 98 0
0 97 0
0 97 0
0 97 0
0 96 0
0 98 0
0 96 0
0 98 0
0 98 0
0 98 0
0 97 0
0 97 0
0 98 0
0 98 0
0 98 0
0 98 0
0 95 0
0 98 0
0 98 0
0 98 0
0 98 0
0 98 0
0 98 0
0 97 0
0 97 0
0 97 0
0 96 0
0 97 0
0 97 0
0 97 0
0 99 0
0 97 0
0 98 0
0 98 0
0 98 0
0 98 0
0 98 0
0 97 0
0 97 0
0 98 0
0 98 0
0 98 0
0 98 0
0 96 0
0 98 0
0 97 0
0 98 0
0 96 0
0 97 0
0 98 0
0 97 0
0 97 0
0 98 0
0 98 0
0 98 0
0 98 0
0 97 0
0 98 0
0 98 0
0 99 0
0 96 0
0 98 0
0 98 0
0 96 0
0 97 0
0 98 0
0 97 0
0 98 0
0 97 0
0 96 0
0 97 0
0 98 0
0 97 0
0 97 0
0 98 0
0 96 0
0 97 0
0 98 0
0 98 0
0 98 0
0 98 0
0 96 0
0 98 0
0 97 0
0 97 0
0 97 0
0 98 0
0 97 0
0 98 0
0 96 0
0 97 0
0 97 0
0 97 0
0 98 0
0 98 0
0 97 0
0 97 0
0 97 0
0 97 0
0 98 0
0 98 0
0 97 0
0 98 0
0 97 0
0 97 0
0 99 0
0 97 0
0 96 0
0 97 0
0 97 0
0 99 0
0 97 0
0 98 0
0 97 0
0 98 0
0 97 0
0 98 0
0 97 0
0 98 0
0 98 0
0 97 0
0 97 0
0 97 0
0 97 0
0 97 0
0 97 0
0 98 0
0 96 0
0 98 0
0 98 0
0 97 0
0 99 0
0 97 0
0 98 0
0 98 0
0 97 0
0 97 0
0 97 0
0 98 0
0 97 0
0 99 0
0 97 0
0 98 0
0 97 0
0 98 0
0 97 0
0 97 0
0 97 0
0 96 0
0 98 0
0 98 0
0 97 0
0 97 0
0 98 0
0 98 0
0 97 0
0 99 0
0 97 0
0 97 0
0 97 0
0 98 0
0 98 0
0 97 0
0 99 0
0 98 0
0 98 0
0 97 0
0 98 0
0 98 0
0 96 0
0 95 0
0 97 0
0 97 0
0 97 0
0 97 0
0 97 0
0 98 0
0 97 0
0 97 0
0 97 0
0 97 0
0 98 0
0 98 0
0 97 0
0 98 0
0 97 0
0 98 0
0 97 0
0 98 0
0 97 0
0 96 0
0 98 0
0 98 0
0 97 0
0 98 0
0 98 0
0 96 0
0 97 0
0 97 0
0 99 0
0 97 0
0 99 0
0 98 0
0 97 0
0 98 0
0 97 0
0 97 0
0 98 0
0 97 0
0 98 0
0 97 0
0 98 0
0 98 0
0 98 0
0 96 0
0 98 0
0 96 0
0 98 0
0 98 0
0 97 0
0 98 0
0 98 0
0 98 0
0 97 0
0 98 0
0 98 0
0 97 0
0 97 0
0 97 0
0 98 0
0 97 0
0 97 0
0 97 0
0 99 0
0 98 0
0 97 0
0 98 0
0 98 0
0 97 0
0 98 0
0 97 0
0 96 0
0 98 0
0 98 0
0 99 0
0 97 0
0 98 0
0 98 0
0 97 0
0 95 0
0 97 0
0 98 0
0 99 0
0 98 0
0 97 0
0 96 0
0 97 0
0 96 0
0 98 0
0 98 0
0 98 0
0 97 0
0 98 0
0 98 0
0 97 0
0 98 0
0 98 0
0 96 0
0 98 0
0 98 0
0 97 0
0 97 0
0 96 0
0 97 0
0 96 0
0 98 0
0 98 0
0 96 0
0 97 0
0 98 0
0 98 0
0 99 0
0 98 0
0 99 0
0 97 0
0 98 0
0 98 0
0 98 0
0 96 0
0 97 0
0 97 0
0 97 0
0 98 0
0 98 0
0 97 0
0 97 0
0 98 0
0 98 0
0 98 0
0 98 0
0 97 0
0 97 0
0 97 0
0 99 0
0 97 0
0 98 0
0 98 0
0 98 0
0 98 0
0 97 0
0 98 0
0 99 0
0 99 0
0 97 0
0 97 0
0 98 0
0 97 0
0 98 0
0 97 0
0 98 0
0 98 0
0 98 0
0 98 0
0 98 0
0 98 0
0 99 0
0 98 0
0 98 0
0 98 0
0 98 0
0 97 0
0 98 0
0 97 0
0 97 0
0 99 0
0 98 0
0 98 0
0 97 0
0 98 0
0 98 0
0 98 0
0 97 0
0 98 0
0 98 0
0 98 0
0 97 0
0 98 0
0 98 0
0 97 0
0 97 0
0 98 0
0 96 0
0 98 0
0 98 0
0 98 0
0 96 0
0 98 0
0 98 0
0 98 0
0 98 0
0 98 0
0 97 0
0 99 0
0 97 0
0 99 0
0 97 0
0 97 0
0 97 0
0 97 0
0 97 0
0 98 0
0 97 0
0 99 0
0 98 0
0 98 0
0 98 0
0 98 0
0 98 0
0 99 0
0 97 0
0 98 0
0 98 0
0 97 0
0 97 0
0 98 0
0 98 0
0 97 0
0 98 0
0 97 0
0 99 0
0 96 0
0 98 0
0 98 0
0 98 0
0 98 0
0 99 0
0 97 0
0 97 0
0 98 0
0 98 0
0 98 0
0 97 0
0 97 0
0 98 0
0 98 0
0 98 0
0 98 0
0 98 0
0 98 0
0 96 0
0 98 0
0 98 0
0 97 0
0 97 0
0 98 0
0 97 0
0 98 0
0 95 0
0 98 0
0 97 0
0 97 0
0 97 0
0 97 0
0 97 0
0 99 0
0 96 0
0 96 0
0 98 0
0 97 0
0 99 0
0 99 0
0 99 0
0 98 0
0 98 0
0 98 0
0 97 0
0 98 0
0 98 0
0 97 0
0 97 0
0 97 0
0 97 0
0 98 0
0 98 0
0 97 0
0 98 0
0 97 0
0 97 0
0 98 0
0 97 0
0 97 0
0 97 0
0 98 0
0 98 0
0 97 0
0 98 0
0 96 0
0 98 0
0 97 0
0 97 0
0 98 0
0 97 0
0 97 0
0 98 0
0 97 0
0 98 0
0 98 0
0 98 0
0 98 0
0 98 0
0 97 0
0 97 0
0 97 0
0 97 0
0 97 0
0 96 0
0 97 0
0 98 0
0 98 0
0 99 0
0 98 0
0 96 0
0 96 0
0 97 0
0 98 0
0 98 0
0 97 0
0 98 0
0 98 0
0 98 0
0 98 0
0 98 0
0 98 0
0 97 0
0 97 0
0 95 0
0 98 0
0 97 0
0 98 0
0 97 0
0 97 0
0 98 0
0 97 0
0 97 0
0 98 0
0 97 0
0 99 0
0 98 0
0 97 0
0 97 0
0 97 0
0 98 0
0 98 0
0 98 0
0 97 0
0 97 0
0 97 0
0 97 0
0 97 0
0 97 0
0 96 0
0 98 0
0 97 0
0 98 0
0 98 0
0 98 0
0 98 0
0 98 0
0 97 0
0 98 0
0 97 0
0 97 0
0 98 0
0 97 0
0 97 0
0 98 0
0 96 0
0 98 0
0 98 0
0 97 0
0 98 0
0 96 0
0 98 0
0 96 0
0 95 0
0 96 0
0 99 0
0 98 0
0 98 0
0 98 0
0 98 0
0 97 0
0 97 0
0 97 0
0 98 0
0 97 0
0 97 0
0 97 0
0 98 0
0 97 0
0 98 0
0 96 0
0 96 0
0 98 0
0 97 0
0 97 0
0 98 0
0 97 0
0 98 0
0 98 0
0 98 0
0 97 0
0 97 0
0 96 0
0 96 0
0 97 0
0 96 0
0 99 0
0 98 0
0 96 0
0 97 0
0 97 0
0 98 0
0 98 0
0 97 0
0 97 0
0 98 0
0 97 0
0 98 0
0 98 0
0 97 0
0 98 0
0 96 0
0 97 0
0 97 0
0 97 0
0 97 0
0 97 0
0 97 0
0 98 0
0 97 0
0 98 0
0 96 0
0 97 0
0 97 0
0 96 0
0 97 0
0 97 0
0 98 0
0 96 0
0 97 0
0 97 0
0 97 0
0 97 0
0 98 0
0 98 0
0 98 0
0 98 0
0 98 0
0 96 0
0 98 0
0 98 0
0 98 0
0 98 0
0 98 0
0 97 0
0 98 0
0 97 0
0 98 0
0 97 0
0 98 0
0 98 0
0 96 0
0 96 0
0 98 0
0 97 0
0 97 0
0 99 0
0 98 0
0 98 0
0 98 0
0 98 0
0 97 0
0 98 0
0 98 0
0 98 0
0 97 0
0 98 0
0 97 0
0 97 0
0 98 0
0 98 0
0 97 0
0 97 0
0 98 0
0 98 0
0 98 0
0 98 0
0 98 0
0 98 0
0 98 0
0 97 0
0 98 0
0 98 0
0 96 0
0 99 0
0 98 0
0 97 0
0 99 0
0 98 0
0 98 0
0 97 0
0 97 0
0 97 0
0 98 0
0 98 0
0 98 0
0 98 0
0 96 0
0 96 0
0 97 0
0 97 0
0 98 0
0 97 0
0 98 0
0 98 0
0 98 0
0 98 0
0 96 0
0 97 0
0 98 0
0 97 0
0 97 0
0 98 0
0 99 0
0 98 0
0 97 0
0 97 0
0 97 0
0 98 0
0 98 0
0 98 0
0 97 0
0 99 0
0 98 0
0 97 0
0 97 0
0 97 0
0 98 0
0 99 0
0 98 0
0 98 0
0 98 0
0 98 0
0 98 0
0 99 0
0 97 0
0 97 0
0 98 0
0 98 0
0 97 0
0 99 0
0 98 0
0 98 0
0 98 0
0 97 0
0 97 0
0 97 0
0 99 0
0 97 0
0 98 0
0 98 0
0 98 0
0 98 0
0 98 0
0 98 0
0 98 0
0 98 0
0 99 0
0 99 0
0 96 0
0 97 0
0 98 0
0 98 0
0 98 0
0 98 0
0 98 0
0 98 0
0 98 0
0 98 0
0 96 0
0 97 0
0 99 0
0 96 0
0 98 0
0 97 0
0 97 0
0 97 0
0 98 0
0 98 0
0 98 0
0 98 0
0 98 0
0 96 0
0 98 0
0 97 0
0 97 0
0 96 0
0 98 0
0 97 0
0 98 0
0 98 0
0 98 0
0 98 0
0 97 0
0 98 0
0 98 0
0 98 0
0 98 0
0 98 0
0 97 0
0 98 0
0 98 0
0 98 0
0 98 0
0 98 0
0 96 0
0 96 0
0 98 0
0 98 0
0 97 0
0 97 0
0 97 0
0 98 0
0 96 0
0 98 0
0 98 0
0 98 0
0 98 0
0 97 0
0 98 0
0 97 0
0 98 0
0 98 0
0 97 0
0 98 0
0 98 0
0 97 0
0 98 0
0 98 0
0 98 0
0 97 0
0 96 0
0 99 0
0 98 0
0 98 0
0 97 0
0 97 0
0 96 0
0 97 0
0 98 0
0 97 0
0 98 0
0 99 0
0 97 0
0 97 0
0 97 0
0 97 0
0 98 0
0 98 0
0 98 0
0 97 0
0 98 0
0 98 0
0 98 0
0 98 0
0 97 0
0 97 0
0 97 0
0 98 0
0 97 0
0 98 0
0 97 0
0 98 0
0 97 0
0 97 0
0 98 0
0 98 0
0 98 0
0 96 0
0 99 0
0 96 0
0 98 0
0 98 0
0 98 0
0 97 0
0 97 0
0 98 0
0 98 0
0 97 0
0 97 0
0 96 0
0 97 0
0 98 0
0 97 0
0 97 0
0 97 0
0 97 0
0 97 0
0 99 0
0 97 0
0 98 0
0 98 0
0 97 0
0 98 0
0 98 0
0 98 0
0 99 0
0 98 0
0 99 0
0 98 0
0 98 0
0 99 0
0 97 0
0 97 0
0 97 0
0 97 0
0 97 0
0 97 0
0 97 0
0 97 0
0 97 0
0 97 0
0 98 0
0 98 0
0 97 0
0 97 0
0 98 0
0 98 0
0 97 0
0 98 0
0 96 0
0 97 0
0 98 0
0 97 0
0 97 0
0 97 0
0 98 0
0 98 0
0 98 0
0 98 0
0 96 0
0 96 0
0 99 0
0 97 0
0 97 0
0 98 0
0 97 0
0 97 0
0 97 0
0 97 0
0 98 0
0 98 0
0 97 0
0 96 0
0 96 0
0 97 0
0 98 0
0 97 0
0 98 0
0 98 0
0 97 0
0 97 0
0 98 0
0 97 0
0 97 0
0 97 0
0 98 0
0 96 0
0 97 0
0 98 0
0 97 0
0 97 0
0 98 0
0 95 0
0 98 0
0 96 0
0 97 0
0 97 0
0 97 0
0 98 0
0 97 0
0 98 0
0 96 0
0 97 0
0 96 0
0 98 0
0 98 0
0 97 0
0 97 0
0 97 0
0 98 0
0 99 0
0 98 0
0 97 0
0 98 0
0 97 0
0 98 0
0 98 0
0 97 0
0 99 0
0 98 0
0 98 0
0 97 0
0 98 0
0 97 0
0 98 0
0 97 0
0 98 0
0 96 0
0 98 0
0 99 0
0 97 0
0 97 0
0 97 0
0 96 0
0 96 0
0 97 0
0 98 0
0 98 0
0 98 0
0 98 0
0 97 0
0 97 0
0 98 0
0 99 0
0 98 0
0 98 0
0 98 0
0 96 0
0 97 0
0 98 0
0 98 0
0 97 0
0 97 0
0 97 0
0 98 0
0 98 0
0 99 0
0 98 0
0 99 0
0 98 0
0 98 0
0 97 0
0 96 0
0 97 0
0 97 0
0 97 0
0 98 0
0 98 0
0 96 0
0 97 0
0 98 0
0 97 0
0 98 0
0 98 0
0 98 0
0 98 0
0 98 0
0 96 0
0 98 0
0 98 0
0 96 0
0 97 0
0 98 0
0 98 0
0 97 0
0 96 0
0 97 0
0 97 0
0 97 0
0 98 0
0 98 0
0 98 0
0 98 0
0 97 0
0 98 0
0 98 0
0 97 0
0 98 0
0 98 0
0 98 0
0 97 0
0 98 0
0 97 0
0 98 0
0 97 0
0 98 0
0 99 0
0 98 0
0 96 0
0 97 0
0 98 0
0 97 0
0 98 0
0 97 0
0 97 0
0 97 0
0 97 0
0 98 0
0 97 0
0 98 0
0 98 0
0 98 0
0 98 0
0 98 0
0 97 0
0 98 0
0 97 0
0 97 0
0 98 0
0 97 0
0 97 0
0 98 0
0 97 0
0 97 0
0 98 0
0 97 0
0 98 0
0 98 0
0 98 0
0 96 0
0 97 0
0 99 0
0 98 0
0 97 0
0 98 0
0 98 0
0 98 0
0 97 0
0 97 0
0 98 0
0 98 0
0 98 0
0 97 0
0 99 0
0 98 0
0 97 0
0 98 0
0 99 0
0 97 0
0 97 0
0 98 0
0 98 0
0 98 0
0 98 0
0 98 0
0 98 0
0 97 0
0 98 0
0 97 0
0 97 0
0 97 0
0 98 0
0 96 0
0 98 0
0 97 0
0 98 0
0 98 0
0 97 0
0 97 0
0 98 0
0 98 0
0 98 0
0 98 0
0 98 0
0 97 0
0 98 0
0 98 0
0 99 0
0 98 0
0 98 0
0 98 0
0 99 0
0 98 0
0 99 0
0 99 0
0 97 0
0 98 0
0 98 0
0 98 0
0 98 0
0 97 0
0 96 0
0 99 0
0 98 0
0 97 0
0 99 0
0 98 0
0 98 0
0 99 0
0 97 0
0 98 0
0 98 0
0 97 0
0 99 0
0 98 0
0 99 0
0 97 0
0 98 0
0 99 0
0 98 0
0 98 0
0 98 0
0 99 0
0 98 0
0 98 0
0 97 0
0 97 0
0 98 0
0 97 0
0 98 0
0 97 0
0 98 0
0 97 0
0 98 0
0 99 0
0 98 0
0 98 0
0 98 0
0 98 0
0 97 0
0 99 0
0 97 0
0 97 0
0 98 0
0 98 0
0 97 0
0 97 0
0 97 0
0 97 0
0 95 0
0 99 0
0 98 0
0 97 0
0 97 0
0 98 0
0 98 0
0 97 0
0 98 0
0 98 0
0 98 0
0 96 0
0 96 0
0 98 0
0 97 0
0 97 0
0 96 0
0 97 0
0 98 0
0 97 0
0 98 0
0 97 0
0 97 0
0 98 0
0 96 0
0 98 0
0 99 0
0 98 0
0 97 0
0 97 0
0 97 0
0 97 0
0 98 0
0 98 0
0 99 0
0 98 0
0 99 0
0 98 0
0 98 0
0 98 0
0 97 0
0 98 0
0 97 0
0 97 0
0 96 0
0 97 0
0 97 0
0 98 0
0 97 0
0 98 0
0 98 0
0 97 0
0 98 0
0 97 0
0 99 0
0 98 0
0 97 0
0 95 0
0 99 0
0 98 0
0 98 0
0 97 0
0 97 0
0 98 0
0 97 0
0 97 0
0 98 0
0 96 0
0 99 0
0 95 0
0 97 0
0 98 0
0 97 0
0 97 0
0 98 0
0 98 0
0 97 0
0 98 0
0 98 0
0 97 0
0 98 0
0 98 0
0 98 0
0 98 0
0 98 0
0 98 0
0 97 0
0 98 0
0 97 0
0 98 0
0 98 0
0 98 0
0 97 0
0 98 0
0 98 0
0 97 0
0 98 0
0 98 0
0 98 0
0 94 0
0 98 0
0 98 0
0 98 0
0 96 0
0 97 0
0 98 0
0 97 0
0 96 0
0 98 0
0 96 0
0 99 0
0 98 0
0 98 0
0 97 0
0 98 0
0 98 0
0 97 0
0 98 0
0 98 0
0 96 0
0 98 0
0 98 0
0 98 0
0 98 0
0 98 0
0 98 0
0 98 0
0 98 0
0 96 0
0 98 0
0 98 0
0 97 0
0 98 0
0 99 0
0 98 0
0 99 0
0 98 0
0 98 0
0 98 0
0 97 0
0 98 0
0 96 0
0 98 0
0 98 0
0 99 0
0 97 0
0 98 0
0 98 0
0 97 0
0 96 0
0 97 0
0 98 0
0 97 0
0 97 0
0 96 0
0 98 0
0 97 0
0 98 0
0 97 0
0 97 0
0 97 0
0 97 0
0 97 0
0 98 0
0 98 0
0 98 0
0 98 0
0 98 0
0 97 0
0 96 0
0 97 0
0 97 0
0 98 0
0 99 0
0 98 0
0 98 0
0 96 0
0 98 0
0 98 0
0 97 0
0 97 0
0 98 0
0 95 0
0 97 0
0 97 0
0 97 0
0 98 0
0 97 0
0 98 0
0 98 0
0 97 0
0 97 0
0 96 0
0 97 0
0 98 0
0 98 0
0 98 0
0 98 0
0 98 0
0 98 0
0 97 0
0 98 0
0 97 0
0 98 0
0 97 0
0 98 0
0 98 0
0 97 0
0 97 0
0 98 0
0 97 0
0 97 0
0 98 0
0 97 0
0 97 0
0 98 0
0 98 0
0 98 0
0 98 0
0 96 0
0 97 0
0 99 0
0 98 0
0 97 0
0 96 0
0 97 0
0 98 0
0 97 0
0 97 0
0 98 0
0 98 0
0 98 0
0 97 0
0 98 0
0 98 0
0 97 0
0 98 0
0 99 0
0 97 0
0 97 0
0 98 0
0 98 0
0 97 0
0 98 0
0 98 0
0 97 0
0 98 0
0 99 0
0 98 0
0 97 0
0 99 0
0 98 0
0 98 0
0 98 0
0 98 0
0 97 0
0 98 0
0 97 0
0 97 0
0 97 0
0 97 0
0 99 0
0 98 0
0 98 0
0 97 0
0 98 0
0 98 0
0 98 0
0 99 0
0 97 0
0 97 0
0 96 0
0 98 0
0 98 0
0 99 0
0 98 0
0 98 0
0 98 0
0 97 0
0 98 0
0 98 0
0 97 0
0 98 0
0 98 0
0 97 0
0 98 0
0 99 0
0 99 0
0 97 0
0 98 0
0 97 0
0 97 0
0 98 0
0 98 0
0 98 0
0 98 0
0 97 0
0 98 0
0 99 0
0 98 0
0 97 0
0 98 0
0 98 0
0 97 0
0 97 0
0 98 0
0 97 0
0 96 0
0 98 0
0 97 0
0 97 0
0 97 0
0 97 0
0 97 0
0 98 0
0 98 0
0 97 0
0 97 0
0 97 0
0 98 0
0 98 0
0 97 0
0 97 0
0 98 0
0 97 0
0 97 0
0 98 0
0 98 0
0 98 0
0 98 0
0 98 0
0 98 0
0 97 0
0 97 0
0 98 0
0 98 0
0 97 0
0 97 0
0 97 0
0 98 0
0 97 0
0 97 0
0 96 0
0 98 0
0 97 0
0 98 0
0 98 0
0 98 0
0 98 0
0 97 0
0 98 0
0 98 0
0 96 0
0 96 0
0 98 0
0 97 0
0 98 0
0 97 0
0 98 0
0 97 0
0 97 0
0 99 0
0 98 0
0 97 0
0 97 0
0 98 0
0 97 0
0 96 0
0 98 0
0 97 0
0 99 0
0 98 0
0 98 0
0 96 0
0 96 0
0 97 0
0 97 0
0 98 0
0 98 0
0 97 0
0 98 0
0 97 0
0 97 0
0 97 0
0 98 0
0 98 0
0 99 0
0 98 0
0 98 0
0 97 0
0 98 0
0 98 0
0 98 0
0 97 0
0 96 0
0 98 0
0 98 0
0 98 0
0 98 0
0 98 0
0 97 0
0 97 0
0 97 0
0 97 0
0 97 0
0 99 0
0 98 0
0 98 0
0 98 0
0 97 0
0 98 0
0 99 0
0 97 0
0 97 0
0 96 0
0 97 0
0 98 0
0 98 0
0 98 0
0 98 0
0 96 0
0 97 0
0 98 0
0 98 0
0 97 0
0 98 0
0 96 0
0 97 0
0 98 0
0 98 0
0 97 0
0 97 0
0 98 0
0 98 0
0 96 0
0 97 0
0 97 0
0 98 0
0 97 0
0 98 0
0 97 0
0 97 0
0 98 0
0 97 0
0 97 0
0 98 0
0 98 0
0 96 0
0 97 0
0 96 0
0 98 0
0 99 0
0 97 0
0 98 0
0 98 0
0 98 0
0 96 0
0 98 0
0 97 0
0 98 0
0 98 0
0 98 0
0 97 0
0 97 0
0 96 0
0 97 0
0 98 0
0 98 0
0 97 0
0 97 0
0 98 0
0 96 0
0 97 0
0 97 0
0 96 0
0 97 0
0 97 0
0 98 0
0 99 0
0 97 0
0 97 0
0 98 0
0 97 0
0 98 0
0 98 0
0 96 0
0 99 0
0 97 0
0 96 0
0 97 0
0 96 0
0 99 0
0 98 0
0 97 0
0 97 0
0 97 0
0 98 0
0 97 0
0 97 0
0 98 0
0 98 0
0 97 0
0 97 0
0 98 0
0 98 0
0 97 0
0 99 0
0 98 0
0 96 0
0 98 0
0 98 0
0 98 0
0 98 0
0 98 0
0 98 0
0 96 0
0 97 0
0 98 0
0 98 0
0 98 0
0 98 0
0 98 0
0 97 0
0 97 0
0 97 0
0 97 0
0 96 0
0 96 0
0 98 0
0 97 0
0 97 0
0 96 0
0 98 0
0 99 0
0 98 0
0 97 0
0 97 0
0 98 0
0 98 0
0 97 0
0 98 0
0 98 0
0 98 0
0 97 0
0 98 0
0 98 0
0 99 0
0 97 0
0 97 0
0 98 0
0 97 0
0 97 0
0 98 0
0 97 0
0 97 0
0 98 0
0 98 0
0 96 0
0 97 0
0 98 0
0 98 0
0 97 0
0 98 0
0 98 0
0 98 0
0 97 0
0 97 0
0 98 0
0 97 0
0 98 0
0 98 0
0 96 0
0 97 0
0 96 0
0 98 0
0 98 0
0 99 0
0 98 0
0 97 0
0 98 0
0 97 0
0 98 0
0 97 0
0 96 0
0 98 0
0 97 0
0 97 0
0 98 0
0 97 0
0 97 0
0 96 0
0 98 0
0 99 0
0 97 0
0 97 0
0 97 0
0 99 0
0 98 0
0 97 0
0 98 0
0 98 0
0 98 0
0 98 0
0 98 0
0 97 0
0 97 0
0 96 0
0 99 0
0 98 0
0 98 0
0 97 0
0 97 0
0 96 0
0 98 0
0 98 0
0 97 0
0 99 0
0 98 0
0 97 0
0 97 0
0 97 0
0 97 0
0 97 0
0 98 0
0 98 0
0 98 0
0 99 0
0 97 0
0 96 0
0 97 0
0 97 0
0 97 0
0 97 0
0 99 0
0 97 0
0 98 0
0 97 0
0 98 0
0 96 0
0 98 0
0 97 0
0 98 0
0 97 0
0 97 0
0 98 0
0 98 0
0 98 0
0 98 0
0 99 0
0 98 0
0 98 0
0 98 0
0 98 0
0 98 0
0 97 0
0 98 0
0 98 0
0 97 0
0 97 0
0 97 0
0 98 0
0 98 0
0 98 0
0 98 0
0 97 0
0 97 0
0 97 0
0 97 0
0 97 0
0 98 0
0 98 0
0 95 0
0 98 0
0 98 0
0 97 0
0 98 0
0 97 0
0 98 0
0 98 0
0 97 0
0 98 0
0 96 0
0 97 0
0 98 0
0 98 0
0 98 0
0 98 0
0 98 0
0 98 0
0 98 0
0 97 0
0 98 0
0 98 0
0 98 0
0 97 0
0 97 0
0 97 0
0 98 0
0 99 0
0 97 0
0 99 0
0 98 0
0 98 0
0 97 0
0 98 0
0 96 0
0 98 0
0 99 0
0 97 0
0 98 0
0 98 0
0 99 0
0 98 0
0 98 0
0 98 0
0 98 0
0 98 0
0 98 0
0 98 0
0 98 0
0 98 0
0 97 0
0 98 0
0 97 0
0 98 0
0 98 0
0 98 0
0 98 0
0 99 0
0 98 0
0 97 0
0 99 0
0 98 0
0 98 0
0 98 0
0 99 0
0 97 0
0 99 0
0 98 0
0 97 0
0 98 0
0 99 0
0 98 0
0 99 0
0 99 0
0 98 0
0 98 0
0 97 0
0 98 0
0 98 0
0 98 0
0 98 0
0 98 0
0 98 0
0 98 0
0 98 0
0 98 0
0 99 0
0 98 0
0 97 0
0 98 0
0 98 0
0 98 0
0 99 0
0 98 0
0 97 0
0 97 0
0 97 0
0 98 0
0 98 0
0 96 0
0 97 0
0 97 0
0 98 0
0 99 0
0 98 0
0 98 0
0 98 0
0 99 0
0 97 0
0 98 0
0 98 0
0 97 0
0 99 0
0 97 0
0 98 0
0 98 0
0 98 0
0 98 0
0 97 0
0 98 0
0 97 0
0 98 0
0 98 0
0 97 0
0 97 0
0 99 0
0 99 0
0 97 0
0 98 0
0 97 0
0 98 0
0 99 0
0 98 0
0 98 0
0 98 0
0 97 0
0 98 0
0 97 0
0 94 0
0 99 0
0 97 0
0 98 0
0 97 0
0 98 0
0 97 0
0 98 0
0 96 0
0 98 0
0 99 0
0 97 0
0 97 0
0 97 0
0 98 0
0 98 0
0 98 0
0 98 0
0 96 0
0 97 0
0 98 0
0 98 0
0 97 0
0 99 0
0 96 0
0 98 0
0 96 0
0 98 0
0 98 0
0 98 0
0 98 0
0 98 0
0 98 0
0 97 0
0 97 0
0 98 0
0 96 0
0 98 0
0 98 0
0 99 0
0 99 0
0 97 0
0 97 0
0 98 0
0 98 0
0 95 0
0 98 0
0 98 0
0 97 0
0 96 0
0 97 0
0 97 0
0 98 0
0 97 0
0 96 0
0 98 0
0 98 0
0 99 0
0 98 0
0 97 0
0 98 0
0 97 0
0 98 0
0 98 0
0 98 0
0 98 0
0 98 0
0 97 0
0 98 0
0 97 0
0 98 0
0 98 0
0 97 0
0 99 0
0 98 0
0 98 0
0 97 0
0 96 0
0 97 0
0 97 0
0 97 0
0 97 0
0 98 0
0 98 0
0 97 0
0 98 0
0 98 0
0 97 0
0 99 0
0 97 0
0 97 0
0 97 0
0 97 0
0 99 0
0 97 0
0 97 0
0 98 0
0 97 0
0 98 0
0 97 0
0 97 0
0 98 0
0 99 0
0 99 0
0 98 0
0 97 0
0 98 0
0 98 0
0 98 0
0 98 0
0 98 0
0 98 0
0 95 0
0 98 0
0 98 0
0 98 0
0 97 0
0 97 0
0 98 0
0 98 0
0 98 0
0 97 0
0 98 0
0 98 0
0 96 0
0 98 0
0 98 0
0 98 0
0 98 0
0 98 0
0 98 0
0 98 0
0 98 0
0 98 0
0 98 0
0 96 0
0 97 0
0 97 0
0 97 0
0 97 0
0 96 0
0 97 0
0 96 0
0 97 0
0 97 0
0 98 0
0 98 0
0 98 0
0 97 0
0 98 0
0 97 0
0 98 0
0 97 0
0 98 0
0 97 0
0 96 0
0 99 0
0 98 0
0 97 0
0 98 0
0 97 0
0 98 0
0 98 0
0 98 0
0 98 0
0 97 0
0 98 0
0 96 0
0 97 0
0 97 0
0 96 0
0 97 0
0 99 0
0 98 0
0 98 0
0 96 0
0 97 0
0 98 0
0 97 0
0 97 0
0 97 0
0 97 0
0 98 0
0 98 0
0 98 0
0 97 0
0 98 0
0 97 0
0 98 0
0 97 0
0 97 0
0 98 0
0 97 0
0 97 0
0 97 0
0 98 0
0 98 0
0 97 0
0 96 0
0 98 0
0 97 0
0 97 0
0 96 0
0 98 0
0 97 0
0 98 0
0 98 0
0 97 0
0 98 0
0 98 0
0 97 0
0 98 0
0 97 0
0 96 0
0 98 0
0 99 0
0 98 0
0 98 0
0 98 0
0 98 0
0 98 0
0 97 0
0 96 0
0 98 0
0 98 0
0 99 0
0 97 0
0 98 0
0 98 0
0 97 0
0 98 0
0 98 0
0 98 0
0 98 0
0 97 0
0 97 0
0 97 0
0 98 0
0 98 0
0 98 0
0 98 0
0 96 0
0 98 0
0 97 0
0 98 0
0 99 0
0 99 0
0 98 0
0 97 0
0 97 0
0 97 0
0 97 0
0 98 0
0 98 0
0 97 0
0 98 0
0 99 0
0 98 0
0 96 0
0 98 0
0 98 0
0 98 0
0 96 0
0 98 0
0 98 0
0 99 0
0 98 0
0 96 0
0 98 0
0 96 0
0 98 0
0 98 0
0 97 0
0 97 0
0 97 0
0 98 0
0 98 0
0 99 0
0 98 0
0 98 0
0 97 0
0 98 0
0 97 0
0 98 0
0 97 0
0 98 0
0 98 0
0 98 0
0 95 0
0 98 0
0 97 0
0 98 0
0 98 0
0 97 0
0 98 0
0 98 0
0 97 0
0 98 0
0 98 0
0 97 0
0 97 0
0 98 0
0 99 0
0 98 0
0 98 0
0 98 0
0 98 0
0 98 0
0 98 0
0 99 0
0 97 0
0 97 0
0 98 0
0 97 0
0 98 0
0 97 0
0 97 0
0 98 0
0 98 0
0 97 0
0 98 0
0 98 0
0 97 0
0 98 0
0 97 0
0 98 0
0 98 0
0 98 0
0 98 0
0 98 0
0 98 0
0 98 0
0 98 0
0 98 0
0 98 0
0 96 0
0 98 0
0 97 0
0 99 0
0 98 0
0 98 0
0 98 0
0 98 0
0 98 0
0 98 0
0 97 0
0 99 0
0 98 0
0 97 0
0 99 0
0 98 0
0 96 0
0 97 0
0 96 0
0 96 0
0 98 0
0 99 0
0 97 0
0 98 0
0 98 0
0 98 0
0 97 0
0 98 0
0 98 0
0 97 0
0 99 0
0 97 0
0 98 0
0 98 0
0 98 0
0 98 0
0 97 0
0 98 0
0 97 0
0 96 0
0 98 0
0 98 0
0 96 0
0 98 0
0 98 0
0 97 0
0 98 0
0 97 0
0 97 0
0 98 0
0 98 0
0 97 0
0 98 0
0 98 0
0 97 0
0 97 0
0 96 0
0 98 0
0 98 0
0 98 0
0 98 0
0 97 0
0 98 0
0 98 0
0 98 0
0 98 0
0 98 0
0 98 0
0 97 0
0 98 0
0 98 0
0 98 0
0 98 0
0 98 0
0 98 0
0 99 0
0 97 0
0 96 0
0 97 0
0 97 0
0 98 0
0 98 0
0 97 0
0 98 0
0 97 0
0 96 0
0 98 0
0 98 0
0 98 0
0 98 0
0 98 0
0 98 0
0 98 0
0 98 0
0 97 0
0 98 0
0 98 0
0 98 0
0 98 0
0 98 0
0 98 0
0 98 0
0 97 0
0 97 0
0 98 0
0 98 0
0 97 0
0 96 0
0 98 0
0 98 0
0 97 0
0 97 0
0 98 0
0 97 0
0 98 0
0 98 0
0 97 0
0 98 0
0 97 0
0 97 0
0 98 0
0 98 0
0 97 0
0 99 0
0 98 0
0 97 0
0 98 0
0 98 0
0 98 0
0 98 0
0 98 0
0 98 0
0 98 0
0 96 0
0 99 0
0 98 0
0 97 0
0 97 0
0 98 0
0 98 0
0 96 0
0 97 0
0 97 0
0 97 0
0 98 0
0 97 0
0 97 0
0 98 0
0 98 0
0 98 0
0 96 0
0 97 0
0 97 0
0 98 0
0 97 0
0 98 0
0 97 0
0 96 0
0 98 0
0 99 0
0 97 0
0 98 0
0 96 0
0 98 0
0 97 0
0 97 0
0 96 0
0 99 0
0 98 0
0 98 0
0 98 0
0 97 0
0 97 0
0 96 0
0 97 0
0 97 0
0 97 0
0 97 0
0 98 0
0 98 0
0 97 0
0 98 0
0 97 0
0 96 0
0 98 0
0 98 0
0 98 0
0 98 0
0 98 0
0 97 0
0 97 0
0 97 0
0 97 0
0 97 0
0 99 0
0 97 0
0 98 0
0 97 0
0 98 0
0 98 0
0 97 0
0 98 0
0 98 0
0 98 0
0 95 0
0 97 0
0 97 0
0 97 0
0 98 0
0 97 0
0 98 0
0 98 0
0 97 0
0 96 0
0 97 0
0 98 0
0 97 0
0 98 0
0 98 0
0 97 0
0 97 0
0 98 0
0 97 0
0 97 0
0 98 0
0 98 0
0 97 0
0 97 0
0 98 0
0 99 0
0 97 0
0 98 0
0 98 0
0 98 0
0 96 0
0 97 0
0 98 0
0 97 0
0 97 0
0 98 0
0 97 0
0 98 0
0 98 0
0 98 0
0 97 0
0 98 0
0 97 0
0 97 0
0 98 0
0 98 0
0 97 0
0 98 0
0 98 0
0 99 0
0 98 0
0 98 0
0 97 0
0 97 0
0 97 0
0 97 0
0 99 0
0 98 0
0 97 0
0 98 0
0 97 0
0 98 0
0 98 0
0 98 0
0 98 0
0 97 0
0 97 0
0 98 0
0 97 0
0 98 0
0 98 0
0 98 0
0 97 0
0 97 0
0 97 0
0 99 0
0 97 0
0 98 0
0 98 0
0 98 0
0 97 0
0 97 0
0 98 0
0 98 0
0 98 0
0 98 0
0 98 0
0 97 0
0 98 0
0 98 0
0 98 0
0 98 0
0 98 0
0 98 0
0 98 0
0 97 0
0 98 0
0 97 0
0 95 0
0 98 0
0 96 0
0 97 0
0 98 0
0 97 0
0 97 0
0 98 0
0 97 0
0 97 0
0 97 0
0 97 0
0 98 0
0 97 0
0 96 0
0 97 0
0 98 0
0 98 0
0 97 0
0 96 0
0 99 0
0 97 0
0 98 0
0 98 0
0 96 0
0 97 0
0 98 0
0 98 0
0 98 0
0 97 0
0 96 0
0 97 0
0 98 0
0 98 0
0 98 0
0 98 0
0 98 0
0 97 0
0 97 0
0 98 0
0 98 0
0 98 0
0 97 0
0 98 0
0 98 0
0 97 0
0 98 0
0 97 0
0 97 0
0 98 0
0 97 0
0 97 0
0 98 0
0 97 0
0 98 0
0 98 0
0 97 0
0 98 0
0 98 0
0 98 0
0 98 0
0 99 0
0 97 0
0 98 0
0 98 0
0 97 0
0 99 0
0 98 0
0 98 0
0 98 0
0 99 0
0 99 0
0 98 0
0 98 0
0 97 0
0 97 0
0 97 0
0 98 0
0 98 0
0 98 0
0 97 0
0 98 0
0 98 0
0 97 0
0 98 0
0 98 0
0 98 0
0 98 0
0 98 0
0 98 0
0 97 0
0 96 0
0 97 0
0 98 0
0 98 0
0 98 0
0 97 0
0 98 0
0 98 0
0 97 0
0 98 0
0 98 0
0 98 0
0 98 0
0 99 0
0 98 0
0 98 0
0 98 0
0 98 0
0 99 0
0 99 0
0 98 0
0 98 0
0 98 0
0 98 0
0 97 0
0 97 0
0 98 0
0 98 0
0 96 0
0 97 0
0 97 0
0 97 0
0 98 0
0 98 0
0 97 0
0 98 0
0 98 0
0 98 0
0 97 0
0 98 0
0 97 0
0 97 0
0 97 0
0 98 0
0 98 0
0 97 0
0 98 0
0 98 0
0 98 0
0 98 0
0 99 0
0 98 0
0 97 0
0 97 0
0 97 0
0 98 0
0 98 0
0 98 0
0 98 0
0 97 0
0 96 0
0 98 0
0 97 0
0 98 0
0 96 0
0 98 0
0 99 0
0 97 0
0 97 0
0 97 0
0 98 0
0 98 0
0 99 0
0 99 0
0 98 0
0 97 0
0 98 0
0 97 0
0 98 0
0 98 0
0 98 0
0 97 0
0 98 0
0 98 0
0 98 0
0 97 0
0 97 0
0 97 0
0 97 0
0 98 0
0 97 0
0 99 0
0 98 0
0 98 0
0 96 0
0 98 0
0 98 0
0 99 0
0 99 0
0 98 0
0 98 0
0 97 0
0 97 0
0 98 0
0 97 0
0 98 0
0 99 0
0 97 0
0 97 0
0 97 0
0 97 0
0 98 0
0 98 0
0 97 0
0 97 0
0 98 0
0 96 0
0 98 0
0 97 0
0 97 0
0 98 0
0 97 0
0 98 0
0 98 0
0 97 0
0 97 0
0 98 0
0 96 0
0 97 0
0 98 0
0 98 0
0 98 0
0 96 0
0 98 0
0 96 0
0 97 0
0 99 0
0 97 0
0 98 0
0 98 0
0 97 0
0 98 0
0 97 0
0 97 0
0 97 0
0 97 0
0 98 0
0 98 0
0 96 0
0 97 0
0 97 0
0 97 0
0 98 0
0 97 0
0 97 0
0 97 0
0 98 0
0 97 0
0 99 0
0 98 0
0 98 0
0 98 0
0 98 0
0 98 0
0 98 0
0 97 0
0 97 0
0 97 0
0 98 0
0 97 0
0 98 0
0 97 0
0 97 0
0 98 0
0 99 0
0 98 0
0 97 0
0 98 0
0 98 0
0 97 0
0 98 0
0 98 0
0 97 0
0 98 0
0 98 0
0 97 0
0 97 0
0 98 0
0 97 0
0 98 0
0 98 0
0 97 0
0 97 0
0 98 0
0 98 0
0 97 0
0 98 0
0 97 0
0 97 0
0 97 0
0 98 0
0 96 0
0 95 0
0 98 0
0 98 0
0 98 0
0 97 0
0 98 0
0 98 0
0 97 0
0 98 0
0 98 0
0 98 0
0 97 0
0 98 0
0 98 0
0 97 0
0 97 0
0 97 0
0 98 0
0 99 0
0 98 0
0 97 0
0 97 0
0 97 0
0 99 0
0 98 0
0 97 0
0 97 0
0 97 0
0 98 0
0 98 0
0 98 0
0 97 0
0 97 0
0 98 0
0 97 0
0 98 0
0 97 0
0 97 0
0 97 0
0 98 0
0 97 0
0 97 0
0 98 0
0 97 0
0 97 0
0 97 0
0 99 0
0 97 0
0 96 0
0 98 0
0 98 0
0 97 0
0 97 0
0 97 0
0 98 0
0 97 0
0 98 0
0 97 0
0 98 0
0 98 0
0 98 0
0 98 0
0 99 0
0 97 0
0 97 0
0 97 0
0 99 0
0 97 0
0 97 0
0 98 0
0 98 0
0 99 0
0 97 0
0 98 0
0 97 0
0 98 0
0 98 0
0 98 0
0 96 0
0 98 0
0 97 0
0 98 0
0 97 0
0 98 0
0 97 0
0 97 0
0 99 0
0 98 0
0 98 0
0 98 0
0 97 0
0 97 0
0 98 0
0 98 0
0 97 0
0 97 0
0 97 0
0 97 0
0 97 0
0 98 0
0 96 0
0 97 0
0 98 0
0 98 0
0 97 0
0 97 0
0 98 0
0 97 0
0 99 0
0 99 0
0 98 0
0 97 0
0 97 0
0 98 0
0 99 0
0 97 0
0 98 0
0 99 0
0 96 0
0 98 0
0 97 0
0 97 0
0 98 0
0 98 0
0 98 0
0 98 0
0 98 0
0 97 0
0 98 0
0 99 0
0 96 0
0 98 0
0 98 0
0 98 0
0 98 0
0 98 0
0 98 0
0 97 0
0 98 0
0 97 0
0 98 0
0 98 0
0 98 0
0 97 0
0 98 0
0 98 0
0 97 0
0 95 0
0 98 0
0 98 0
0 98 0
0 98 0
0 98 0
0 98 0
0 98 0
0 98 0
0 98 0
0 97 0
0 98 0
0 98 0
0 97 0
0 97 0
0 98 0
0 97 0
0 98 0
0 98 0
0 98 0
0 97 0
0 98 0
0 96 0
0 98 0
0 97 0
0 98 0
0 97 0
0 97 0
0 98 0
0 97 0
0 98 0
